; generated by PrusaSlicer 2.3.1+win64 on 2021-05-20 at 16:20:52 UTC

; 

; external perimeters extrusion width = 0.45mm
; perimeters extrusion width = 0.45mm
; infill extrusion width = 0.45mm
; solid infill extrusion width = 0.45mm
; top infill extrusion width = 0.40mm
; support material extrusion width = 0.38mm
; first layer extrusion width = 0.42mm

M201 X500 Y500 Z100 E5000 ; sets maximum accelerations, mm/sec^2
M203 X500 Y500 Z10 E60 ; sets maximum feedrates, mm/sec
M204 P500 R1000 T500 ; sets acceleration (P, T) and retract acceleration (R), mm/sec^2
M205 X8.00 Y8.00 Z0.40 E5.00 ; sets the jerk limits, mm/sec
M205 S0 T0 ; sets the minimum extruding and travel feed rate, mm/sec
M107
;TYPE:Custom
G90 ; use absolute coordinates
M83 ; extruder relative mode
M104 S120 ; set temporary nozzle temp to prevent oozing during homing and auto bed leveling
M140 S70 ; set final bed temp
G4 S10 ; allow partial nozzle warmup
G28 ; home all axis
G1 Z50 F240
G1 X2 Y10 F3000
M104 S200 ; set final nozzle temp
M190 S70 ; wait for bed temp to stabilize
M109 S200 ; wait for nozzle temp to stabilize
G1 Z0.28 F240
G92 E0
G1 Y140 E10 F1500 ; prime the nozzle
G1 X2.3 F5000
G92 E0
G1 Y10 E10 F1200 ; prime the nozzle
G92 E0
G21 ; set units to millimeters
G90 ; use absolute coordinates
M83 ; use relative distances for extrusion
; Filament gcode
;LAYER_CHANGE
;Z:0.2
;HEIGHT:0.2
;BEFORE_LAYER_CHANGE
G92 E0
;0.2


G1 E-5.00000 F3600.000
G1 Z0.200 F6000.000
;AFTER_LAYER_CHANGE
;0.2
G1 X97.578 Y115.935
G1 E5.00000 F2400.000
M204 S500
;TYPE:Skirt
;WIDTH:0.42
G1 F600.000
G1 X97.967 Y115.068 E0.02979
G1 X98.503 Y114.383 E0.02725
G1 X101.029 Y111.974 E0.10946
G1 X105.570 Y108.726 E0.17505
G1 X113.017 Y104.849 E0.26324
G1 X114.288 Y104.421 E0.04206
G1 X115.640 Y104.298 E0.04257
G1 X116.790 Y104.438 E0.03631
G1 X118.021 Y104.866 E0.04086
G1 X125.696 Y108.889 E0.27172
G1 X130.269 Y112.004 E0.17347
G1 X132.936 Y115.087 E0.12783
G1 X133.414 Y116.080 E0.03454
G1 X133.583 Y117.169 E0.03454
G1 X133.580 Y128.161 E0.34464
G1 X133.420 Y129.092 E0.02964
G1 X133.033 Y129.955 E0.02964
G1 X132.460 Y130.676 E0.02889
G1 X131.728 Y131.236 E0.02889
G1 X130.877 Y131.603 E0.02904
G1 X129.967 Y131.750 E0.02889
G1 X101.104 Y131.751 E0.90499
G1 X100.122 Y131.603 E0.03113
G1 X99.214 Y131.202 E0.03113
G1 X98.520 Y130.656 E0.02770
G1 X97.969 Y129.958 E0.02785
G1 X97.600 Y129.156 E0.02770
G1 X97.428 Y128.289 E0.02770
G1 X97.420 Y116.871 E0.35800
G1 X97.568 Y115.994 E0.02791
G1 X97.938 Y116.057 F6000.000
G1 F600.000
G1 X98.301 Y115.244 E0.02789
G1 X98.779 Y114.640 E0.02415
G1 X101.277 Y112.258 E0.10822
G1 X105.767 Y109.048 E0.17306
G1 X113.163 Y105.196 E0.26147
G1 X114.364 Y104.790 E0.03976
G1 X115.637 Y104.675 E0.04005
G1 X116.708 Y104.806 E0.03383
G1 X117.876 Y105.214 E0.03881
G1 X125.502 Y109.213 E0.26998
G1 X130.022 Y112.290 E0.17144
G1 X132.623 Y115.297 E0.12467
G1 X133.055 Y116.194 E0.03120
G1 X133.206 Y117.178 E0.03120
G1 X133.203 Y128.134 E0.34353
G1 X133.058 Y128.987 E0.02711
G1 X132.699 Y129.778 E0.02726
G1 X132.179 Y130.423 E0.02598
G1 X131.517 Y130.923 E0.02598
G1 X130.754 Y131.246 E0.02598
G1 X129.940 Y131.373 E0.02584
G1 X101.117 Y131.375 E0.90374
G1 X100.217 Y131.237 E0.02853
G1 X99.391 Y130.868 E0.02838
G1 X98.768 Y130.370 E0.02500
G1 X98.279 Y129.741 E0.02500
G1 X97.951 Y129.014 E0.02500
G1 X97.802 Y128.231 E0.02500
G1 X97.796 Y116.893 E0.35550
G1 X97.928 Y116.116 E0.02472
G1 E-3.50000 F3600.000
;WIPE_START
G1 F4800.000
G1 X98.301 Y115.244 E-0.67533
G1 X98.779 Y114.640 E-0.54872
G1 X98.983 Y114.446 E-0.20095
;WIPE_END
G1 E-0.07500 F3600.000
G1 X101.171 Y117.025 F6000.000
G1 E5.00000 F2400.000
;TYPE:Support material
G1 F600.000
G1 X101.171 Y127.998 E0.34406
G1 E-3.50000 F3600.000
;WIPE_START
G1 F4800.000
G1 X101.171 Y125.998 E-1.42500
;WIPE_END
G1 E-0.07500 F3600.000
G1 X105.696 Y120.972 F6000.000
G1 E5.00000 F2400.000
G1 F600.000
G1 X105.696 Y114.857 E0.19173
G1 X104.942 Y114.857 E0.02365
G1 X104.942 Y120.802 E0.18641
G1 X104.188 Y120.802 E0.02365
G1 X104.188 Y114.857 E0.18641
G1 X103.433 Y114.857 E0.02365
G1 X103.433 Y120.802 E0.18641
G1 X102.679 Y120.802 E0.02365
G1 X102.679 Y117.194 E0.11313
G1 X101.925 Y117.194 E0.02365
G1 X101.925 Y120.802 E0.11313
G1 X101.665 Y120.802 E0.00814
G1 X101.344 Y121.124 E0.01425
G1 X101.344 Y123.178 E0.06442
G1 X101.665 Y123.499 E0.01425
G1 X101.925 Y123.499 E0.00814
G1 X101.925 Y127.828 E0.13573
G1 X102.679 Y127.828 E0.02365
G1 X102.679 Y123.499 E0.13573
G1 X103.433 Y123.499 E0.02365
G1 X103.433 Y127.828 E0.13573
G1 X104.188 Y127.828 E0.02365
G1 X104.188 Y123.499 E0.13573
G1 X104.942 Y123.499 E0.02365
G1 X104.942 Y127.828 E0.13573
G1 X105.696 Y127.828 E0.02365
G1 X105.696 Y123.499 E0.13573
G1 X106.450 Y123.499 E0.02365
G1 X106.450 Y127.828 E0.13573
G1 X107.204 Y127.828 E0.02365
G1 X107.204 Y123.471 E0.13662
G1 X107.533 Y123.373 E0.01075
G1 X107.766 Y123.254 E0.00821
G1 X107.958 Y123.110 E0.00754
G1 X107.958 Y127.828 E0.14795
G1 X108.713 Y127.828 E0.02365
G1 X108.713 Y114.857 E0.40670
G1 X109.467 Y114.857 E0.02365
G1 X109.467 Y127.828 E0.40670
G1 X110.221 Y127.828 E0.02365
G1 X110.221 Y114.857 E0.40670
G1 X110.975 Y114.857 E0.02365
G1 X110.975 Y127.998 E0.41202
G1 E-3.50000 F3600.000
;WIPE_START
G1 F4800.000
G1 X110.975 Y125.998 E-1.42500
;WIPE_END
G1 E-0.07500 F3600.000
G1 X120.025 Y114.687 F6000.000
G1 E5.00000 F2400.000
G1 F600.000
G1 X120.025 Y127.828 E0.41202
G1 X120.779 Y127.828 E0.02365
G1 X120.779 Y114.857 E0.40670
G1 X121.533 Y114.857 E0.02365
G1 X121.533 Y127.828 E0.40670
G1 X122.287 Y127.828 E0.02365
G1 X122.287 Y114.857 E0.40670
G1 X122.451 Y114.857 E0.00514
G1 X122.454 Y121.944 E0.22220
G1 X122.498 Y122.240 E0.00939
G1 X122.604 Y122.544 E0.01010
G1 X122.767 Y122.821 E0.01006
G1 X122.946 Y123.028 E0.00858
G1 X123.042 Y123.110 E0.00396
G1 X123.042 Y127.828 E0.14795
G1 X123.796 Y127.828 E0.02365
G1 X123.796 Y123.471 E0.13662
G1 X124.089 Y123.499 E0.00924
G1 X124.550 Y123.499 E0.01444
G1 X124.550 Y127.828 E0.13573
G1 X125.304 Y127.828 E0.02365
G1 X125.304 Y123.499 E0.13573
G1 X126.058 Y123.499 E0.02365
G1 X126.058 Y127.828 E0.13573
G1 X126.812 Y127.828 E0.02365
G1 X126.812 Y123.499 E0.13573
G1 X127.567 Y123.499 E0.02365
G1 X127.567 Y127.828 E0.13573
G1 X128.321 Y127.828 E0.02365
G1 X128.321 Y123.499 E0.13573
G1 X129.075 Y123.499 E0.02365
G1 X129.075 Y127.998 E0.14105
G1 X129.829 Y127.998 F6000.000
G1 F600.000
G1 X129.829 Y117.194 E0.33874
G1 X129.075 Y117.194 E0.02365
G1 X129.075 Y120.802 E0.11313
G1 X128.321 Y120.802 E0.02365
G1 X128.321 Y117.194 E0.11313
G1 X127.828 Y117.194 E0.01544
G1 X127.828 Y114.857 E0.07328
G1 X127.567 Y114.857 E0.00820
G1 X127.567 Y120.802 E0.18641
G1 X126.812 Y120.802 E0.02365
G1 X126.812 Y114.857 E0.18641
G1 X126.058 Y114.857 E0.02365
G1 X126.058 Y120.802 E0.18641
G1 X125.304 Y120.802 E0.02365
G1 X125.304 Y114.687 E0.19173
G1 E-3.50000 F3600.000
;WIPE_START
G1 F4800.000
G1 X125.304 Y116.687 E-1.42500
;WIPE_END
G1 E-0.07500 F3600.000
G1 X123.913 Y122.038 F6000.000
G1 E5.00000 F2400.000
;TYPE:Perimeter
G1 F600.000
G1 X128.420 Y122.038 E0.14133
G1 X128.420 Y122.264 E0.00708
G1 X124.132 Y122.264 E0.13444
G1 X123.949 Y122.232 E0.00585
G1 X123.818 Y122.148 E0.00487
G1 X123.728 Y122.023 E0.00483
G1 X123.688 Y121.858 E0.00531
G1 X123.687 Y113.752 E0.25417
G1 X123.663 Y113.532 E0.00694
G1 X123.580 Y113.288 E0.00809
G1 X123.445 Y113.066 E0.00813
G1 X123.266 Y112.879 E0.00813
G1 X123.082 Y112.756 E0.00693
G1 X116.011 Y109.075 E0.24994
G1 X115.783 Y108.989 E0.00766
G1 X115.500 Y108.955 E0.00893
G1 X115.216 Y108.989 E0.00897
G1 X114.986 Y109.076 E0.00769
G1 X107.917 Y112.756 E0.24989
G1 X107.733 Y112.880 E0.00694
G1 X107.555 Y113.066 E0.00809
G1 X107.420 Y113.288 E0.00813
G1 X107.337 Y113.533 E0.00813
G1 X107.313 Y113.753 E0.00693
G1 X107.312 Y121.843 E0.25367
G1 X107.272 Y122.023 E0.00577
G1 X107.182 Y122.148 E0.00483
G1 X107.051 Y122.232 E0.00487
G1 X106.868 Y122.264 E0.00585
G1 X102.580 Y122.264 E0.13444
G1 X102.580 Y122.038 E0.00708
G1 X107.087 Y122.038 E0.14133
G1 X107.087 Y113.815 E0.25784
G1 X107.102 Y113.599 E0.00676
G1 X107.141 Y113.411 E0.00603
G1 X107.205 Y113.230 E0.00604
G1 X107.294 Y113.058 E0.00604
G1 X107.404 Y112.902 E0.00601
G1 X107.535 Y112.761 E0.00603
G1 X107.684 Y112.639 E0.00603
G1 X107.868 Y112.527 E0.00676
G1 X114.827 Y108.905 E0.24597
G1 X115.026 Y108.818 E0.00680
G1 X115.212 Y108.766 E0.00607
G1 X115.404 Y108.739 E0.00608
G1 X115.597 Y108.739 E0.00605
G1 X115.788 Y108.766 E0.00606
G1 X115.974 Y108.818 E0.00606
G1 X116.173 Y108.905 E0.00680
G1 X123.132 Y112.527 E0.24597
G1 X123.316 Y112.639 E0.00676
G1 X123.465 Y112.761 E0.00602
G1 X123.596 Y112.901 E0.00602
G1 X123.707 Y113.059 E0.00604
G1 X123.795 Y113.230 E0.00604
G1 X123.859 Y113.411 E0.00602
G1 X123.898 Y113.599 E0.00603
G1 X123.913 Y113.813 E0.00672
G1 X123.913 Y121.978 E0.25600
G1 X124.290 Y121.661 F6000.000
;TYPE:External perimeter
G1 F600.000
G1 X128.797 Y121.661 E0.14133
G1 X128.797 Y122.641 E0.03073
G1 X124.115 Y122.641 E0.14682
G1 X123.952 Y122.625 E0.00514
G1 X123.808 Y122.584 E0.00467
G1 X123.675 Y122.515 E0.00469
G1 X123.557 Y122.423 E0.00469
G1 X123.459 Y122.311 E0.00466
G1 X123.384 Y122.182 E0.00468
G1 X123.335 Y122.041 E0.00468
G1 X123.311 Y121.886 E0.00491
G1 X123.310 Y113.773 E0.25440
G1 X123.292 Y113.614 E0.00500
G1 X123.236 Y113.448 E0.00551
G1 X123.144 Y113.297 E0.00554
G1 X123.022 Y113.169 E0.00554
G1 X122.890 Y113.081 E0.00499
G1 X115.857 Y109.420 E0.24858
G1 X115.693 Y109.358 E0.00552
G1 X115.500 Y109.335 E0.00609
G1 X115.307 Y109.358 E0.00610
G1 X115.141 Y109.421 E0.00556
G1 X108.110 Y113.081 E0.24853
G1 X107.977 Y113.170 E0.00500
G1 X107.856 Y113.297 E0.00551
G1 X107.764 Y113.448 E0.00554
G1 X107.707 Y113.615 E0.00554
G1 X107.690 Y113.773 E0.00499
G1 X107.689 Y121.870 E0.25386
G1 X107.665 Y122.042 E0.00546
G1 X107.616 Y122.182 E0.00465
G1 X107.541 Y122.311 E0.00468
G1 X107.443 Y122.423 E0.00466
G1 X107.325 Y122.515 E0.00470
G1 X107.192 Y122.584 E0.00469
G1 X107.048 Y122.625 E0.00467
G1 X106.885 Y122.641 E0.00514
G1 X102.203 Y122.641 E0.14682
G1 X102.203 Y121.661 E0.03073
G1 X106.710 Y121.661 E0.14133
G1 X106.710 Y113.802 E0.24642
G1 X106.727 Y113.548 E0.00797
G1 X106.777 Y113.309 E0.00764
G1 X106.858 Y113.079 E0.00765
G1 X106.971 Y112.862 E0.00766
G1 X107.111 Y112.663 E0.00763
G1 X107.277 Y112.485 E0.00764
G1 X107.466 Y112.331 E0.00764
G1 X107.683 Y112.199 E0.00797
G1 X114.664 Y108.564 E0.24677
G1 X114.899 Y108.462 E0.00802
G1 X115.135 Y108.396 E0.00770
G1 X115.378 Y108.362 E0.00770
G1 X115.623 Y108.362 E0.00767
G1 X115.866 Y108.396 E0.00769
G1 X116.101 Y108.462 E0.00769
G1 X116.336 Y108.564 E0.00802
G1 X123.317 Y112.199 E0.24678
G1 X123.534 Y112.331 E0.00797
G1 X123.723 Y112.485 E0.00764
G1 X123.889 Y112.663 E0.00763
G1 X124.030 Y112.863 E0.00766
G1 X124.142 Y113.080 E0.00766
G1 X124.223 Y113.309 E0.00763
G1 X124.273 Y113.548 E0.00764
G1 X124.290 Y113.800 E0.00793
G1 X124.290 Y121.601 E0.24458
G1 X124.290 Y122.061 F6000.000
M106 S84.15
;LAYER_CHANGE
;Z:0.4
;HEIGHT:0.2
;BEFORE_LAYER_CHANGE
G92 E0
;0.4


G1 E-3.50000 F3600.000
;WIPE_START
G1 F4800.000
G1 X126.290 Y121.627 E-1.42500
;WIPE_END
G1 E-0.07500 F3600.000
G1 Z0.400 F6000.000
;AFTER_LAYER_CHANGE
;0.4
M104 S195 ; set temperature
M140 S65 ; set bed temperature
G1 X133.414 Y116.080
G1 E5.00000 F2400.000
;TYPE:Skirt
G1 F1315
G1 X133.583 Y117.169 E0.03454
G1 X133.580 Y128.161 E0.34464
G1 X133.420 Y129.092 E0.02964
G1 X133.033 Y129.955 E0.02964
G1 X132.460 Y130.676 E0.02889
G1 X131.728 Y131.236 E0.02889
G1 X130.877 Y131.603 E0.02904
G1 X129.967 Y131.750 E0.02889
G1 X101.104 Y131.751 E0.90499
G1 X100.122 Y131.603 E0.03113
G1 X99.214 Y131.202 E0.03113
G1 X98.520 Y130.656 E0.02770
G1 X97.969 Y129.958 E0.02785
G1 X97.600 Y129.156 E0.02770
G1 X97.428 Y128.289 E0.02770
G1 X97.420 Y116.871 E0.35800
G1 X97.578 Y115.935 E0.02979
G1 X97.967 Y115.068 E0.02979
G1 X98.503 Y114.383 E0.02725
G1 X101.029 Y111.974 E0.10946
G1 X105.570 Y108.726 E0.17505
G1 X113.017 Y104.849 E0.26324
G1 X114.288 Y104.421 E0.04206
G1 X115.640 Y104.298 E0.04257
G1 X116.790 Y104.438 E0.03631
G1 X118.021 Y104.866 E0.04086
G1 X125.696 Y108.889 E0.27172
G1 X130.269 Y112.004 E0.17347
G1 X132.936 Y115.087 E0.12783
G1 X133.388 Y116.026 E0.03266
G1 X133.052 Y116.188 F6000.000
G1 F1315
G1 X133.206 Y117.178 E0.03140
G1 X133.203 Y128.134 E0.34353
G1 X133.058 Y128.987 E0.02711
G1 X132.699 Y129.778 E0.02726
G1 X132.179 Y130.423 E0.02598
G1 X131.517 Y130.923 E0.02598
G1 X130.754 Y131.246 E0.02598
G1 X129.940 Y131.373 E0.02584
G1 X101.117 Y131.375 E0.90374
G1 X100.217 Y131.237 E0.02853
G1 X99.391 Y130.868 E0.02838
G1 X98.768 Y130.370 E0.02500
G1 X98.279 Y129.741 E0.02500
G1 X97.951 Y129.014 E0.02500
G1 X97.802 Y128.231 E0.02500
G1 X97.796 Y116.893 E0.35550
G1 X97.942 Y116.036 E0.02726
G1 X98.301 Y115.244 E0.02726
G1 X98.779 Y114.640 E0.02415
G1 X101.277 Y112.258 E0.10822
G1 X105.767 Y109.048 E0.17306
G1 X113.163 Y105.196 E0.26147
G1 X114.364 Y104.790 E0.03976
G1 X115.637 Y104.675 E0.04005
G1 X116.708 Y104.806 E0.03383
G1 X117.876 Y105.214 E0.03881
G1 X125.502 Y109.213 E0.26998
G1 X130.022 Y112.290 E0.17144
G1 X132.623 Y115.297 E0.12467
G1 X133.026 Y116.134 E0.02911
G1 E-3.50000 F3600.000
;WIPE_START
G1 F4800.000
G1 X133.206 Y117.178 E-0.75462
G1 X133.206 Y118.118 E-0.67038
;WIPE_END
G1 E-0.07500 F3600.000
G1 X128.675 Y121.983 F6000.000
G1 E5.00000 F2400.000
;TYPE:Perimeter
;WIDTH:0.45
G1 F1315
G1 X128.675 Y122.319 E0.01137
G1 X124.130 Y122.319 E0.15386
G1 X123.928 Y122.283 E0.00692
G1 X123.780 Y122.188 E0.00597
G1 X123.677 Y122.043 E0.00601
G1 X123.633 Y121.846 E0.00683
G1 X123.632 Y113.720 E0.27507
G1 X123.536 Y113.300 E0.01458
G1 X123.265 Y112.946 E0.01508
G1 X123.058 Y112.805 E0.00849
G1 X115.989 Y109.125 E0.26976
G1 X115.767 Y109.042 E0.00801
G1 X115.494 Y109.010 E0.00932
G1 X115.223 Y109.045 E0.00924
G1 X115.010 Y109.126 E0.00771
G1 X107.946 Y112.803 E0.26958
G1 X107.739 Y112.942 E0.00844
G1 X107.466 Y113.295 E0.01509
G1 X107.368 Y113.716 E0.01463
G1 X107.367 Y121.847 E0.27523
G1 X107.323 Y122.044 E0.00685
G1 X107.220 Y122.188 E0.00597
G1 X107.072 Y122.283 E0.00597
G1 X106.870 Y122.319 E0.00692
G1 X102.325 Y122.319 E0.15386
G1 X102.325 Y121.983 E0.01137
G1 X107.032 Y121.983 E0.15934
G1 X107.032 Y113.813 E0.27656
G1 X107.047 Y113.593 E0.00744
G1 X107.088 Y113.396 E0.00680
G1 X107.155 Y113.207 E0.00679
G1 X107.247 Y113.029 E0.00679
G1 X107.363 Y112.865 E0.00681
G1 X107.491 Y112.727 E0.00636
G1 X107.657 Y112.591 E0.00727
G1 X107.841 Y112.479 E0.00728
G1 X114.803 Y108.855 E0.26567
G1 X115.007 Y108.766 E0.00753
G1 X115.201 Y108.711 E0.00683
G1 X115.401 Y108.684 E0.00683
G1 X115.603 Y108.684 E0.00683
G1 X115.803 Y108.713 E0.00686
G1 X115.986 Y108.764 E0.00642
G1 X116.198 Y108.856 E0.00781
G1 X123.157 Y112.478 E0.26557
G1 X123.357 Y112.601 E0.00793
G1 X123.500 Y112.719 E0.00629
G1 X123.638 Y112.866 E0.00682
G1 X123.754 Y113.030 E0.00680
G1 X123.846 Y113.209 E0.00680
G1 X123.913 Y113.398 E0.00680
G1 X123.953 Y113.596 E0.00683
G1 X123.967 Y113.801 E0.00697
G1 X123.968 Y121.983 E0.27694
G1 X128.615 Y121.983 E0.15731
G1 E-3.50000 F3600.000
;WIPE_START
G1 F4800.000
G1 X128.675 Y122.319 E-0.24308
G1 X127.016 Y122.319 E-1.18192
;WIPE_END
G1 E-0.07500 F3600.000
G1 X124.375 Y121.576 F6000.000
G1 E5.00000 F2400.000
;TYPE:External perimeter
G1 F1315
G1 X129.082 Y121.576 E0.15934
G1 X129.082 Y122.726 E0.03893
G1 X124.111 Y122.726 E0.16829
G1 X123.937 Y122.710 E0.00588
G1 X123.777 Y122.663 E0.00565
G1 X123.629 Y122.587 E0.00564
G1 X123.498 Y122.484 E0.00564
G1 X123.389 Y122.359 E0.00564
G1 X123.305 Y122.214 E0.00565
G1 X123.252 Y122.063 E0.00541
G1 X123.226 Y121.875 E0.00643
G1 X123.225 Y113.766 E0.27449
G1 X123.159 Y113.477 E0.01002
G1 X122.982 Y113.246 E0.00986
G1 X122.848 Y113.155 E0.00546
G1 X115.823 Y109.498 E0.26811
G1 X115.671 Y109.441 E0.00549
G1 X115.496 Y109.421 E0.00595
G1 X115.322 Y109.443 E0.00593
G1 X115.177 Y109.498 E0.00527
G1 X108.154 Y113.154 E0.26800
G1 X108.021 Y113.243 E0.00543
G1 X107.843 Y113.474 E0.00986
G1 X107.775 Y113.763 E0.01005
G1 X107.774 Y121.875 E0.27459
G1 X107.749 Y122.057 E0.00621
G1 X107.695 Y122.214 E0.00563
G1 X107.611 Y122.358 E0.00564
