; generated by PrusaSlicer 2.3.1+win64 on 2021-05-28 at 15:21:26 UTC

; 

; external perimeters extrusion width = 0.45mm
; perimeters extrusion width = 0.45mm
; infill extrusion width = 0.45mm
; solid infill extrusion width = 0.45mm
; top infill extrusion width = 0.40mm
; first layer extrusion width = 0.42mm

M201 X500 Y500 Z100 E5000 ; sets maximum accelerations, mm/sec^2
M203 X500 Y500 Z10 E60 ; sets maximum feedrates, mm/sec
M204 P500 R1000 T500 ; sets acceleration (P, T) and retract acceleration (R), mm/sec^2
M205 X8.00 Y8.00 Z0.40 E5.00 ; sets the jerk limits, mm/sec
M205 S0 T0 ; sets the minimum extruding and travel feed rate, mm/sec
M107
;TYPE:Custom
G90 ; use absolute coordinates
M83 ; extruder relative mode
M104 S120 ; set temporary nozzle temp to prevent oozing during homing and auto bed leveling
M140 S70 ; set final bed temp
G4 S10 ; allow partial nozzle warmup
G28 ; home all axis
G1 Z50 F240
G1 X2 Y10 F3000
M104 S200 ; set final nozzle temp
M190 S70 ; wait for bed temp to stabilize
M109 S200 ; wait for nozzle temp to stabilize
G1 Z0.28 F240
G92 E0
G1 Y140 E10 F1500 ; prime the nozzle
G1 X2.3 F5000
G92 E0
G1 Y10 E10 F1200 ; prime the nozzle
G92 E0
G21 ; set units to millimeters
G90 ; use absolute coordinates
M83 ; use relative distances for extrusion
; Filament gcode
;LAYER_CHANGE
;Z:0.2
;HEIGHT:0.2
;BEFORE_LAYER_CHANGE
G92 E0
;0.2


G1 E-5.00000 F3600.000
G1 Z0.200 F6000.000
;AFTER_LAYER_CHANGE
;0.2
G1 X107.834 Y107.746
G1 E5.00000 F2400.000
M204 S500
;TYPE:Skirt
;WIDTH:0.42
G1 F600.000
G1 X109.324 Y106.516 E0.06057
G1 X110.384 Y105.872 E0.03888
G1 X111.242 Y105.463 E0.02980
G1 X112.243 Y105.095 E0.03345
G1 X113.458 Y104.790 E0.03927
G1 X115.451 Y104.597 E0.06279
G1 X116.337 Y104.630 E0.02779
G1 X117.583 Y104.798 E0.03942
G1 X119.514 Y105.363 E0.06309
G1 X120.644 Y105.888 E0.03906
G1 X121.572 Y106.444 E0.03393
G1 X122.329 Y107.000 E0.02944
G1 X123.258 Y107.841 E0.03929
G1 X124.537 Y109.399 E0.06321
G1 X125.176 Y110.480 E0.03938
G1 X125.624 Y111.449 E0.03346
G1 X126.155 Y113.189 E0.05702
G1 X126.362 Y114.562 E0.04355
G1 X126.404 Y115.500 E0.02944
G1 X126.363 Y116.437 E0.02939
G1 X126.155 Y117.809 E0.04352
G1 X125.623 Y119.552 E0.05714
G1 X125.174 Y120.523 E0.03355
G1 X124.536 Y121.603 E0.03932
G1 X123.257 Y123.160 E0.06319
G1 X122.332 Y123.997 E0.03911
G1 X121.574 Y124.555 E0.02950
G1 X120.645 Y125.112 E0.03397
G1 X119.515 Y125.636 E0.03905
G1 X117.582 Y126.202 E0.06316
G1 X116.336 Y126.370 E0.03944
G1 X115.448 Y126.403 E0.02785
G1 X113.457 Y126.210 E0.06272
G1 X112.242 Y125.904 E0.03928
G1 X111.228 Y125.532 E0.03386
G1 X110.377 Y125.125 E0.02959
G1 X109.309 Y124.474 E0.03922
G1 X107.770 Y123.190 E0.06284
G1 X106.432 Y121.550 E0.06636
G1 X105.464 Y119.759 E0.06385
G1 X105.005 Y118.453 E0.04341
G1 X104.788 Y117.539 E0.02944
G1 X104.654 Y116.610 E0.02944
G1 X104.601 Y115.231 E0.04325
G1 X104.810 Y113.354 E0.05923
G1 X105.173 Y112.004 E0.04382
G1 X105.506 Y111.140 E0.02905
G1 X106.453 Y109.418 E0.06162
G1 X107.201 Y108.428 E0.03889
G1 X107.793 Y107.790 E0.02732
G1 X108.070 Y108.046 F6000.000
G1 F600.000
G1 X109.534 Y106.830 E0.05967
G1 X110.563 Y106.204 E0.03778
G1 X111.385 Y105.812 E0.02855
G1 X112.356 Y105.455 E0.03245
G1 X113.535 Y105.159 E0.03810
G1 X115.455 Y104.974 E0.06047
G1 X117.511 Y105.168 E0.06477
G1 X119.372 Y105.713 E0.06080
G1 X120.470 Y106.222 E0.03795
G1 X121.366 Y106.759 E0.03275
G1 X122.091 Y107.293 E0.02822
G1 X122.989 Y108.106 E0.03799
G1 X124.221 Y109.606 E0.06086
G1 X124.844 Y110.658 E0.03832
G1 X125.276 Y111.595 E0.03238
G1 X125.785 Y113.264 E0.05469
G1 X125.987 Y114.599 E0.04234
G1 X126.027 Y115.502 E0.02836
G1 X125.987 Y116.400 E0.02817
G1 X125.785 Y117.738 E0.04243
G1 X125.274 Y119.409 E0.05478
G1 X124.843 Y120.344 E0.03229
G1 X124.222 Y121.394 E0.03826
G1 X122.989 Y122.894 E0.06088
G1 X122.090 Y123.708 E0.03802
G1 X121.364 Y124.242 E0.02827
G1 X120.467 Y124.779 E0.03278
G1 X119.370 Y125.288 E0.03792
G1 X117.509 Y125.832 E0.06079
G1 X115.449 Y126.026 E0.06487
G1 X113.531 Y125.840 E0.06042
G1 X112.354 Y125.544 E0.03805
G1 X111.373 Y125.183 E0.03279
G1 X110.557 Y124.793 E0.02836
G1 X109.519 Y124.160 E0.03809
G1 X108.038 Y122.925 E0.06048
G1 X106.746 Y121.342 E0.06405
G1 X105.814 Y119.619 E0.06143
G1 X105.365 Y118.343 E0.04243
G1 X105.158 Y117.467 E0.02822
G1 X105.029 Y116.576 E0.02822
G1 X104.978 Y115.231 E0.04219
G1 X105.179 Y113.432 E0.05676
G1 X105.533 Y112.117 E0.04271
G1 X105.852 Y111.288 E0.02784
G1 X106.763 Y109.634 E0.05922
G1 X107.490 Y108.671 E0.03783
G1 X108.029 Y108.090 E0.02484
G1 E-3.50000 F3600.000
;WIPE_START
G1 F4800.000
G1 X109.534 Y106.830 E-1.39833
G1 X109.565 Y106.810 E-0.02667
;WIPE_END
G1 E-0.07500 F3600.000
G1 X110.244 Y111.923 F6000.000
G1 E5.00000 F2400.000
;TYPE:Perimeter
G1 F600.000
G1 X111.166 Y112.844 E0.04088
G1 X111.000 Y113.125 E0.01022
G1 X110.799 Y113.553 E0.01481
G1 X110.639 Y113.997 E0.01481
G1 X110.557 Y114.313 E0.01022
G1 X109.253 Y114.313 E0.04091
G1 X109.359 Y113.838 E0.01526
G1 X109.501 Y113.379 E0.01507
G1 X109.678 Y112.934 E0.01501
G1 X109.913 Y112.458 E0.01667
G1 X110.210 Y111.972 E0.01783
G1 E-3.50000 F3600.000
;WIPE_START
G1 F4800.000
G1 X111.166 Y112.844 E-0.92211
G1 X111.000 Y113.125 E-0.23219
G1 X110.839 Y113.469 E-0.27070
;WIPE_END
G1 E-0.07500 F3600.000
G1 X111.930 Y110.252 F6000.000
G1 E5.00000 F2400.000
G1 F600.000
G1 X112.167 Y110.081 E0.00914
G1 X112.630 Y109.822 E0.01665
G1 X113.020 Y109.641 E0.01349
G1 X113.470 Y109.470 E0.01509
G1 X113.930 Y109.335 E0.01502
G1 X114.313 Y109.254 E0.01227
G1 X114.313 Y110.557 E0.04087
G1 X113.997 Y110.639 E0.01022
G1 X113.553 Y110.799 E0.01481
G1 X113.125 Y111.000 E0.01481
G1 X112.844 Y111.166 E0.01022
G1 X111.973 Y110.294 E0.03866
G1 X111.706 Y110.561 F6000.000
;TYPE:External perimeter
G1 F600.000
G1 X112.795 Y111.650 E0.04828
G1 X113.302 Y111.334 E0.01871
G1 X113.697 Y111.148 E0.01372
G1 X114.109 Y111.000 E0.01372
G1 X114.690 Y110.865 E0.01871
G1 X114.690 Y109.221 E0.05152
G1 X116.310 Y109.221 E0.05079
G1 X116.310 Y110.865 E0.05152
G1 X116.891 Y111.000 E0.01871
G1 X117.303 Y111.148 E0.01372
G1 X117.698 Y111.334 E0.01372
G1 X118.205 Y111.650 E0.01871
G1 X119.367 Y110.488 E0.05152
G1 X120.512 Y111.633 E0.05079
G1 X119.350 Y112.795 E0.05152
G1 X119.666 Y113.302 E0.01871
G1 X119.852 Y113.697 E0.01372
G1 X120.000 Y114.109 E0.01372
G1 X120.135 Y114.690 E0.01871
G1 X121.779 Y114.690 E0.05152
G1 X121.779 Y116.310 E0.05079
G1 X120.135 Y116.310 E0.05152
G1 X120.000 Y116.891 E0.01871
G1 X119.852 Y117.303 E0.01372
G1 X119.666 Y117.698 E0.01372
G1 X119.350 Y118.205 E0.01871
G1 X120.512 Y119.367 E0.05152
G1 X119.367 Y120.512 E0.05079
G1 X118.205 Y119.350 E0.05152
G1 X117.698 Y119.666 E0.01871
G1 X117.303 Y119.852 E0.01372
G1 X116.891 Y120.000 E0.01372
G1 X116.310 Y120.135 E0.01871
G1 X116.310 Y121.779 E0.05152
G1 X114.690 Y121.779 E0.05079
G1 X114.690 Y120.135 E0.05152
G1 X114.109 Y120.000 E0.01871
G1 X113.697 Y119.852 E0.01372
G1 X113.302 Y119.666 E0.01372
G1 X112.795 Y119.350 E0.01871
G1 X111.633 Y120.512 E0.05152
G1 X110.488 Y119.367 E0.05079
G1 X111.650 Y118.205 E0.05152
G1 X111.334 Y117.698 E0.01871
G1 X111.148 Y117.303 E0.01372
G1 X111.000 Y116.891 E0.01372
G1 X110.865 Y116.310 E0.01871
G1 X109.221 Y116.310 E0.05152
G1 X109.221 Y114.690 E0.05079
G1 X110.865 Y114.690 E0.05152
G1 X111.000 Y114.109 E0.01871
G1 X111.148 Y113.697 E0.01372
G1 X111.334 Y113.302 E0.01372
G1 X111.650 Y112.795 E0.01871
G1 X110.488 Y111.633 E0.05152
G1 X111.633 Y110.488 E0.05079
G1 X111.664 Y110.518 E0.00136
G1 X111.995 Y110.284 F6000.000
G1 E-3.50000 F3600.000
;WIPE_START
G1 F4800.000
G1 X112.795 Y111.650 E-1.13997
G1 X113.135 Y111.438 E-0.28503
;WIPE_END
G1 E-0.07500 F3600.000
G1 X116.687 Y110.518 F6000.000
G1 E5.00000 F2400.000
;TYPE:Perimeter
G1 F600.000
G1 X116.687 Y109.254 E0.03965
G1 X117.301 Y109.398 E0.01979
G1 X117.709 Y109.534 E0.01348
G1 X118.199 Y109.739 E0.01665
G1 X118.625 Y109.958 E0.01502
G1 X119.079 Y110.242 E0.01678
G1 X118.156 Y111.166 E0.04096
G1 X117.875 Y111.000 E0.01022
G1 X117.447 Y110.799 E0.01481
G1 X117.003 Y110.639 E0.01481
G1 X116.707 Y110.563 E0.00957
G1 E-3.50000 F3600.000
;WIPE_START
G1 F4800.000
G1 X116.687 Y109.254 E-0.93284
G1 X117.301 Y109.398 E-0.44964
G1 X117.358 Y109.417 E-0.04253
;WIPE_END
G1 E-0.07500 F3600.000
G1 X119.834 Y112.844 F6000.000
G1 E5.00000 F2400.000
G1 F600.000
G1 X120.758 Y111.920 E0.04097
G1 X120.968 Y112.249 E0.01221
G1 X121.221 Y112.716 E0.01667
G1 X121.414 Y113.154 E0.01501
G1 X121.574 Y113.607 E0.01507
G1 X121.744 Y114.313 E0.02276
G1 X120.443 Y114.313 E0.04082
G1 X120.361 Y113.997 E0.01022
G1 X120.201 Y113.553 E0.01481
G1 X120.000 Y113.125 E0.01481
G1 X119.865 Y112.896 E0.00834
G1 E-3.50000 F3600.000
;WIPE_START
G1 F4800.000
G1 X120.758 Y111.920 E-0.94269
G1 X120.968 Y112.249 E-0.27748
G1 X121.105 Y112.502 E-0.20482
;WIPE_END
G1 E-0.07500 F3600.000
G1 X120.443 Y116.687 F6000.000
G1 E5.00000 F2400.000
G1 F600.000
G1 X121.746 Y116.687 E0.04087
G1 X121.700 Y116.927 E0.00767
G1 X121.558 Y117.440 E0.01667
G1 X121.414 Y117.846 E0.01350
G1 X121.220 Y118.285 E0.01507
G1 X120.995 Y118.708 E0.01501
G1 X120.756 Y119.078 E0.01380
G1 X119.834 Y118.156 E0.04089
G1 X120.000 Y117.875 E0.01022
G1 X120.201 Y117.447 E0.01481
G1 X120.361 Y117.003 E0.01481
G1 X120.427 Y116.745 E0.00834
G1 E-3.50000 F3600.000
;WIPE_START
G1 F4800.000
G1 X121.746 Y116.687 E-0.94042
G1 X121.700 Y116.927 E-0.17438
G1 X121.584 Y117.347 E-0.31020
;WIPE_END
G1 E-0.07500 F3600.000
G1 X118.156 Y119.834 F6000.000
G1 E5.00000 F2400.000
G1 F600.000
G1 X119.078 Y120.756 E0.04089
G1 X118.626 Y121.041 E0.01675
G1 X118.198 Y121.262 E0.01508
G1 X117.757 Y121.448 E0.01502
G1 X117.253 Y121.616 E0.01665
G1 X116.687 Y121.746 E0.01821
G1 X116.687 Y120.443 E0.04088
G1 X117.003 Y120.361 E0.01022
G1 X117.447 Y120.201 E0.01481
G1 X117.875 Y120.000 E0.01481
G1 X118.104 Y119.865 E0.00834
G1 E-3.50000 F3600.000
;WIPE_START
G1 F4800.000
G1 X119.078 Y120.756 E-0.94070
G1 X118.626 Y121.041 E-0.38055
G1 X118.496 Y121.108 E-0.10374
;WIPE_END
G1 E-0.07500 F3600.000
G1 X114.313 Y120.443 F6000.000
G1 E5.00000 F2400.000
G1 F600.000
G1 X114.313 Y121.748 E0.04093
G1 X113.979 Y121.677 E0.01070
G1 X113.469 Y121.529 E0.01665
G1 X113.021 Y121.359 E0.01502
G1 X112.586 Y121.155 E0.01508
G1 X112.210 Y120.945 E0.01349
G1 X111.923 Y120.755 E0.01079
G1 X112.844 Y119.834 E0.04084
G1 X113.125 Y120.000 E0.01022
G1 X113.553 Y120.201 E0.01481
G1 X113.997 Y120.361 E0.01481
G1 X114.255 Y120.427 E0.00834
G1 E-3.50000 F3600.000
;WIPE_START
G1 F4800.000
G1 X114.313 Y121.748 E-0.94174
G1 X113.979 Y121.677 E-0.24304
G1 X113.655 Y121.583 E-0.24022
;WIPE_END
G1 E-0.07500 F3600.000
G1 X111.166 Y118.156 F6000.000
G1 E5.00000 F2400.000
G1 F600.000
G1 X110.244 Y119.077 E0.04088
G1 X109.889 Y118.499 E0.02128
G1 X109.700 Y118.112 E0.01350
G1 X109.501 Y117.619 E0.01667
G1 X109.359 Y117.162 E0.01501
G1 X109.250 Y116.687 E0.01529
G1 X110.557 Y116.687 E0.04101
G1 X110.639 Y117.003 E0.01022
G1 X110.799 Y117.447 E0.01481
G1 X111.000 Y117.875 E0.01481
G1 X111.135 Y118.104 E0.00834
G1 X109.708 Y118.937 F6000.000
;TYPE:External perimeter
G1 F600.000
G1 X109.556 Y118.677 E0.00945
G1 X109.355 Y118.266 E0.01436
G1 X109.146 Y117.746 E0.01757
G1 X108.994 Y117.261 E0.01594
G1 X108.880 Y116.765 E0.01596
G1 X108.811 Y116.312 E0.01436
G1 X108.765 Y115.754 E0.01757
G1 X108.765 Y115.246 E0.01593
G1 X108.803 Y114.739 E0.01594
G1 X108.891 Y114.185 E0.01757
G1 X108.994 Y113.739 E0.01436
G1 X109.146 Y113.253 E0.01596
G1 X109.333 Y112.781 E0.01594
G1 X109.581 Y112.279 E0.01757
G1 X109.813 Y111.883 E0.01436
G1 X110.102 Y111.465 E0.01596
G1 X110.421 Y111.069 E0.01594
G1 X110.808 Y110.663 E0.01757
G1 X111.146 Y110.355 E0.01435
G1 X111.547 Y110.041 E0.01596
G1 X111.970 Y109.759 E0.01594
G1 X112.459 Y109.486 E0.01756
G1 X112.874 Y109.293 E0.01435
G1 X113.350 Y109.113 E0.01596
G1 X113.838 Y108.969 E0.01594
G1 X114.386 Y108.853 E0.01756
G1 X114.839 Y108.793 E0.01435
G1 X115.348 Y108.762 E0.01597
G1 X115.856 Y108.770 E0.01594
G1 X116.413 Y108.823 E0.01755
G1 X116.914 Y108.911 E0.01594
G1 X117.408 Y109.036 E0.01596
G1 X117.842 Y109.181 E0.01435
G1 X118.359 Y109.397 E0.01756
G1 X118.811 Y109.630 E0.01594
G1 X119.244 Y109.896 E0.01596
G1 X119.616 Y110.164 E0.01435
G1 X120.045 Y110.524 E0.01756
G1 X120.407 Y110.880 E0.01594
G1 X120.742 Y111.264 E0.01596
G1 X121.047 Y111.671 E0.01596
G1 X121.293 Y112.057 E0.01436
G1 X121.560 Y112.550 E0.01757
G1 X121.765 Y113.015 E0.01594
G1 X121.935 Y113.495 E0.01596
G1 X122.055 Y113.937 E0.01436
G1 X122.163 Y114.486 E0.01757
G1 X122.220 Y114.991 E0.01591
G1 X122.238 Y115.551 E0.01757
G1 X122.221 Y116.009 E0.01436
G1 X122.163 Y116.514 E0.01596
G1 X122.068 Y117.013 E0.01594
G1 X121.918 Y117.553 E0.01757
G1 X121.765 Y117.985 E0.01436
G1 X121.560 Y118.451 E0.01596
G1 X121.320 Y118.899 E0.01594
G1 X121.017 Y119.370 E0.01757
G1 X120.742 Y119.736 E0.01435
G1 X120.407 Y120.120 E0.01596
G1 X120.045 Y120.477 E0.01596
G1 X119.657 Y120.805 E0.01594
G1 X119.201 Y121.132 E0.01756
G1 X118.811 Y121.370 E0.01435
G1 X118.358 Y121.603 E0.01596
G1 X117.890 Y121.802 E0.01594
G1 X117.358 Y121.978 E0.01756
G1 X116.914 Y122.089 E0.01435
G1 X116.413 Y122.177 E0.01596
G1 X115.907 Y122.227 E0.01594
G1 X115.347 Y122.238 E0.01755
G1 X114.840 Y122.207 E0.01594
G1 X114.335 Y122.138 E0.01597
G1 X113.887 Y122.043 E0.01435
G1 X113.350 Y121.887 E0.01756
G1 X112.874 Y121.707 E0.01594
G1 X112.413 Y121.491 E0.01596
G1 X112.014 Y121.267 E0.01435
G1 X111.547 Y120.958 E0.01756
G1 X111.146 Y120.645 E0.01594
G1 X110.770 Y120.302 E0.01596
G1 X110.456 Y119.969 E0.01435
G1 X110.102 Y119.535 E0.01757
G1 X109.738 Y118.989 E0.02055
G1 X109.849 Y118.671 F6000.000
G1 X110.469 Y119.649
;TYPE:Gap fill
;WIDTH:0.104233
G1 F600.000
G1 X110.932 Y120.137 E0.00343
G1 X111.375 Y120.554 E0.00310
G1 E-3.50000 F3600.000
;WIPE_START
G1 F4800.000
G1 X110.932 Y120.137 E-0.43309
G1 X110.469 Y119.649 E-0.47956
;WIPE_END
G1 E-0.58736 F3600.000
G1 X114.200 Y121.386 F6000.000
G1 E5.00000 F2400.000
;TYPE:Solid infill
;WIDTH:0.46223
G1 F600.000
G1 X113.126 Y120.312 E0.05295
G1 X112.890 Y120.189 E0.00929
G1 X112.650 Y120.429 E0.01183
G1 X113.699 Y121.478 E0.05173
G1 X114.822 Y121.991 F6000.000
;TYPE:Gap fill
;WIDTH:0.0951139
G1 F600.000
G1 X114.861 Y121.993 E0.00017
;WIDTH:0.11453
G1 X115.352 Y122.008 E0.00293
G1 X116.135 Y121.991 E0.00466
G1 E-3.50000 F3600.000
;WIPE_START
G1 F4800.000
G1 X115.352 Y122.008 E-0.55805
G1 X114.861 Y121.993 E-0.35020
;WIPE_END
G1 E-0.59175 F3600.000
G1 X117.963 Y120.079 F6000.000
G1 E5.00000 F2400.000
;TYPE:Solid infill
;WIDTH:0.472065
G1 F600.000
G1 X118.605 Y120.720 E0.03238
G1 X118.213 Y120.936 E0.01594
G1 X117.681 Y120.403 E0.02688
G1 X117.245 Y120.574 E0.01671
G1 X117.796 Y121.125 E0.02780
G1 X117.349 Y121.286 E0.01692
G1 X116.800 Y120.736 E0.02771
G1 E-3.50000 F3600.000
;WIPE_START
G1 F4800.000
G1 X117.349 Y121.286 E-0.55338
G1 X117.796 Y121.125 E-0.33792
G1 X117.266 Y120.595 E-0.53370
;WIPE_END
G1 E-0.07500 F3600.000
G1 X119.636 Y120.544 F6000.000
G1 E5.00000 F2400.000
;TYPE:Gap fill
;WIDTH:0.123793
G1 F600.000
G1 X120.240 Y119.963 E0.00564
G1 X120.564 Y119.616 E0.00319
G1 E-3.50000 F3600.000
;WIPE_START
G1 F4800.000
G1 X120.240 Y119.963 E-0.33776
G1 X119.636 Y120.544 E-0.59723
;WIPE_END
G1 E-0.56501 F3600.000
G1 X120.747 Y116.800 F6000.000
G1 E5.00000 F2400.000
;TYPE:Solid infill
;WIDTH:0.474181
G1 F600.000
G1 X121.291 Y117.344 E0.02760
G1 X121.129 Y117.792 E0.01707
G1 X120.576 Y117.239 E0.02803
G1 X120.405 Y117.678 E0.01688
G1 X120.939 Y118.212 E0.02710
G1 X120.723 Y118.606 E0.01612
G1 X120.079 Y117.962 E0.03267
G1 E-3.50000 F3600.000
;WIPE_START
G1 F4800.000
G1 X120.723 Y118.606 E-0.64904
G1 X120.939 Y118.212 E-0.32023
G1 X120.487 Y117.760 E-0.45573
;WIPE_END
G1 E-0.07500 F3600.000
G1 X121.991 Y116.149 F6000.000
G1 E5.00000 F2400.000
;TYPE:Gap fill
;WIDTH:0.10826
G1 F600.000
G1 X122.008 Y115.550 E0.00325
G1 X121.991 Y114.851 E0.00380
G1 X121.480 Y113.699 F6000.000
;TYPE:Solid infill
;WIDTH:0.462771
G1 F600.000
G1 X120.430 Y112.649 E0.05185
G1 X120.189 Y112.890 E0.01189
G1 X120.311 Y113.124 E0.00923
G1 X121.387 Y114.200 E0.05311
G1 E-3.50000 F3600.000
;WIPE_START
G1 F4800.000
