; generated by PrusaSlicer 2.3.1+win64 on 2021-05-28 at 13:16:09 UTC

; 

; external perimeters extrusion width = 0.45mm
; perimeters extrusion width = 0.45mm
; infill extrusion width = 0.45mm
; solid infill extrusion width = 0.45mm
; top infill extrusion width = 0.40mm
; first layer extrusion width = 0.42mm

M201 X500 Y500 Z100 E5000 ; sets maximum accelerations, mm/sec^2
M203 X500 Y500 Z10 E60 ; sets maximum feedrates, mm/sec
M204 P500 R1000 T500 ; sets acceleration (P, T) and retract acceleration (R), mm/sec^2
M205 X8.00 Y8.00 Z0.40 E5.00 ; sets the jerk limits, mm/sec
M205 S0 T0 ; sets the minimum extruding and travel feed rate, mm/sec
M107
;TYPE:Custom
G90 ; use absolute coordinates
M83 ; extruder relative mode
M104 S120 ; set temporary nozzle temp to prevent oozing during homing and auto bed leveling
M140 S70 ; set final bed temp
G4 S10 ; allow partial nozzle warmup
G28 ; home all axis
G1 Z50 F240
G1 X2 Y10 F3000
M104 S200 ; set final nozzle temp
M190 S70 ; wait for bed temp to stabilize
M109 S200 ; wait for nozzle temp to stabilize
G1 Z0.28 F240
G92 E0
G1 Y140 E10 F1500 ; prime the nozzle
G1 X2.3 F5000
G92 E0
G1 Y10 E10 F1200 ; prime the nozzle
G92 E0
G21 ; set units to millimeters
G90 ; use absolute coordinates
M83 ; use relative distances for extrusion
; Filament gcode
;LAYER_CHANGE
;Z:0.2
;HEIGHT:0.2
;BEFORE_LAYER_CHANGE
G92 E0
;0.2


G1 E-5.00000 F3600.000
G1 Z0.200 F6000.000
;AFTER_LAYER_CHANGE
;0.2
G1 X99.365 Y115.788
G1 E5.00000 F2400.000
M204 S500
;TYPE:Skirt
;WIDTH:0.42
G1 F600.000
G1 X100.618 Y114.870 E0.04873
G1 X101.680 Y114.251 E0.03853
G1 X102.744 Y113.754 E0.03682
G1 X103.906 Y113.336 E0.03874
G1 X105.417 Y112.966 E0.04877
G1 X106.632 Y112.800 E0.03845
G1 X107.808 Y112.747 E0.03691
G1 X108.975 Y112.798 E0.03662
G1 X110.213 Y112.967 E0.03918
G1 X111.728 Y113.339 E0.04890
G1 X112.884 Y113.756 E0.03855
G1 X113.998 Y114.280 E0.03857
G1 X115.331 Y115.087 E0.04889
G1 X116.323 Y115.841 E0.03905
G1 X117.187 Y116.632 E0.03675
G1 X117.979 Y117.499 E0.03680
G1 X118.722 Y118.476 E0.03847
G1 X119.528 Y119.805 E0.04876
G1 X120.054 Y120.922 E0.03868
G1 X120.456 Y122.027 E0.03687
G1 X120.769 Y123.213 E0.03846
G1 X121.008 Y124.772 E0.04947
G1 X121.066 Y126.000 E0.03853
G1 X121.009 Y127.226 E0.03849
G1 X120.773 Y128.768 E0.04890
G1 X120.456 Y129.976 E0.03917
G1 X120.054 Y131.080 E0.03683
G1 X119.528 Y132.198 E0.03873
G1 X118.721 Y133.528 E0.04879
G1 X117.979 Y134.504 E0.03843
G1 X117.187 Y135.370 E0.03679
G1 X116.318 Y136.166 E0.03695
G1 X115.343 Y136.907 E0.03839
G1 X114.010 Y137.716 E0.04890
G1 X112.892 Y138.243 E0.03874
G1 X111.789 Y138.644 E0.03681
G1 X110.584 Y138.961 E0.03907
G1 X109.040 Y139.198 E0.04898
G1 X107.816 Y139.255 E0.03842
G1 X106.569 Y139.196 E0.03912
G1 X105.030 Y138.959 E0.04884
G1 X103.839 Y138.646 E0.03862
G1 X102.737 Y138.245 E0.03676
G1 X101.670 Y137.746 E0.03694
G1 X100.609 Y137.126 E0.03853
G1 X99.357 Y136.207 E0.04870
G1 X98.447 Y135.380 E0.03856
G1 X97.654 Y134.516 E0.03677
G1 X96.898 Y133.521 E0.03918
G1 X96.090 Y132.187 E0.04891
G1 X95.566 Y131.073 E0.03859
G1 X95.150 Y129.917 E0.03852
G1 X94.778 Y128.403 E0.04888
G1 X94.609 Y127.169 E0.03906
G1 X94.558 Y126.000 E0.03667
G1 X94.610 Y124.822 E0.03697
G1 X94.776 Y123.607 E0.03846
G1 X95.146 Y122.096 E0.04876
G1 X95.564 Y120.936 E0.03868
G1 X96.062 Y119.868 E0.03693
G1 X96.680 Y118.808 E0.03849
G1 X97.598 Y117.555 E0.04871
G1 X98.441 Y116.628 E0.03927
G1 X99.320 Y115.829 E0.03726
G1 X99.573 Y116.107 F6000.000
G1 F600.000
G1 X100.828 Y115.183 E0.04885
G1 X101.857 Y114.584 E0.03735
G1 X102.884 Y114.104 E0.03554
G1 X103.964 Y113.713 E0.03601
G1 X105.113 Y113.411 E0.03727
G1 X106.616 Y113.180 E0.04765
G1 X107.808 Y113.124 E0.03741
G1 X108.941 Y113.174 E0.03558
G1 X110.140 Y113.337 E0.03793
G1 X111.617 Y113.700 E0.04770
G1 X112.738 Y114.104 E0.03737
G1 X113.813 Y114.608 E0.03722
G1 X115.122 Y115.401 E0.04797
G1 X116.082 Y116.131 E0.03783
G1 X116.921 Y116.900 E0.03569
G1 X117.688 Y117.738 E0.03560
G1 X118.408 Y118.685 E0.03732
G1 X119.197 Y119.986 E0.04771
G1 X119.705 Y121.065 E0.03739
G1 X120.096 Y122.138 E0.03580
G1 X120.399 Y123.285 E0.03720
G1 X120.631 Y124.792 E0.04779
G1 X120.689 Y125.998 E0.03788
G1 X120.634 Y127.185 E0.03723
G1 X120.403 Y128.694 E0.04788
G1 X120.096 Y129.863 E0.03789
G1 X119.706 Y130.936 E0.03580
G1 X119.196 Y132.019 E0.03754
G1 X118.407 Y133.319 E0.04766
G1 X117.687 Y134.265 E0.03728
G1 X116.921 Y135.103 E0.03560
G1 X116.078 Y135.875 E0.03582
G1 X115.130 Y136.596 E0.03735
G1 X113.829 Y137.385 E0.04771
G1 X112.748 Y137.894 E0.03746
G1 X111.677 Y138.284 E0.03573
G1 X110.509 Y138.592 E0.03788
G1 X109.005 Y138.822 E0.04773
G1 X107.816 Y138.878 E0.03730
G1 X106.608 Y138.821 E0.03792
G1 X105.103 Y138.590 E0.04775
G1 X103.949 Y138.285 E0.03744
G1 X102.882 Y137.897 E0.03559
G1 X101.845 Y137.412 E0.03590
G1 X100.818 Y136.813 E0.03726
G1 X99.593 Y135.914 E0.04765
G1 X98.714 Y135.114 E0.03727
G1 X97.944 Y134.274 E0.03572
G1 X97.212 Y133.311 E0.03793
G1 X96.423 Y132.010 E0.04772
G1 X95.915 Y130.930 E0.03741
G1 X95.526 Y129.859 E0.03572
G1 X95.223 Y128.707 E0.03737
G1 X94.992 Y127.204 E0.04766
G1 X94.935 Y126.001 E0.03778
G1 X94.985 Y124.860 E0.03581
G1 X95.146 Y123.683 E0.03724
G1 X95.508 Y122.202 E0.04779
G1 X95.912 Y121.080 E0.03739
G1 X96.393 Y120.048 E0.03570
G1 X96.991 Y119.021 E0.03727
G1 X97.892 Y117.791 E0.04780
G1 X98.706 Y116.896 E0.03794
G1 X99.529 Y116.148 E0.03487
G1 E-3.50000 F3600.000
;WIPE_START
G1 F4800.000
G1 X100.828 Y115.183 E-1.15255
G1 X101.158 Y114.991 E-0.27245
;WIPE_END
G1 E-0.07500 F3600.000
G1 X102.437 Y120.038 F6000.000
G1 E5.00000 F2400.000
;TYPE:Perimeter
G1 F600.000
G1 X102.970 Y119.643 E0.02077
G1 X103.707 Y119.197 E0.02701
G1 X104.376 Y118.877 E0.02326
G1 X105.259 Y118.569 E0.02934
G1 X105.931 Y118.411 E0.02163
G1 X106.605 Y118.315 E0.02137
G1 X107.257 Y118.279 E0.02046
G1 X107.992 Y118.306 E0.02306
G1 X108.599 Y118.381 E0.01918
G1 X109.228 Y118.511 E0.02013
G1 X110.109 Y118.790 E0.02898
G1 X110.833 Y119.111 E0.02484
G1 X111.542 Y119.520 E0.02567
G1 X112.164 Y119.973 E0.02414
G1 X112.681 Y120.435 E0.02173
G1 X113.202 Y121.005 E0.02420
G1 X113.624 Y121.576 E0.02227
G1 X113.960 Y122.132 E0.02036
G1 X114.321 Y122.900 E0.02661
G1 X114.641 Y123.761 E0.02882
G1 X114.830 Y124.449 E0.02236
G1 X114.964 Y125.288 E0.02665
G1 X114.999 Y126.000 E0.02233
G1 X114.969 Y126.664 E0.02085
G1 X114.838 Y127.515 E0.02698
G1 X114.665 Y128.167 E0.02116
G1 X114.349 Y129.032 E0.02887
G1 X114.004 Y129.788 E0.02607
G1 X113.639 Y130.405 E0.02247
G1 X113.218 Y130.977 E0.02225
G1 X112.807 Y131.441 E0.01944
G1 X112.164 Y132.030 E0.02734
G1 X111.573 Y132.462 E0.02294
G1 X111.030 Y132.787 E0.01985
G1 X110.234 Y133.164 E0.02762
G1 X109.403 Y133.445 E0.02751
G1 X108.708 Y133.603 E0.02234
G1 X107.995 Y133.697 E0.02254
G1 X107.312 Y133.723 E0.02145
G1 X106.631 Y133.689 E0.02138
G1 X106.278 Y133.648 E0.01116
G1 X105.675 Y133.538 E0.01920
G1 X104.983 Y133.350 E0.02248
G1 X104.316 Y133.099 E0.02235
G1 X103.721 Y132.813 E0.02069
G1 X103.031 Y132.399 E0.02521
G1 X102.356 Y131.898 E0.02639
G1 X101.856 Y131.447 E0.02110
G1 X101.398 Y130.962 E0.02093
G1 X100.861 Y130.271 E0.02744
G1 X100.460 Y129.633 E0.02360
G1 X100.168 Y129.068 E0.01995
G1 X99.892 Y128.401 E0.02264
G1 X99.676 Y127.713 E0.02259
G1 X99.524 Y127.022 E0.02219
G1 X99.469 Y126.660 E0.01148
G1 X99.411 Y125.999 E0.02081
G1 X99.490 Y125.190 E0.02548
G1 X99.622 Y124.503 E0.02194
G1 X99.809 Y123.841 E0.02156
G1 X100.054 Y123.190 E0.02183
G1 X100.421 Y122.438 E0.02622
G1 X100.778 Y121.853 E0.02149
G1 X101.177 Y121.305 E0.02125
G1 X101.793 Y120.617 E0.02896
G1 X102.393 Y120.078 E0.02529
G1 X102.645 Y120.358 F6000.000
;TYPE:External perimeter
G1 F600.000
G1 X103.180 Y119.957 E0.02097
G1 X103.886 Y119.530 E0.02587
G1 X104.520 Y119.226 E0.02203
G1 X105.365 Y118.931 E0.02806
G1 X106.001 Y118.782 E0.02048
G1 X106.642 Y118.691 E0.02033
G1 X107.261 Y118.657 E0.01941
G1 X107.962 Y118.682 E0.02201
G1 X108.538 Y118.753 E0.01818
G1 X109.132 Y118.876 E0.01904
G1 X109.975 Y119.143 E0.02771
G1 X110.662 Y119.448 E0.02356
G1 X111.337 Y119.837 E0.02441
G1 X111.927 Y120.267 E0.02291
G1 X112.416 Y120.703 E0.02055
G1 X112.910 Y121.245 E0.02299
G1 X113.310 Y121.786 E0.02110
G1 X113.627 Y122.310 E0.01920
G1 X113.973 Y123.046 E0.02550
G1 X114.282 Y123.877 E0.02781
G1 X114.461 Y124.529 E0.02119
G1 X114.588 Y125.328 E0.02536
G1 X114.622 Y126.001 E0.02112
G1 X114.593 Y126.627 E0.01966
G1 X114.469 Y127.438 E0.02572
G1 X114.305 Y128.054 E0.01998
G1 X113.999 Y128.888 E0.02788
G1 X113.669 Y129.614 E0.02498
G1 X113.324 Y130.197 E0.02125
G1 X112.924 Y130.740 E0.02113
G1 X112.538 Y131.176 E0.01829
G1 X111.925 Y131.738 E0.02607
G1 X111.365 Y132.147 E0.02174
G1 X110.852 Y132.454 E0.01873
G1 X110.093 Y132.813 E0.02635
G1 X109.300 Y133.081 E0.02622
G1 X108.642 Y133.231 E0.02119
G1 X107.963 Y133.320 E0.02145
G1 X107.314 Y133.346 E0.02038
G1 X106.662 Y133.313 E0.02045
G1 X106.334 Y133.275 E0.01039
G1 X105.759 Y133.170 E0.01833
G1 X105.099 Y132.991 E0.02143
G1 X104.464 Y132.752 E0.02127
G1 X103.900 Y132.481 E0.01962
G1 X103.241 Y132.086 E0.02409
G1 X102.595 Y131.606 E0.02525
G1 X102.119 Y131.178 E0.02006
G1 X101.685 Y130.716 E0.01988
G1 X101.170 Y130.054 E0.02628
G1 X100.788 Y129.446 E0.02251
G1 X100.511 Y128.909 E0.01896
G1 X100.247 Y128.272 E0.02162
G1 X100.041 Y127.616 E0.02155
G1 X99.895 Y126.953 E0.02128
G1 X99.844 Y126.615 E0.01072
G1 X99.789 Y126.001 E0.01933
G1 X99.864 Y125.245 E0.02383
G1 X99.990 Y124.590 E0.02089
G1 X100.168 Y123.959 E0.02056
G1 X100.401 Y123.339 E0.02077
G1 X100.752 Y122.619 E0.02511
G1 X101.092 Y122.062 E0.02045
G1 X101.471 Y121.543 E0.02017
G1 X102.061 Y120.884 E0.02773
G1 X102.600 Y120.398 E0.02276
G1 X102.578 Y119.964 F6000.000
G1 X101.822 Y119.548
;TYPE:Perimeter
G1 F600.000
G1 X102.151 Y119.247 E0.01398
G1 X102.759 Y118.781 E0.02402
G1 X103.070 Y118.573 E0.01174
G1 X103.743 Y118.184 E0.02435
G1 X104.439 Y117.860 E0.02410
G1 X105.170 Y117.594 E0.02439
G1 X105.531 Y117.489 E0.01176
G1 X106.279 Y117.323 E0.02402
G1 X107.044 Y117.222 E0.02420
G1 X107.821 Y117.189 E0.02439
G1 X108.195 Y117.197 E0.01175
G1 X108.959 Y117.264 E0.02402
G1 X109.717 Y117.397 E0.02414
G1 X110.462 Y117.597 E0.02417
G1 X111.184 Y117.860 E0.02410
G1 X111.881 Y118.184 E0.02410
G1 X112.554 Y118.573 E0.02439
G1 X112.862 Y118.779 E0.01160
G1 X113.473 Y119.248 E0.02417
G1 X114.043 Y119.770 E0.02422
G1 X114.568 Y120.342 E0.02435
G1 X114.802 Y120.635 E0.01176
G1 X115.242 Y121.263 E0.02402
G1 X115.628 Y121.932 E0.02425
G1 X115.953 Y122.629 E0.02410
G1 X116.218 Y123.356 E0.02425
G1 X116.416 Y124.096 E0.02402
G1 X116.489 Y124.464 E0.01176
G1 X116.591 Y125.233 E0.02434
G1 X116.624 Y126.001 E0.02410
G1 X116.590 Y126.777 E0.02434
G1 X116.549 Y127.149 E0.01174
G1 X116.416 Y127.903 E0.02402
G1 X116.216 Y128.651 E0.02428
G1 X115.953 Y129.373 E0.02410
G1 X115.628 Y130.070 E0.02410
G1 X115.241 Y130.740 E0.02426
G1 X114.802 Y131.368 E0.02402
G1 X114.567 Y131.660 E0.01175
G1 X114.043 Y132.232 E0.02434
G1 X113.471 Y132.757 E0.02434
G1 X113.178 Y132.991 E0.01174
G1 X112.551 Y133.431 E0.02402
G1 X111.881 Y133.818 E0.02427
G1 X111.184 Y134.143 E0.02410
G1 X110.462 Y134.406 E0.02410
G1 X109.714 Y134.606 E0.02427
G1 X108.960 Y134.739 E0.02402
G1 X108.587 Y134.780 E0.01175
G1 X107.812 Y134.813 E0.02433
G1 X107.039 Y134.779 E0.02425
G1 X106.280 Y134.679 E0.02402
G1 X105.912 Y134.606 E0.01176
G1 X105.162 Y134.406 E0.02434
G1 X104.439 Y134.143 E0.02410
G1 X103.743 Y133.818 E0.02410
G1 X103.074 Y133.431 E0.02422
G1 X102.446 Y132.992 E0.02402
G1 X102.154 Y132.758 E0.01175
G1 X101.580 Y132.232 E0.02438
G1 X101.059 Y131.663 E0.02421
G1 X100.593 Y131.055 E0.02402
G1 X100.384 Y130.744 E0.01176
G1 X99.995 Y130.070 E0.02439
G1 X99.670 Y129.373 E0.02410
G1 X99.405 Y128.645 E0.02431
G1 X99.301 Y128.288 E0.01166
G1 X99.134 Y127.536 E0.02415
G1 X99.033 Y126.768 E0.02428
G1 X98.999 Y126.001 E0.02408
G1 X99.033 Y125.225 E0.02436
G1 X99.074 Y124.852 E0.01176
G1 X99.207 Y124.098 E0.02402
G1 X99.407 Y123.351 E0.02424
G1 X99.670 Y122.629 E0.02410
G1 X99.997 Y121.928 E0.02426
G1 X100.381 Y121.264 E0.02402
G1 X100.588 Y120.953 E0.01174
G1 X101.061 Y120.337 E0.02435
G1 X101.580 Y119.770 E0.02410
G1 X101.778 Y119.589 E0.00840
G1 X101.523 Y119.311 F6000.000
;TYPE:External perimeter
G1 F600.000
G1 X101.909 Y118.958 E0.01638
G1 X102.539 Y118.474 E0.02492
G1 X102.871 Y118.252 E0.01251
G1 X103.568 Y117.850 E0.02525
G1 X104.295 Y117.511 E0.02514
G1 X105.053 Y117.235 E0.02530
G1 X105.437 Y117.123 E0.01253
G1 X106.213 Y116.952 E0.02492
G1 X107.011 Y116.846 E0.02523
G1 X107.817 Y116.811 E0.02530
G1 X108.216 Y116.820 E0.01252
G1 X109.008 Y116.890 E0.02492
G1 X109.799 Y117.029 E0.02517
G1 X110.575 Y117.237 E0.02521
G1 X111.329 Y117.511 E0.02514
G1 X112.055 Y117.850 E0.02514
G1 X112.754 Y118.253 E0.02529
G1 X113.082 Y118.472 E0.01237
G1 X113.716 Y118.959 E0.02507
G1 X114.310 Y119.503 E0.02525
G1 X114.854 Y120.097 E0.02525
G1 X115.104 Y120.409 E0.01253
G1 X115.560 Y121.060 E0.02492
G1 X115.963 Y121.758 E0.02528
G1 X116.302 Y122.484 E0.02513
G1 X116.578 Y123.242 E0.02528
G1 X116.783 Y124.010 E0.02492
G1 X116.861 Y124.402 E0.01253
G1 X116.967 Y125.200 E0.02524
G1 X117.002 Y126.001 E0.02514
G1 X116.966 Y126.805 E0.02524
G1 X116.923 Y127.202 E0.01251
G1 X116.785 Y127.985 E0.02492
G1 X116.576 Y128.765 E0.02531
G1 X116.302 Y129.518 E0.02514
G1 X115.963 Y130.244 E0.02514
G1 X115.560 Y130.943 E0.02529
G1 X115.104 Y131.594 E0.02492
G1 X114.854 Y131.906 E0.01253
G1 X114.310 Y132.499 E0.02525
G1 X113.716 Y133.043 E0.02525
G1 X113.405 Y133.293 E0.01251
G1 X112.754 Y133.749 E0.02492
G1 X112.055 Y134.153 E0.02530
G1 X111.329 Y134.491 E0.02514
G1 X110.575 Y134.766 E0.02514
G1 X109.796 Y134.974 E0.02530
G1 X109.013 Y135.112 E0.02492
G1 X108.616 Y135.156 E0.01253
G1 X107.812 Y135.191 E0.02524
G1 X107.006 Y135.155 E0.02528
G1 X106.218 Y135.052 E0.02492
G1 X105.826 Y134.974 E0.01253
G1 X105.048 Y134.766 E0.02525
G1 X104.295 Y134.491 E0.02514
G1 X103.568 Y134.153 E0.02514
G1 X102.871 Y133.750 E0.02525
G1 X102.220 Y133.294 E0.02492
G1 X101.908 Y133.044 E0.01253
G1 X101.314 Y132.499 E0.02529
G1 X100.770 Y131.906 E0.02524
G1 X100.286 Y131.275 E0.02492
G1 X100.064 Y130.943 E0.01253
G1 X99.660 Y130.244 E0.02529
G1 X99.321 Y129.518 E0.02514
G1 X99.047 Y128.762 E0.02521
G1 X98.936 Y128.382 E0.01243
G1 X98.762 Y127.602 E0.02506
G1 X98.657 Y126.801 E0.02531
G1 X98.622 Y126.001 E0.02512
G1 X98.657 Y125.196 E0.02526
G1 X98.701 Y124.799 E0.01253
G1 X98.839 Y124.016 E0.02492
G1 X99.047 Y123.238 E0.02527
G1 X99.321 Y122.484 E0.02513
G1 X99.663 Y121.753 E0.02529
G1 X100.060 Y121.065 E0.02492
G1 X100.282 Y120.733 E0.01251
G1 X100.772 Y120.094 E0.02526
G1 X101.314 Y119.503 E0.02514
G1 X101.479 Y119.351 E0.00704
G1 X101.907 Y119.423 F6000.000
G1 X101.583 Y120.306
;TYPE:Gap fill
;WIDTH:0.398279
G1 F600.000
G1 X101.129 Y120.829 E0.02046
;WIDTH:0.373198
G1 X100.917 Y121.085 E0.00914
;WIDTH:0.348119
G1 X100.665 Y121.441 E0.01107
;WIDTH:0.334602
G1 X100.515 Y121.671 E0.00665
;WIDTH:0.305277
G1 X100.276 Y122.073 E0.01020
;WIDTH:0.293794
G1 X100.160 Y122.289 E0.00513
;WIDTH:0.266653
G1 X99.944 Y122.742 E0.00934
;WIDTH:0.257447
G1 X99.802 Y123.076 E0.00647
;WIDTH:0.219364
G1 X99.565 Y123.758 E0.01059
;WIDTH:0.181269
G1 X99.389 Y124.446 E0.00817
;WIDTH:0.145171
G1 X99.308 Y124.886 E0.00380
;WIDTH:0.137985
G1 X99.267 Y125.156 E0.00216
;WIDTH:0.115941
G1 X99.226 Y125.700 E0.00331
G1 X99.228 Y126.357 F6000.000
;WIDTH:0.107138
G1 F600.000
G1 X99.250 Y126.688 E0.00177
;WIDTH:0.120106
G1 X99.301 Y127.065 E0.00244
;WIDTH:0.15674
G1 X99.439 Y127.779 E0.00688
;WIDTH:0.202352
G1 X99.641 Y128.496 E0.00987
;WIDTH:0.20981
G1 X99.664 Y128.560 E0.00095
;WIDTH:0.239838
G1 X99.910 Y129.193 E0.01111
;WIDTH:0.249449
G1 X99.940 Y129.262 E0.00130
;WIDTH:0.273416
G1 X100.199 Y129.788 E0.01124
;WIDTH:0.292821
G1 X100.273 Y129.925 E0.00324
;WIDTH:0.31673
G1 X100.598 Y130.463 E0.01430
;WIDTH:0.333903
G1 X100.668 Y130.567 E0.00303
;WIDTH:0.36262
G1 X101.138 Y131.194 E0.02084
;WIDTH:0.397107
G1 X101.618 Y131.730 E0.02120
G1 E-3.50000 F3600.000
;WIPE_START
G1 F4800.000
G1 X101.138 Y131.194 E-0.51281
;WIPE_END
G1 E-0.98719 F3600.000
