; generated by PrusaSlicer 2.3.1+win64 on 2021-05-27 at 14:26:37 UTC

; 

; external perimeters extrusion width = 0.45mm
; perimeters extrusion width = 0.45mm
; infill extrusion width = 0.45mm
; solid infill extrusion width = 0.45mm
; top infill extrusion width = 0.40mm
; first layer extrusion width = 0.42mm

M201 X500 Y500 Z100 E5000 ; sets maximum accelerations, mm/sec^2
M203 X500 Y500 Z10 E60 ; sets maximum feedrates, mm/sec
M204 P500 R1000 T500 ; sets acceleration (P, T) and retract acceleration (R), mm/sec^2
M205 X8.00 Y8.00 Z0.40 E5.00 ; sets the jerk limits, mm/sec
M205 S0 T0 ; sets the minimum extruding and travel feed rate, mm/sec
M107
;TYPE:Custom
G90 ; use absolute coordinates
M83 ; extruder relative mode
M104 S120 ; set temporary nozzle temp to prevent oozing during homing and auto bed leveling
M140 S70 ; set final bed temp
G4 S10 ; allow partial nozzle warmup
G28 ; home all axis
G1 Z50 F240
G1 X2 Y10 F3000
M104 S200 ; set final nozzle temp
M190 S70 ; wait for bed temp to stabilize
M109 S200 ; wait for nozzle temp to stabilize
G1 Z0.28 F240
G92 E0
G1 Y140 E10 F1500 ; prime the nozzle
G1 X2.3 F5000
G92 E0
G1 Y10 E10 F1200 ; prime the nozzle
G92 E0
G21 ; set units to millimeters
G90 ; use absolute coordinates
M83 ; use relative distances for extrusion
; Filament gcode
;LAYER_CHANGE
;Z:0.2
;HEIGHT:0.2
;BEFORE_LAYER_CHANGE
G92 E0
;0.2


G1 E-5.00000 F3600.000
G1 Z0.200 F6000.000
;AFTER_LAYER_CHANGE
;0.2
G1 X106.303 Y105.463
G1 E5.00000 F2400.000
M204 S500
;TYPE:Skirt
;WIDTH:0.42
G1 F600.000
G1 X106.388 Y105.377 E0.00376
G1 X108.724 Y103.683 E0.09047
G1 X110.115 Y103.003 E0.04857
G1 X112.568 Y102.206 E0.08087
G1 X113.303 Y102.049 E0.02354
G1 X114.152 Y101.952 E0.02679
G1 X116.739 Y101.950 E0.08111
G1 X118.356 Y102.184 E0.05126
G1 X120.929 Y103.017 E0.08477
G1 X121.577 Y103.300 E0.02218
G1 X122.371 Y103.746 E0.02854
G1 X124.532 Y105.315 E0.08372
G1 X125.617 Y106.380 E0.04768
G1 X127.237 Y108.604 E0.08627
G1 X127.634 Y109.294 E0.02496
G1 X127.971 Y110.038 E0.02562
G1 X128.777 Y112.514 E0.08162
G1 X129.045 Y114.061 E0.04923
G1 X129.026 Y117.171 E0.09751
G1 X128.780 Y118.476 E0.04164
G1 X127.963 Y120.983 E0.08267
G1 X127.534 Y121.899 E0.03173
G1 X125.647 Y124.581 E0.10281
G1 X124.571 Y125.655 E0.04768
G1 X122.392 Y127.240 E0.08448
G1 X121.698 Y127.639 E0.02511
G1 X120.957 Y127.973 E0.02547
G1 X118.477 Y128.780 E0.08177
G1 X116.939 Y129.045 E0.04893
G1 X113.829 Y129.026 E0.09751
G1 X112.524 Y128.780 E0.04164
G1 X110.017 Y127.963 E0.08267
G1 X109.101 Y127.534 E0.03173
G1 X106.419 Y125.647 E0.10281
G1 X105.345 Y124.571 E0.04768
G1 X103.760 Y122.392 E0.08448
G1 X103.361 Y121.698 E0.02511
G1 X103.027 Y120.957 E0.02547
G1 X102.220 Y118.477 E0.08177
G1 X101.955 Y116.933 E0.04914
G1 X101.974 Y113.829 E0.09730
G1 X102.220 Y112.524 E0.04164
G1 X103.037 Y110.017 E0.08267
G1 X103.462 Y109.109 E0.03143
G1 X105.347 Y106.427 E0.10280
G1 X106.261 Y105.505 E0.04070
G1 X106.527 Y105.769 F6000.000
G1 F600.000
G1 X106.627 Y105.669 E0.00444
G1 X108.920 Y104.005 E0.08884
G1 X110.236 Y103.360 E0.04595
G1 X112.676 Y102.568 E0.08045
G1 X113.362 Y102.421 E0.02197
G1 X114.168 Y102.329 E0.02544
G1 X116.738 Y102.327 E0.08060
G1 X118.260 Y102.549 E0.04821
G1 X120.804 Y103.373 E0.08386
G1 X121.409 Y103.638 E0.02071
G1 X122.161 Y104.059 E0.02699
G1 X124.303 Y105.614 E0.08301
G1 X125.328 Y106.623 E0.04510
G1 X126.924 Y108.815 E0.08500
G1 X127.301 Y109.471 E0.02372
G1 X127.617 Y110.167 E0.02398
G1 X128.418 Y112.629 E0.08116
G1 X128.668 Y114.086 E0.04637
G1 X128.650 Y117.138 E0.09570
G1 X128.420 Y118.364 E0.03912
G1 X127.610 Y120.851 E0.08201
G1 X127.202 Y121.720 E0.03010
G1 X125.352 Y124.346 E0.10070
G1 X124.334 Y125.362 E0.04511
G1 X122.178 Y126.929 E0.08358
G1 X121.525 Y127.303 E0.02358
G1 X120.833 Y127.617 E0.02384
G1 X118.367 Y128.419 E0.08130
G1 X116.914 Y128.668 E0.04623
G1 X113.862 Y128.650 E0.09570
G1 X112.636 Y128.420 E0.03912
G1 X110.149 Y127.610 E0.08201
G1 X109.280 Y127.202 E0.03010
G1 X106.654 Y125.352 E0.10070
G1 X105.638 Y124.334 E0.04511
G1 X104.071 Y122.178 E0.08358
G1 X103.697 Y121.525 E0.02358
G1 X103.383 Y120.833 E0.02384
G1 X102.581 Y118.367 E0.08130
G1 X102.332 Y116.908 E0.04642
G1 X102.350 Y113.862 E0.09550
G1 X102.580 Y112.636 E0.03912
G1 X103.390 Y110.149 E0.08201
G1 X103.796 Y109.284 E0.02995
G1 X105.642 Y106.661 E0.10056
G1 X106.485 Y105.812 E0.03752
G1 E-3.50000 F3600.000
;WIPE_START
G1 F4800.000
G1 X106.627 Y105.669 E-0.14357
G1 X108.083 Y104.613 E-1.28143
;WIPE_END
G1 E-0.07500 F3600.000
G1 X112.895 Y112.411 F6000.000
G1 E5.00000 F2400.000
;TYPE:Perimeter
G1 F600.000
G1 X113.385 Y112.051 E0.01905
G1 X113.888 Y111.781 E0.01792
G1 X114.417 Y111.579 E0.01775
G1 X114.851 Y111.453 E0.01417
G1 X115.296 Y111.375 E0.01417
G1 X115.609 Y111.351 E0.00982
G1 X116.067 Y111.357 E0.01438
G1 X116.503 Y111.412 E0.01377
G1 X116.866 Y111.492 E0.01165
G1 X117.282 Y111.627 E0.01370
G1 X117.751 Y111.840 E0.01616
G1 X118.190 Y112.107 E0.01610
G1 X118.590 Y112.422 E0.01595
G1 X118.792 Y112.612 E0.00871
G1 X119.128 Y112.991 E0.01587
G1 X119.295 Y113.217 E0.00881
G1 X119.562 Y113.657 E0.01614
G1 X119.710 Y113.966 E0.01075
G1 X119.863 Y114.417 E0.01493
G1 X119.941 Y114.738 E0.01037
G1 X119.999 Y115.123 E0.01221
G1 X120.024 Y115.629 E0.01588
G1 X120.005 Y116.019 E0.01223
G1 X119.898 Y116.647 E0.01999
G1 X119.676 Y117.305 E0.02178
G1 X119.448 Y117.759 E0.01594
G1 X119.265 Y118.053 E0.01083
G1 X119.021 Y118.379 E0.01277
G1 X118.734 Y118.700 E0.01350
G1 X118.324 Y119.067 E0.01726
G1 X118.096 Y119.231 E0.00882
G1 X117.600 Y119.524 E0.01806
G1 X117.295 Y119.669 E0.01057
G1 X116.706 Y119.872 E0.01954
G1 X116.367 Y119.946 E0.01088
G1 X115.744 Y120.007 E0.01963
G1 X115.405 Y119.998 E0.01061
G1 X114.971 Y119.949 E0.01369
G1 X114.516 Y119.842 E0.01468
G1 X114.200 Y119.735 E0.01045
G1 X113.745 Y119.535 E0.01559
G1 X113.336 Y119.297 E0.01482
G1 X113.076 Y119.112 E0.01001
G1 X112.733 Y118.819 E0.01413
G1 X112.505 Y118.585 E0.01026
G1 X112.210 Y118.222 E0.01467
G1 X112.059 Y117.998 E0.00848
G1 X111.823 Y117.572 E0.01527
G1 X111.714 Y117.326 E0.00842
G1 X111.558 Y116.862 E0.01536
G1 X111.456 Y116.378 E0.01551
G1 X111.413 Y115.887 E0.01544
G1 X111.435 Y115.323 E0.01771
G1 X111.471 Y115.021 E0.00954
G1 X111.590 Y114.474 E0.01755
G1 X111.684 Y114.180 E0.00966
G1 X111.907 Y113.666 E0.01756
G1 X112.053 Y113.404 E0.00942
G1 X112.288 Y113.056 E0.01315
G1 X112.476 Y112.827 E0.00931
G1 X112.853 Y112.453 E0.01664
G1 X113.118 Y112.721 F6000.000
;TYPE:External perimeter
G1 F600.000
G1 X113.581 Y112.374 E0.01814
G1 X114.045 Y112.124 E0.01654
G1 X114.537 Y111.937 E0.01650
G1 X114.936 Y111.821 E0.01303
G1 X115.343 Y111.750 E0.01296
G1 X115.621 Y111.729 E0.00872
G1 X116.041 Y111.734 E0.01319
G1 X116.439 Y111.784 E0.01255
G1 X116.767 Y111.857 E0.01054
G1 X117.145 Y111.979 E0.01247
G1 X117.574 Y112.174 E0.01478
G1 X117.974 Y112.418 E0.01468
G1 X118.343 Y112.708 E0.01472
G1 X118.521 Y112.875 E0.00765
G1 X118.834 Y113.228 E0.01481
G1 X118.981 Y113.427 E0.00775
G1 X119.230 Y113.837 E0.01502
G1 X119.360 Y114.108 E0.00945
G1 X119.501 Y114.522 E0.01369
G1 X119.571 Y114.810 E0.00931
G1 X119.623 Y115.160 E0.01110
G1 X119.646 Y115.629 E0.01471
G1 X119.629 Y115.978 E0.01095
G1 X119.531 Y116.555 E0.01835
G1 X119.328 Y117.160 E0.02001
G1 X119.118 Y117.575 E0.01457
G1 X118.954 Y117.840 E0.00979
G1 X118.729 Y118.139 E0.01174
G1 X118.467 Y118.433 E0.01233
G1 X118.087 Y118.772 E0.01597
G1 X117.889 Y118.915 E0.00766
G1 X117.423 Y119.191 E0.01699
G1 X117.152 Y119.319 E0.00938
G1 X116.604 Y119.508 E0.01819
G1 X116.308 Y119.573 E0.00949
G1 X115.730 Y119.629 E0.01820
G1 X115.431 Y119.621 E0.00938
G1 X115.036 Y119.577 E0.01248
G1 X114.619 Y119.479 E0.01342
G1 X114.336 Y119.383 E0.00936
G1 X113.916 Y119.198 E0.01439
G1 X113.541 Y118.980 E0.01362
G1 X113.308 Y118.814 E0.00895
G1 X112.991 Y118.544 E0.01307
G1 X112.786 Y118.334 E0.00918
G1 X112.513 Y117.997 E0.01360
G1 X112.380 Y117.801 E0.00744
G1 X112.161 Y117.404 E0.01421
G1 X112.066 Y117.189 E0.00736
G1 X111.922 Y116.763 E0.01412
G1 X111.830 Y116.322 E0.01410
G1 X111.791 Y115.878 E0.01399
G1 X111.811 Y115.352 E0.01649
G1 X111.843 Y115.084 E0.00849
G1 X111.955 Y114.572 E0.01643
G1 X112.037 Y114.313 E0.00851
G1 X112.245 Y113.834 E0.01638
G1 X112.375 Y113.602 E0.00833
G1 X112.590 Y113.282 E0.01210
G1 X112.755 Y113.081 E0.00814
G1 X113.075 Y112.763 E0.01414
G1 X113.048 Y112.327 F6000.000
G1 E-3.50000 F3600.000
;WIPE_START
G1 F4800.000
G1 X113.581 Y112.374 E-0.45454
G1 X114.045 Y112.124 E-0.37579
G1 X114.537 Y111.937 E-0.37493
G1 X114.833 Y111.851 E-0.21974
;WIPE_END
G1 E-0.07500 F3600.000
G1 X109.423 Y109.423 F6000.000
G1 E5.00000 F2400.000
;TYPE:Perimeter
G1 F600.000
G1 X109.633 Y109.436 E0.00662
G1 X110.012 Y109.399 E0.01193
G1 X110.279 Y109.326 E0.00868
G1 X110.530 Y109.221 E0.00853
G1 X110.814 Y109.050 E0.01038
G1 X111.064 Y108.833 E0.01038
G1 X111.242 Y108.627 E0.00853
G1 X111.393 Y108.395 E0.00868
G1 X111.546 Y108.047 E0.01193
G1 X111.598 Y107.842 E0.00662
G1 X112.043 Y107.984 E0.01465
G1 X112.433 Y108.016 E0.01225
G1 X112.714 Y107.993 E0.00884
G1 X113.036 Y107.917 E0.01038
G1 X113.341 Y107.789 E0.01038
G1 X113.574 Y107.648 E0.00853
G1 X113.797 Y107.468 E0.00899
G1 X114.114 Y107.087 E0.01552
G1 X114.155 Y107.011 E0.00272
G1 X114.318 Y107.146 E0.00662
G1 X114.646 Y107.338 E0.01193
G1 X114.905 Y107.437 E0.00868
G1 X115.170 Y107.499 E0.00853
G1 X115.500 Y107.527 E0.01038
G1 X115.830 Y107.499 E0.01038
G1 X116.114 Y107.432 E0.00914
G1 X116.572 Y107.222 E0.01582
G1 X116.844 Y107.011 E0.01080
G1 X116.886 Y107.087 E0.00274
G1 X117.203 Y107.468 E0.01552
G1 X117.426 Y107.648 E0.00899
G1 X117.659 Y107.789 E0.00853
G1 X117.964 Y107.917 E0.01038
G1 X118.286 Y107.993 E0.01038
G1 X118.567 Y108.016 E0.00884
G1 X118.957 Y107.984 E0.01225
G1 X119.402 Y107.842 E0.01465
G1 X119.454 Y108.047 E0.00662
G1 X119.607 Y108.395 E0.01193
G1 X119.758 Y108.627 E0.00868
G1 X119.936 Y108.833 E0.00853
G1 X120.186 Y109.050 E0.01038
G1 X120.470 Y109.221 E0.01038
G1 X120.721 Y109.326 E0.00853
G1 X120.988 Y109.399 E0.00868
G1 X121.367 Y109.436 E0.01193
G1 X121.577 Y109.423 E0.00662
G1 X121.564 Y109.633 E0.00662
G1 X121.601 Y110.012 E0.01193
G1 X121.674 Y110.279 E0.00868
G1 X121.779 Y110.530 E0.00853
G1 X121.950 Y110.814 E0.01038
G1 X122.167 Y111.064 E0.01038
G1 X122.373 Y111.242 E0.00853
G1 X122.605 Y111.393 E0.00868
G1 X122.953 Y111.546 E0.01193
G1 X123.158 Y111.598 E0.00662
G1 X123.016 Y112.043 E0.01465
G1 X122.984 Y112.433 E0.01225
G1 X123.007 Y112.714 E0.00884
G1 X123.083 Y113.036 E0.01038
G1 X123.211 Y113.341 E0.01038
G1 X123.352 Y113.574 E0.00853
G1 X123.532 Y113.797 E0.00899
G1 X123.913 Y114.114 E0.01552
G1 X123.989 Y114.155 E0.00272
G1 X123.854 Y114.318 E0.00662
G1 X123.662 Y114.646 E0.01193
G1 X123.563 Y114.905 E0.00868
G1 X123.501 Y115.170 E0.00853
G1 X123.473 Y115.500 E0.01038
G1 X123.501 Y115.830 E0.01038
G1 X123.568 Y116.114 E0.00914
G1 X123.774 Y116.563 E0.01551
G1 X123.989 Y116.844 E0.01109
G1 X123.913 Y116.886 E0.00272
G1 X123.532 Y117.203 E0.01552
G1 X123.352 Y117.426 E0.00899
G1 X123.211 Y117.659 E0.00853
G1 X123.083 Y117.964 E0.01038
G1 X123.007 Y118.286 E0.01038
G1 X122.984 Y118.567 E0.00884
G1 X123.016 Y118.957 E0.01225
G1 X123.158 Y119.402 E0.01465
G1 X122.953 Y119.454 E0.00662
G1 X122.605 Y119.607 E0.01193
G1 X122.373 Y119.758 E0.00868
G1 X122.167 Y119.936 E0.00853
G1 X121.950 Y120.186 E0.01038
G1 X121.779 Y120.470 E0.01038
G1 X121.674 Y120.721 E0.00853
G1 X121.601 Y120.988 E0.00868
G1 X121.564 Y121.367 E0.01193
G1 X121.577 Y121.577 E0.00662
G1 X121.367 Y121.564 E0.00662
G1 X120.988 Y121.601 E0.01193
G1 X120.721 Y121.674 E0.00868
G1 X120.470 Y121.779 E0.00853
G1 X120.186 Y121.950 E0.01038
G1 X119.936 Y122.167 E0.01038
G1 X119.758 Y122.373 E0.00853
G1 X119.607 Y122.605 E0.00868
G1 X119.454 Y122.953 E0.01193
G1 X119.402 Y123.158 E0.00662
G1 X118.957 Y123.016 E0.01465
G1 X118.567 Y122.984 E0.01225
G1 X118.286 Y123.007 E0.00884
G1 X117.964 Y123.083 E0.01038
G1 X117.659 Y123.211 E0.01038
G1 X117.426 Y123.352 E0.00853
G1 X117.203 Y123.532 E0.00899
G1 X116.886 Y123.913 E0.01552
G1 X116.845 Y123.989 E0.00272
G1 X116.682 Y123.854 E0.00662
G1 X116.354 Y123.662 E0.01193
G1 X116.095 Y123.563 E0.00868
G1 X115.830 Y123.501 E0.00853
G1 X115.500 Y123.473 E0.01038
G1 X115.170 Y123.501 E0.01038
G1 X114.886 Y123.568 E0.00914
G1 X114.437 Y123.774 E0.01551
G1 X114.156 Y123.989 E0.01109
G1 X114.114 Y123.913 E0.00272
G1 X113.797 Y123.532 E0.01552
G1 X113.574 Y123.352 E0.00899
G1 X113.341 Y123.211 E0.00853
G1 X113.036 Y123.083 E0.01038
G1 X112.714 Y123.007 E0.01038
G1 X112.433 Y122.984 E0.00884
G1 X112.043 Y123.016 E0.01225
G1 X111.598 Y123.158 E0.01465
G1 X111.546 Y122.953 E0.00662
G1 X111.393 Y122.605 E0.01193
G1 X111.242 Y122.373 E0.00868
G1 X111.064 Y122.167 E0.00853
G1 X110.814 Y121.950 E0.01038
G1 X110.530 Y121.779 E0.01038
G1 X110.279 Y121.674 E0.00853
G1 X110.012 Y121.601 E0.00868
G1 X109.633 Y121.564 E0.01193
G1 X109.423 Y121.577 E0.00662
G1 X109.436 Y121.367 E0.00662
G1 X109.399 Y120.988 E0.01193
G1 X109.326 Y120.721 E0.00868
G1 X109.221 Y120.470 E0.00853
G1 X109.050 Y120.186 E0.01038
G1 X108.833 Y119.936 E0.01038
G1 X108.627 Y119.758 E0.00853
G1 X108.395 Y119.607 E0.00868
G1 X108.047 Y119.454 E0.01193
G1 X107.842 Y119.402 E0.00662
G1 X107.984 Y118.957 E0.01465
G1 X108.016 Y118.567 E0.01225
G1 X107.993 Y118.286 E0.00884
G1 X107.917 Y117.964 E0.01038
G1 X107.789 Y117.659 E0.01038
G1 X107.648 Y117.426 E0.00853
G1 X107.468 Y117.203 E0.00899
G1 X107.087 Y116.886 E0.01552
G1 X107.011 Y116.845 E0.00272
G1 X107.146 Y116.682 E0.00662
G1 X107.338 Y116.354 E0.01193
G1 X107.437 Y116.095 E0.00868
G1 X107.499 Y115.830 E0.00853
G1 X107.527 Y115.500 E0.01038
G1 X107.499 Y115.170 E0.01038
G1 X107.432 Y114.886 E0.00914
G1 X107.226 Y114.437 E0.01551
G1 X107.011 Y114.156 E0.01109
G1 X107.087 Y114.114 E0.00272
G1 X107.468 Y113.797 E0.01552
G1 X107.648 Y113.574 E0.00899
G1 X107.789 Y113.341 E0.00853
G1 X107.917 Y113.036 E0.01038
G1 X107.993 Y112.714 E0.01038
G1 X108.016 Y112.433 E0.00884
G1 X107.984 Y112.043 E0.01225
G1 X107.842 Y111.598 E0.01465
G1 X108.047 Y111.546 E0.00662
G1 X108.395 Y111.393 E0.01193
G1 X108.627 Y111.242 E0.00868
G1 X108.833 Y111.064 E0.00853
G1 X109.050 Y110.814 E0.01038
G1 X109.221 Y110.530 E0.01038
G1 X109.326 Y110.279 E0.00853
G1 X109.399 Y110.012 E0.00868
G1 X109.436 Y109.633 E0.01193
G1 X109.427 Y109.483 E0.00473
G1 X108.930 Y108.986 F6000.000
;TYPE:External perimeter
G1 F600.000
G1 X108.882 Y108.894 E0.00327
G1 X108.894 Y108.882 E0.00050
G1 X109.193 Y109.001 E0.01010
G1 X109.406 Y109.044 E0.00682
G1 X109.627 Y109.058 E0.00692
G1 X109.944 Y109.026 E0.00999
G1 X110.157 Y108.969 E0.00692
G1 X110.359 Y108.884 E0.00687
G1 X110.591 Y108.744 E0.00851
G1 X110.797 Y108.566 E0.00851
G1 X110.940 Y108.400 E0.00687
G1 X111.060 Y108.215 E0.00692
G1 X111.188 Y107.924 E0.00999
G1 X111.243 Y107.709 E0.00692
G1 X111.268 Y107.493 E0.00682
G1 X111.248 Y107.172 E0.01010
G1 X111.262 Y107.165 E0.00050
G1 X111.338 Y107.241 E0.00338
G1 X111.600 Y107.425 E0.01004
G1 X111.802 Y107.522 E0.00702
G1 X112.112 Y107.611 E0.01011
G1 X112.433 Y107.638 E0.01010
G1 X112.655 Y107.619 E0.00698
G1 X112.919 Y107.557 E0.00851
G1 X113.170 Y107.452 E0.00851
G1 X113.357 Y107.338 E0.00687
G1 X113.531 Y107.198 E0.00703
G1 X113.801 Y106.875 E0.01318
G1 X113.907 Y106.678 E0.00702
G1 X113.987 Y106.470 E0.00697
G1 X114.024 Y106.266 E0.00649
G1 X114.045 Y106.263 E0.00067
G1 X114.218 Y106.535 E0.01010
G1 X114.365 Y106.695 E0.00682
G1 X114.535 Y106.836 E0.00692
G1 X114.810 Y106.997 E0.00999
G1 X115.016 Y107.076 E0.00692
G1 X115.229 Y107.126 E0.00687
G1 X115.500 Y107.149 E0.00851
G1 X115.771 Y107.126 E0.00851
G1 X115.991 Y107.074 E0.00709
G1 X116.375 Y106.897 E0.01327
G1 X116.633 Y106.698 E0.01021
G1 X116.782 Y106.535 E0.00693
G1 X116.956 Y106.264 E0.01011
G1 X116.976 Y106.267 E0.00062
G1 X117.013 Y106.470 E0.00648
G1 X117.093 Y106.678 E0.00698
G1 X117.199 Y106.875 E0.00702
G1 X117.469 Y107.198 E0.01318
G1 X117.643 Y107.338 E0.00703
G1 X117.830 Y107.452 E0.00687
G1 X118.081 Y107.557 E0.00851
G1 X118.345 Y107.619 E0.00851
G1 X118.567 Y107.638 E0.00698
G1 X118.888 Y107.611 E0.01010
