; generated by PrusaSlicer 2.3.1+win64 on 2021-05-16 at 23:15:34 UTC

; 

; external perimeters extrusion width = 0.45mm
; perimeters extrusion width = 0.45mm
; infill extrusion width = 0.45mm
; solid infill extrusion width = 0.45mm
; top infill extrusion width = 0.40mm
; support material extrusion width = 0.38mm
; first layer extrusion width = 0.42mm

M201 X500 Y500 Z100 E5000 ; sets maximum accelerations, mm/sec^2
M203 X500 Y500 Z10 E60 ; sets maximum feedrates, mm/sec
M204 P500 R1000 T500 ; sets acceleration (P, T) and retract acceleration (R), mm/sec^2
M205 X8.00 Y8.00 Z0.40 E5.00 ; sets the jerk limits, mm/sec
M205 S0 T0 ; sets the minimum extruding and travel feed rate, mm/sec
M107
;TYPE:Custom
G90 ; use absolute coordinates
M83 ; extruder relative mode
M104 S120 ; set temporary nozzle temp to prevent oozing during homing and auto bed leveling
M140 S70 ; set final bed temp
G4 S10 ; allow partial nozzle warmup
G28 ; home all axis
G1 Z50 F240
G1 X2 Y10 F3000
M104 S200 ; set final nozzle temp
M190 S70 ; wait for bed temp to stabilize
M109 S200 ; wait for nozzle temp to stabilize
G1 Z0.28 F240
G92 E0
G1 Y140 E10 F1500 ; prime the nozzle
G1 X2.3 F5000
G92 E0
G1 Y10 E10 F1200 ; prime the nozzle
G92 E0
G21 ; set units to millimeters
G90 ; use absolute coordinates
M83 ; use relative distances for extrusion
; Filament gcode
;LAYER_CHANGE
;Z:0.2
;HEIGHT:0.2
;BEFORE_LAYER_CHANGE
G92 E0
;0.2


G1 E-5.00000 F3600.000
G1 Z0.200 F9000.000
;AFTER_LAYER_CHANGE
;0.2
G1 X91.315 Y95.048
G1 E5.00000 F2400.000
M204 S500
;TYPE:Skirt
;WIDTH:0.42
G1 F600.000
G1 X92.088 Y94.951 E0.02443
G1 X131.342 Y94.951 E1.23077
G1 X139.452 Y95.169 E0.25436
G1 X140.149 Y95.368 E0.02273
G1 X140.784 Y95.709 E0.02259
G1 X141.332 Y96.176 E0.02259
G1 X141.768 Y96.750 E0.02259
G1 X142.136 Y97.606 E0.02923
G1 X144.487 Y106.709 E0.29479
G1 X144.495 Y116.711 E0.31360
G1 X144.349 Y117.370 E0.02117
G1 X144.074 Y117.987 E0.02117
G1 X143.682 Y118.537 E0.02117
G1 X143.189 Y118.998 E0.02117
G1 X127.169 Y129.931 E0.60810
G1 X126.439 Y130.203 E0.02443
G1 X125.670 Y130.300 E0.02429
G1 X107.590 Y130.300 E0.56689
G1 X106.637 Y130.155 E0.03022
G1 X105.880 Y129.819 E0.02598
G1 X88.056 Y118.999 E0.65378
G1 X87.365 Y118.420 E0.02824
G1 X86.852 Y117.680 E0.02824
G1 X86.587 Y116.981 E0.02344
G1 X86.483 Y116.236 E0.02358
G1 X86.528 Y105.931 E0.32311
G1 X88.966 Y97.124 E0.28654
G1 X89.240 Y96.566 E0.01947
G1 X89.608 Y96.072 E0.01933
G1 X90.064 Y95.650 E0.01947
G1 X90.585 Y95.320 E0.01933
G1 X91.259 Y95.069 E0.02255
G1 E-3.50000 F3600.000
;WIPE_START
G1 F7200.000
G1 X92.088 Y94.951 E-0.39789
G1 X94.251 Y94.951 E-1.02711
;WIPE_END
G1 E-0.07500 F3600.000
G1 X92.121 Y98.328 F9000.000
G1 E5.00000 F2400.000
;TYPE:Support material
G1 F600.000
G1 X92.121 Y103.734 E0.16950
G1 X92.875 Y103.734 E0.02365
G1 X92.875 Y98.498 E0.16418
G1 X93.629 Y98.498 E0.02365
G1 X93.629 Y103.734 E0.16418
G1 X94.384 Y103.734 E0.02365
G1 X94.384 Y98.498 E0.16418
G1 X95.138 Y98.498 E0.02365
G1 X95.138 Y103.734 E0.16418
G1 X95.892 Y103.734 E0.02365
G1 X95.892 Y98.498 E0.16418
G1 X96.646 Y98.498 E0.02365
G1 X96.646 Y103.734 E0.16418
G1 X97.400 Y103.734 E0.02365
G1 X97.400 Y98.498 E0.16418
G1 X98.154 Y98.498 E0.02365
G1 X98.154 Y103.734 E0.16418
G1 X98.909 Y103.734 E0.02365
G1 X98.909 Y98.498 E0.16418
G1 X99.663 Y98.498 E0.02365
G1 X99.663 Y103.903 E0.16950
G1 E-3.50000 F3600.000
;WIPE_START
G1 F7200.000
G1 X99.663 Y100.903 E-1.42500
;WIPE_END
G1 E-0.07500 F3600.000
G1 X89.859 Y106.487 F9000.000
G1 E5.00000 F2400.000
G1 F600.000
G1 X89.859 Y116.143 E0.30275
G1 X90.613 Y116.143 E0.02365
G1 X90.613 Y106.917 E0.28926
G1 X91.234 Y107.124 E0.02052
G1 X91.234 Y109.982 E0.08961
G1 X91.367 Y110.167 E0.00714
G1 X91.367 Y116.143 E0.18736
G1 X92.121 Y116.143 E0.02365
G1 X92.121 Y110.461 E0.17816
G1 X92.875 Y110.712 E0.02493
G1 X92.875 Y116.143 E0.17028
G1 X93.629 Y116.143 E0.02365
G1 X93.629 Y110.963 E0.16240
G1 X94.384 Y111.215 E0.02493
G1 X94.384 Y116.143 E0.15451
G1 X95.138 Y116.143 E0.02365
G1 X95.138 Y111.466 E0.14663
G1 X95.892 Y111.718 E0.02493
G1 X95.892 Y116.143 E0.13875
G1 X96.646 Y116.143 E0.02365
G1 X96.646 Y111.969 E0.13087
G1 X97.400 Y112.220 E0.02493
G1 X97.400 Y116.143 E0.12299
G1 X98.154 Y116.143 E0.02365
G1 X98.154 Y112.472 E0.11510
G1 X98.909 Y112.723 E0.02493
G1 X98.909 Y116.143 E0.10722
G1 X99.663 Y116.143 E0.02365
G1 X99.663 Y112.975 E0.09934
G1 X100.417 Y113.226 E0.02493
G1 X100.417 Y116.143 E0.09146
G1 X101.171 Y116.143 E0.02365
G1 X101.171 Y113.840 E0.07219
G1 X101.925 Y114.595 E0.03344
G1 X101.925 Y116.313 E0.05386
G1 E-3.50000 F3600.000
;WIPE_START
G1 F7200.000
G1 X101.925 Y114.595 E-0.81601
G1 X101.171 Y113.840 E-0.50661
G1 X101.171 Y114.056 E-0.10238
;WIPE_END
G1 E-0.07500 F3600.000
G1 X110.221 Y98.328 F9000.000
G1 E5.00000 F2400.000
G1 F600.000
G1 X110.221 Y103.734 E0.16950
G1 X110.975 Y103.734 E0.02365
G1 X110.975 Y98.498 E0.16418
G1 X111.729 Y98.498 E0.02365
G1 X111.729 Y103.734 E0.16418
G1 X112.483 Y103.734 E0.02365
G1 X112.483 Y98.498 E0.16418
G1 X113.238 Y98.498 E0.02365
G1 X113.238 Y103.734 E0.16418
G1 X113.992 Y103.734 E0.02365
G1 X113.992 Y98.498 E0.16418
G1 X114.746 Y98.498 E0.02365
G1 X114.746 Y103.734 E0.16418
G1 X115.500 Y103.734 E0.02365
G1 X115.500 Y98.498 E0.16418
G1 X116.254 Y98.498 E0.02365
G1 X116.254 Y103.734 E0.16418
G1 X117.008 Y103.734 E0.02365
G1 X117.008 Y98.498 E0.16418
G1 X117.762 Y98.498 E0.02365
G1 X117.762 Y103.734 E0.16418
G1 X118.517 Y103.734 E0.02365
G1 X118.517 Y98.498 E0.16418
G1 X119.271 Y98.498 E0.02365
G1 X119.271 Y103.734 E0.16418
G1 X120.025 Y103.734 E0.02365
G1 X120.025 Y98.498 E0.16418
G1 X120.779 Y98.498 E0.02365
G1 X120.779 Y103.903 E0.16950
G1 E-3.50000 F3600.000
;WIPE_START
G1 F7200.000
G1 X120.779 Y100.903 E-1.42500
;WIPE_END
G1 E-0.07500 F3600.000
G1 X131.337 Y98.328 F9000.000
G1 E5.00000 F2400.000
G1 F600.000
G1 X131.337 Y103.734 E0.16950
G1 X132.091 Y103.734 E0.02365
G1 X132.091 Y98.498 E0.16418
G1 X132.846 Y98.498 E0.02365
G1 X132.846 Y103.734 E0.16418
G1 X133.600 Y103.734 E0.02365
G1 X133.600 Y98.498 E0.16418
G1 X134.354 Y98.498 E0.02365
G1 X134.354 Y103.734 E0.16418
G1 X135.108 Y103.734 E0.02365
G1 X135.108 Y98.498 E0.16418
G1 X135.862 Y98.498 E0.02365
G1 X135.862 Y103.734 E0.16418
G1 X136.616 Y103.734 E0.02365
G1 X136.616 Y98.498 E0.16418
G1 X137.371 Y98.498 E0.02365
G1 X137.371 Y103.734 E0.16418
G1 X138.125 Y103.734 E0.02365
G1 X138.125 Y98.498 E0.16418
G1 X138.879 Y98.498 E0.02365
G1 X138.879 Y103.903 E0.16950
G1 E-3.50000 F3600.000
;WIPE_START
G1 F7200.000
G1 X138.879 Y100.903 E-1.42500
;WIPE_END
G1 E-0.07500 F3600.000
G1 X141.141 Y116.313 F9000.000
G1 E5.00000 F2400.000
G1 F600.000
G1 X141.141 Y107.166 E0.28678
G1 X140.387 Y107.417 E0.02493
G1 X140.387 Y116.143 E0.27358
G1 X139.633 Y116.143 E0.02365
G1 X139.633 Y110.667 E0.17168
G1 X139.593 Y110.723 E0.00214
G1 X138.879 Y110.961 E0.02361
G1 X138.879 Y116.143 E0.16248
G1 X138.125 Y116.143 E0.02365
G1 X138.125 Y111.212 E0.15460
G1 X137.371 Y111.463 E0.02493
G1 X137.371 Y116.143 E0.14672
G1 X136.616 Y116.143 E0.02365
G1 X136.616 Y111.715 E0.13884
G1 X135.862 Y111.966 E0.02493
G1 X135.862 Y116.143 E0.13096
G1 X135.108 Y116.143 E0.02365
G1 X135.108 Y112.218 E0.12307
G1 X134.354 Y112.469 E0.02493
G1 X134.354 Y116.143 E0.11519
G1 X133.600 Y116.143 E0.02365
G1 X133.600 Y112.720 E0.10731
G1 X132.846 Y112.972 E0.02493
G1 X132.846 Y116.143 E0.09943
G1 X132.091 Y116.143 E0.02365
G1 X132.091 Y113.223 E0.09155
G1 X131.903 Y113.266 E0.00606
G1 X131.337 Y113.832 E0.02509
G1 X131.337 Y116.143 E0.07245
G1 X130.583 Y116.143 E0.02365
G1 X130.583 Y114.586 E0.04880
G1 X129.829 Y115.340 E0.03344
G1 X129.829 Y116.143 E0.02516
G1 X129.075 Y116.143 E0.02365
G1 X129.075 Y115.855 E0.00904
G1 E-3.50000 F3600.000
;WIPE_START
G1 F7200.000
G1 X129.075 Y116.143 E-0.13690
G1 X129.829 Y116.143 E-0.35823
G1 X129.829 Y115.340 E-0.38113
G1 X130.583 Y114.586 E-0.50661
G1 X130.583 Y114.675 E-0.04214
;WIPE_END
G1 E-0.07500 F3600.000
G1 X131.429 Y112.121 F9000.000
G1 E5.00000 F2400.000
;TYPE:Perimeter
G1 F600.000
G1 X126.621 Y116.929 E0.21319
G1 X126.621 Y122.905 E0.18739
G1 X125.121 Y126.121 E0.11124
G1 X108.129 Y126.121 E0.53279
G1 X105.879 Y121.297 E0.16688
G1 X105.879 Y116.929 E0.13696
G1 X101.071 Y112.121 E0.21319
G1 X100.724 Y112.121 E0.01090
G1 X92.379 Y109.339 E0.27579
G1 X92.379 Y104.879 E0.13983
G1 X138.621 Y104.879 E1.44986
G1 X138.621 Y109.839 E0.15551
G1 X131.776 Y112.121 E0.22621
G1 X131.489 Y112.121 E0.00901
G1 X131.585 Y112.498 F9000.000
;TYPE:External perimeter
G1 F600.000
G1 X126.998 Y117.085 E0.20340
G1 X126.998 Y122.989 E0.18511
G1 X125.361 Y126.498 E0.12139
G1 X107.889 Y126.498 E0.54785
G1 X105.502 Y121.380 E0.17704
G1 X105.502 Y117.085 E0.13468
G1 X100.915 Y112.498 E0.20340
G1 X100.663 Y112.498 E0.00792
G1 X92.002 Y109.611 E0.28623
G1 X92.002 Y104.502 E0.16018
G1 X138.998 Y104.502 E1.47351
G1 X138.998 Y110.111 E0.17586
G1 X131.837 Y112.498 E0.23665
G1 X131.645 Y112.498 E0.00604
G1 X131.220 Y112.335 F9000.000
G1 E-3.50000 F3600.000
;WIPE_START
G1 F7200.000
G1 X129.510 Y114.605 E-1.42500
;WIPE_END
G1 E-0.07500 F3600.000
G1 X138.508 Y105.758 F9000.000
G1 E5.00000 F2400.000
;TYPE:Solid infill
;WIDTH:0.421446
G1 F600.000
G1 X137.912 Y105.162 E0.02651
G1 X137.377 Y105.162 E0.01685
G1 X138.338 Y106.123 E0.04279
G1 X138.338 Y106.659 E0.01685
G1 X136.841 Y105.162 E0.06662
G1 X136.306 Y105.162 E0.01685
G1 X138.338 Y107.194 E0.09044
G1 X138.338 Y107.729 E0.01685
G1 X135.771 Y105.162 E0.11427
G1 X135.235 Y105.162 E0.01685
G1 X138.338 Y108.265 E0.13810
G1 X138.338 Y108.800 E0.01685
G1 X134.700 Y105.162 E0.16193
G1 X134.165 Y105.162 E0.01685
G1 X138.338 Y109.335 E0.18576
G1 X138.338 Y109.635 E0.00944
G1 X138.161 Y109.694 E0.00586
G1 X133.629 Y105.162 E0.20173
G1 X133.094 Y105.162 E0.01685
G1 X137.760 Y109.828 E0.20768
G1 X137.358 Y109.962 E0.01332
G1 X132.559 Y105.162 E0.21364
G1 X132.023 Y105.162 E0.01685
G1 X136.957 Y110.096 E0.21960
G1 X136.555 Y110.229 E0.01332
G1 X131.488 Y105.162 E0.22556
G1 X130.953 Y105.162 E0.01685
G1 X136.154 Y110.363 E0.23151
G1 X135.752 Y110.497 E0.01332
G1 X130.417 Y105.162 E0.23747
G1 X129.882 Y105.162 E0.01685
G1 X135.351 Y110.631 E0.24343
G1 X134.949 Y110.765 E0.01332
G1 X129.347 Y105.162 E0.24938
G1 X128.812 Y105.162 E0.01685
G1 X134.548 Y110.899 E0.25534
G1 X134.146 Y111.032 E0.01332
G1 X128.276 Y105.162 E0.26130
G1 X127.741 Y105.162 E0.01685
G1 X133.745 Y111.166 E0.26725
G1 X133.344 Y111.300 E0.01332
G1 X127.206 Y105.162 E0.27321
G1 X126.670 Y105.162 E0.01685
G1 X132.942 Y111.434 E0.27917
G1 X132.541 Y111.568 E0.01332
G1 X126.135 Y105.162 E0.28513
G1 X125.600 Y105.162 E0.01685
G1 X132.139 Y111.702 E0.29108
G1 X131.738 Y111.835 E0.01332
G1 X125.064 Y105.162 E0.29704
G1 X124.529 Y105.162 E0.01685
G1 X131.258 Y111.891 E0.29953
G1 X130.990 Y112.159 E0.01191
G1 X123.994 Y105.162 E0.31144
G1 X123.458 Y105.162 E0.01685
G1 X130.723 Y112.427 E0.32335
G1 X130.455 Y112.694 E0.01191
G1 X122.923 Y105.162 E0.33527
G1 X122.388 Y105.162 E0.01685
G1 X130.187 Y112.962 E0.34718
G1 X129.920 Y113.230 E0.01191
G1 X121.852 Y105.162 E0.35910
G1 X121.317 Y105.162 E0.01685
G1 X129.652 Y113.497 E0.37101
G1 X129.384 Y113.765 E0.01191
G1 X120.782 Y105.162 E0.38292
G1 X120.246 Y105.162 E0.01685
G1 X129.117 Y114.033 E0.39484
G1 X128.849 Y114.300 E0.01191
G1 X119.711 Y105.162 E0.40675
G1 X119.176 Y105.162 E0.01685
G1 X128.582 Y114.568 E0.41866
G1 X128.314 Y114.836 E0.01191
G1 X118.640 Y105.162 E0.43058
G1 X118.105 Y105.162 E0.01685
G1 X128.046 Y115.103 E0.44249
G1 X127.779 Y115.371 E0.01191
G1 X117.570 Y105.162 E0.45441
G1 X117.035 Y105.162 E0.01685
G1 X127.511 Y115.638 E0.46632
G1 X127.243 Y115.906 E0.01191
G1 X116.499 Y105.162 E0.47823
G1 X115.964 Y105.162 E0.01685
G1 X126.976 Y116.174 E0.49015
G1 X126.708 Y116.441 E0.01191
G1 X115.429 Y105.162 E0.50206
G1 X114.893 Y105.162 E0.01685
G1 X126.440 Y116.709 E0.51398
G1 X126.338 Y116.812 E0.00456
G1 X126.338 Y117.142 E0.01040
G1 X114.358 Y105.162 E0.53325
G1 X113.823 Y105.162 E0.01685
G1 X126.338 Y117.677 E0.55707
G1 X126.338 Y118.213 E0.01685
G1 X113.287 Y105.162 E0.58090
G1 X112.752 Y105.162 E0.01685
G1 X126.338 Y118.748 E0.60473
G1 X126.338 Y119.283 E0.01685
G1 X112.217 Y105.162 E0.62856
G1 X111.681 Y105.162 E0.01685
G1 X126.338 Y119.819 E0.65239
G1 X126.338 Y120.354 E0.01685
G1 X111.146 Y105.162 E0.67621
G1 X110.611 Y105.162 E0.01685
G1 X126.338 Y120.889 E0.70004
G1 X126.338 Y121.425 E0.01685
G1 X110.075 Y105.162 E0.72387
G1 X109.540 Y105.162 E0.01685
G1 X126.338 Y121.960 E0.74770
G1 X126.338 Y122.495 E0.01685
G1 X109.005 Y105.162 E0.77153
G1 X108.469 Y105.162 E0.01685
G1 X126.278 Y122.971 E0.79269
G1 X126.108 Y123.336 E0.01268
G1 X107.934 Y105.162 E0.80894
G1 X107.399 Y105.162 E0.01685
G1 X125.938 Y123.701 E0.82519
G1 X125.767 Y124.066 E0.01268
G1 X106.864 Y105.162 E0.84144
G1 X106.328 Y105.162 E0.01685
G1 X125.597 Y124.431 E0.85769
G1 X125.427 Y124.796 E0.01268
G1 X105.793 Y105.162 E0.87394
G1 X105.258 Y105.162 E0.01685
G1 X125.257 Y125.161 E0.89019
G1 X125.086 Y125.526 E0.01268
G1 X104.722 Y105.162 E0.90644
G1 X104.187 Y105.162 E0.01685
G1 X124.863 Y125.838 E0.92031
G1 X124.327 Y125.838 E0.01685
G1 X103.652 Y105.162 E0.92031
G1 X103.116 Y105.162 E0.01685
G1 X123.792 Y125.838 E0.92031
G1 X123.257 Y125.838 E0.01685
G1 X102.581 Y105.162 E0.92031
G1 X102.046 Y105.162 E0.01685
G1 X122.721 Y125.838 E0.92031
G1 X122.186 Y125.838 E0.01685
G1 X101.510 Y105.162 E0.92031
G1 X100.975 Y105.162 E0.01685
G1 X121.651 Y125.838 E0.92031
G1 X121.115 Y125.838 E0.01685
G1 X100.440 Y105.162 E0.92031
G1 X99.904 Y105.162 E0.01685
G1 X120.580 Y125.838 E0.92031
G1 X120.045 Y125.838 E0.01685
G1 X99.369 Y105.162 E0.92031
G1 X98.834 Y105.162 E0.01685
G1 X119.509 Y125.838 E0.92031
G1 X118.974 Y125.838 E0.01685
G1 X98.298 Y105.162 E0.92031
G1 X97.763 Y105.162 E0.01685
G1 X118.439 Y125.838 E0.92031
G1 X117.904 Y125.838 E0.01685
G1 X97.228 Y105.162 E0.92031
G1 X96.693 Y105.162 E0.01685
G1 X117.368 Y125.838 E0.92031
G1 X116.833 Y125.838 E0.01685
G1 X96.157 Y105.162 E0.92031
G1 X95.622 Y105.162 E0.01685
G1 X116.298 Y125.838 E0.92031
G1 X115.762 Y125.838 E0.01685
G1 X95.087 Y105.162 E0.92031
G1 X94.551 Y105.162 E0.01685
G1 X115.227 Y125.838 E0.92031
G1 X114.692 Y125.838 E0.01685
G1 X106.162 Y117.308 E0.37966
G1 X106.162 Y116.812 E0.01564
G1 X101.188 Y111.838 E0.22139
G1 X100.770 Y111.838 E0.01318
G1 X100.653 Y111.799 E0.00389
G1 X94.016 Y105.162 E0.29541
G1 X93.481 Y105.162 E0.01685
G1 X99.850 Y111.531 E0.28350
G1 X99.047 Y111.263 E0.02664
G1 X92.945 Y105.162 E0.27158
G1 X92.662 Y105.162 E0.00891
G1 X92.662 Y105.414 E0.00794
G1 X98.244 Y110.996 E0.24844
G1 X97.441 Y110.728 E0.02664
G1 X92.662 Y105.950 E0.21270
G1 X92.662 Y106.485 E0.01685
G1 X96.638 Y110.461 E0.17696
G1 X95.835 Y110.193 E0.02664
G1 X92.662 Y107.020 E0.14122
G1 X92.662 Y107.556 E0.01685
G1 X95.032 Y109.925 E0.10548
G1 X94.229 Y109.658 E0.02664
G1 X92.662 Y108.091 E0.06973
G1 X92.662 Y108.626 E0.01685
G1 X93.694 Y109.658 E0.04594
G1 E-3.50000 F3600.000
;WIPE_START
G1 F7200.000
G1 X92.662 Y108.626 E-0.69324
G1 X92.662 Y108.091 E-0.25428
G1 X93.373 Y108.802 E-0.47749
;WIPE_END
G1 E-0.07500 F3600.000
G1 X105.992 Y117.674 F9000.000
G1 E5.00000 F2400.000
G1 F600.000
G1 X114.156 Y125.838 E0.36339
G1 X113.621 Y125.838 E0.01685
G1 X106.162 Y118.379 E0.33201
G1 X106.162 Y118.914 E0.01685
G1 X113.086 Y125.838 E0.30818
G1 X112.550 Y125.838 E0.01685
G1 X106.162 Y119.450 E0.28435
G1 X106.162 Y119.985 E0.01685
G1 X112.015 Y125.838 E0.26052
G1 X111.480 Y125.838 E0.01685
G1 X106.162 Y120.520 E0.23670
G1 X106.162 Y121.056 E0.01685
G1 X110.944 Y125.838 E0.21287
G1 X110.409 Y125.838 E0.01685
G1 X106.474 Y121.903 E0.17516
G1 X106.942 Y122.906 E0.03483
G1 X109.874 Y125.838 E0.13052
G1 X109.338 Y125.838 E0.01685
G1 X107.409 Y123.909 E0.08587
G1 X107.877 Y124.912 E0.03483
G1 X108.973 Y126.008 E0.04878
M106 S84.15
;LAYER_CHANGE
;Z:0.4
;HEIGHT:0.2
;BEFORE_LAYER_CHANGE
G92 E0
;0.4


G1 E-3.50000 F3600.000
;WIPE_START
G1 F7200.000
G1 X107.877 Y124.912 E-0.73610
G1 X107.409 Y123.909 E-0.52570
G1 X107.652 Y124.152 E-0.16319
;WIPE_END
G1 E-0.07500 F3600.000
G1 Z0.400 F9000.000
;AFTER_LAYER_CHANGE
;0.4
M104 S195 ; set temperature
