; generated by PrusaSlicer 2.3.1+win64 on 2021-05-17 at 12:59:16 UTC

; 

; external perimeters extrusion width = 0.45mm
; perimeters extrusion width = 0.45mm
; infill extrusion width = 0.45mm
; solid infill extrusion width = 0.45mm
; top infill extrusion width = 0.40mm
; support material extrusion width = 0.38mm
; first layer extrusion width = 0.42mm

M201 X500 Y500 Z100 E5000 ; sets maximum accelerations, mm/sec^2
M203 X500 Y500 Z10 E60 ; sets maximum feedrates, mm/sec
M204 P500 R1000 T500 ; sets acceleration (P, T) and retract acceleration (R), mm/sec^2
M205 X8.00 Y8.00 Z0.40 E5.00 ; sets the jerk limits, mm/sec
M205 S0 T0 ; sets the minimum extruding and travel feed rate, mm/sec
M107
;TYPE:Custom
G90 ; use absolute coordinates
M83 ; extruder relative mode
M104 S120 ; set temporary nozzle temp to prevent oozing during homing and auto bed leveling
M140 S70 ; set final bed temp
G4 S10 ; allow partial nozzle warmup
G28 ; home all axis
G1 Z50 F240
G1 X2 Y10 F3000
M104 S200 ; set final nozzle temp
M190 S70 ; wait for bed temp to stabilize
M109 S200 ; wait for nozzle temp to stabilize
G1 Z0.28 F240
G92 E0
G1 Y140 E10 F1500 ; prime the nozzle
G1 X2.3 F5000
G92 E0
G1 Y10 E10 F1200 ; prime the nozzle
G92 E0
G21 ; set units to millimeters
G90 ; use absolute coordinates
M83 ; use relative distances for extrusion
; Filament gcode
;LAYER_CHANGE
;Z:0.2
;HEIGHT:0.2
;BEFORE_LAYER_CHANGE
G92 E0
;0.2


G1 E-5.00000 F3600.000
G1 Z0.200 F9000.000
;AFTER_LAYER_CHANGE
;0.2
G1 X27.604 Y22.314
G1 E5.00000 F2400.000
M204 S500
;TYPE:Skirt
;WIDTH:0.42
G1 F600.000
G1 X28.641 Y22.124 E0.03303
G1 X202.281 Y22.123 E5.44438
G1 X202.935 Y22.188 E0.02061
G1 X203.560 Y22.376 E0.02047
G1 X204.137 Y22.682 E0.02047
G1 X204.648 Y23.095 E0.02061
G1 X208.181 Y26.670 E0.15758
G1 X208.680 Y27.587 E0.03275
G1 X208.875 Y28.618 E0.03289
G1 X208.877 Y202.295 E5.44552
G1 X208.814 Y202.926 E0.01990
G1 X208.634 Y203.535 E0.01990
G1 X208.343 Y204.099 E0.01990
G1 X207.952 Y204.599 E0.01990
G1 X204.323 Y208.186 E0.16000
G1 X203.387 Y208.689 E0.03331
G1 X202.337 Y208.877 E0.03345
G1 X28.705 Y208.877 E5.44409
G1 X28.074 Y208.814 E0.01990
G1 X27.465 Y208.634 E0.01990
G1 X26.901 Y208.343 E0.01990
G1 X26.401 Y207.952 E0.01990
G1 X22.814 Y204.323 E0.16000
G1 X22.311 Y203.387 E0.03331
G1 X22.123 Y202.337 E0.03345
G1 X22.123 Y28.705 E5.44409
G1 X22.186 Y28.074 E0.01990
G1 X22.366 Y27.465 E0.01990
G1 X22.657 Y26.901 E0.01990
G1 X23.048 Y26.401 E0.01990
G1 X26.673 Y22.816 E0.15986
G1 X27.552 Y22.342 E0.03129
G1 E-3.50000 F3600.000
;WIPE_START
G1 F7200.000
G1 X28.641 Y22.124 E-0.52760
G1 X30.530 Y22.124 E-0.89740
;WIPE_END
G1 E-0.07500 F3600.000
G1 X113.879 Y113.879 F9000.000
G1 E5.00000 F2400.000
;TYPE:Perimeter
G1 F600.000
G1 X114.353 Y113.514 E0.01877
G1 X114.907 Y113.285 E0.01877
G1 X115.475 Y113.210 E0.01798
G1 X116.090 Y113.284 E0.01942
G1 X116.647 Y113.514 E0.01888
G1 X117.121 Y113.879 E0.01877
G1 X117.486 Y114.353 E0.01877
G1 X117.705 Y114.883 E0.01798
G1 X117.793 Y115.496 E0.01942
G1 X117.715 Y116.093 E0.01888
G1 X117.486 Y116.647 E0.01877
G1 X117.121 Y117.121 E0.01877
G1 X116.647 Y117.486 E0.01877
G1 X116.117 Y117.705 E0.01798
G1 X115.504 Y117.793 E0.01942
G1 X114.907 Y117.715 E0.01888
G1 X114.353 Y117.486 E0.01877
G1 X113.879 Y117.121 E0.01877
G1 X113.514 Y116.647 E0.01877
G1 X113.295 Y116.117 E0.01798
G1 X113.207 Y115.504 E0.01942
G1 X113.285 Y114.907 E0.01888
G1 X113.514 Y114.353 E0.01877
G1 X113.842 Y113.926 E0.01689
G1 X114.141 Y114.156 F9000.000
;TYPE:External perimeter
G1 F600.000
G1 X114.544 Y113.844 E0.01597
G1 X115.005 Y113.652 E0.01566
G1 X115.477 Y113.590 E0.01494
G1 X115.994 Y113.652 E0.01631
G1 X116.456 Y113.844 E0.01570
G1 X116.852 Y114.148 E0.01566
G1 X117.156 Y114.544 E0.01566
G1 X117.339 Y114.984 E0.01494
G1 X117.413 Y115.499 E0.01631
G1 X117.348 Y115.995 E0.01570
G1 X117.156 Y116.456 E0.01566
G1 X116.852 Y116.852 E0.01566
G1 X116.456 Y117.156 E0.01566
G1 X116.016 Y117.339 E0.01494
G1 X115.501 Y117.413 E0.01631
G1 X115.005 Y117.348 E0.01570
G1 X114.544 Y117.156 E0.01566
G1 X114.148 Y116.852 E0.01566
G1 X113.844 Y116.456 E0.01566
G1 X113.661 Y116.016 E0.01494
G1 X113.587 Y115.501 E0.01631
G1 X113.652 Y115.005 E0.01570
G1 X113.844 Y114.544 E0.01566
G1 X114.105 Y114.203 E0.01345
G1 X114.036 Y113.770 F9000.000
G1 E-3.50000 F3600.000
;WIPE_START
G1 F7200.000
G1 X114.544 Y113.844 E-0.26959
G1 X115.005 Y113.652 E-0.23717
G1 X115.477 Y113.590 E-0.22634
G1 X115.994 Y113.652 E-0.24706
G1 X116.456 Y113.844 E-0.23778
G1 X116.802 Y114.109 E-0.20705
;WIPE_END
G1 E-0.07500 F3600.000
G1 X115.500 Y97.443 F9000.000
G1 E5.00000 F2400.000
;TYPE:Perimeter
G1 F600.000
G1 X114.997 Y97.377 E0.01590
G1 X114.528 Y97.183 E0.01590
G1 X114.126 Y96.874 E0.01590
G1 X113.817 Y96.472 E0.01590
G1 X113.623 Y96.003 E0.01590
G1 X113.557 Y95.500 E0.01590
G1 X113.623 Y94.997 E0.01590
G1 X113.817 Y94.528 E0.01590
G1 X114.126 Y94.126 E0.01590
G1 X114.528 Y93.817 E0.01590
G1 X114.997 Y93.623 E0.01590
G1 X115.500 Y93.557 E0.01590
G1 X116.003 Y93.623 E0.01591
G1 X116.472 Y93.817 E0.01590
G1 X116.874 Y94.126 E0.01590
G1 X117.183 Y94.528 E0.01590
G1 X117.377 Y94.997 E0.01590
G1 X117.443 Y95.500 E0.01590
G1 X117.377 Y96.003 E0.01590
G1 X117.183 Y96.472 E0.01590
G1 X116.874 Y96.874 E0.01590
G1 X116.472 Y97.183 E0.01590
G1 X116.003 Y97.377 E0.01590
G1 X115.559 Y97.435 E0.01402
G1 X115.510 Y97.061 F9000.000
;TYPE:External perimeter
G1 F600.000
G1 X115.096 Y97.009 E0.01310
G1 X114.719 Y96.853 E0.01279
G1 X114.395 Y96.605 E0.01279
G1 X114.147 Y96.281 E0.01279
G1 X113.991 Y95.904 E0.01279
G1 X113.937 Y95.500 E0.01279
G1 X113.991 Y95.096 E0.01279
G1 X114.147 Y94.719 E0.01279
G1 X114.395 Y94.395 E0.01279
G1 X114.719 Y94.147 E0.01279
G1 X115.096 Y93.991 E0.01279
G1 X115.500 Y93.937 E0.01279
G1 X115.904 Y93.991 E0.01279
G1 X116.281 Y94.147 E0.01279
G1 X116.605 Y94.395 E0.01279
G1 X116.853 Y94.719 E0.01279
G1 X117.009 Y95.096 E0.01279
G1 X117.063 Y95.500 E0.01279
G1 X117.009 Y95.904 E0.01279
G1 X116.853 Y96.281 E0.01279
G1 X116.605 Y96.605 E0.01279
G1 X116.281 Y96.853 E0.01279
G1 X115.904 Y97.009 E0.01279
G1 X115.570 Y97.053 E0.01058
G1 X115.312 Y97.409 F9000.000
G1 E-3.50000 F3600.000
;WIPE_START
G1 F7200.000
G1 X115.096 Y97.009 E-0.22622
G1 X114.719 Y96.853 E-0.19377
G1 X114.395 Y96.605 E-0.19377
G1 X114.147 Y96.281 E-0.19377
G1 X113.991 Y95.904 E-0.19377
G1 X113.937 Y95.500 E-0.19377
G1 X113.991 Y95.096 E-0.19377
G1 X114.020 Y95.025 E-0.03616
;WIPE_END
G1 E-0.07500 F3600.000
G1 X124.813 Y100.215 F9000.000
G1 E5.00000 F2400.000
;TYPE:Perimeter
G1 F600.000
G1 X132.215 Y92.813 E0.32824
G1 X143.785 Y92.813 E0.36274
G1 X161.187 Y110.215 E0.77166
G1 X161.187 Y120.785 E0.33139
G1 X143.785 Y138.187 E0.77166
G1 X132.215 Y138.187 E0.36274
G1 X124.813 Y130.785 E0.32824
G1 X124.813 Y100.275 E0.95659
G1 X125.190 Y100.372 F9000.000
;TYPE:External perimeter
G1 F600.000
G1 X132.372 Y93.190 E0.31844
G1 X143.628 Y93.190 E0.35295
G1 X160.810 Y110.372 E0.76186
G1 X160.810 Y120.628 E0.32160
G1 X143.628 Y137.810 E0.76186
G1 X132.372 Y137.810 E0.35295
G1 X125.190 Y130.628 E0.31844
G1 X125.190 Y100.432 E0.94680
G1 X124.969 Y100.039 F9000.000
G1 E-3.50000 F3600.000
;WIPE_START
G1 F7200.000
G1 X127.302 Y98.301 E-1.42500
;WIPE_END
G1 E-0.07500 F3600.000
G1 X163.285 Y114.907 F9000.000
G1 E5.00000 F2400.000
;TYPE:Perimeter
G1 F600.000
G1 X163.514 Y114.353 E0.01877
G1 X163.879 Y113.879 E0.01877
G1 X164.353 Y113.514 E0.01877
G1 X164.907 Y113.285 E0.01877
G1 X165.475 Y113.210 E0.01798
G1 X166.090 Y113.284 E0.01942
G1 X166.647 Y113.514 E0.01888
G1 X167.121 Y113.879 E0.01877
G1 X167.486 Y114.353 E0.01877
G1 X167.715 Y114.907 E0.01877
G1 X167.793 Y115.500 E0.01877
G1 X167.715 Y116.093 E0.01877
G1 X167.486 Y116.647 E0.01877
G1 X167.121 Y117.121 E0.01877
G1 X166.647 Y117.486 E0.01877
G1 X166.117 Y117.705 E0.01798
G1 X165.504 Y117.793 E0.01942
G1 X164.907 Y117.715 E0.01888
G1 X164.353 Y117.486 E0.01877
G1 X163.879 Y117.121 E0.01877
G1 X163.514 Y116.647 E0.01877
G1 X163.285 Y116.093 E0.01877
G1 X163.207 Y115.500 E0.01877
G1 X163.277 Y114.966 E0.01689
G1 X163.651 Y115.015 F9000.000
;TYPE:External perimeter
G1 F600.000
G1 X163.844 Y114.544 E0.01597
G1 X164.148 Y114.148 E0.01566
G1 X164.544 Y113.844 E0.01566
G1 X165.005 Y113.652 E0.01566
G1 X165.477 Y113.590 E0.01494
G1 X165.994 Y113.652 E0.01631
G1 X166.456 Y113.844 E0.01570
G1 X166.852 Y114.148 E0.01566
G1 X167.156 Y114.544 E0.01566
G1 X167.348 Y115.005 E0.01566
G1 X167.413 Y115.500 E0.01566
G1 X167.348 Y115.995 E0.01566
G1 X167.156 Y116.456 E0.01566
G1 X166.852 Y116.852 E0.01566
G1 X166.456 Y117.156 E0.01566
G1 X166.016 Y117.339 E0.01494
G1 X165.501 Y117.413 E0.01631
G1 X165.005 Y117.348 E0.01570
G1 X164.544 Y117.156 E0.01566
G1 X164.148 Y116.852 E0.01566
G1 X163.844 Y116.456 E0.01566
G1 X163.652 Y115.995 E0.01566
G1 X163.587 Y115.500 E0.01566
G1 X163.643 Y115.075 E0.01345
G1 X163.367 Y114.734 F9000.000
G1 E-3.50000 F3600.000
;WIPE_START
G1 F7200.000
G1 X163.844 Y114.544 E-0.26959
G1 X164.148 Y114.148 E-0.23717
G1 X164.544 Y113.844 E-0.23717
G1 X165.005 Y113.652 E-0.23717
G1 X165.477 Y113.590 E-0.22634
G1 X165.932 Y113.645 E-0.21755
;WIPE_END
G1 E-0.07500 F3600.000
G1 X169.813 Y109.035 F9000.000
G1 E5.00000 F2400.000
;TYPE:Perimeter
G1 F600.000
G1 X169.679 Y108.901 E0.00593
G1 X169.044 Y108.817 E0.02008
G1 X168.153 Y108.448 E0.03023
G1 X167.389 Y107.861 E0.03023
G1 X166.802 Y107.097 E0.03023
G1 X166.433 Y106.206 E0.03023
G1 X166.307 Y105.250 E0.03023
G1 X166.433 Y104.294 E0.03023
G1 X166.802 Y103.403 E0.03023
G1 X167.389 Y102.639 E0.03023
G1 X168.153 Y102.052 E0.03023
G1 X169.044 Y101.683 E0.03023
G1 X169.955 Y101.563 E0.02880
G1 X181.045 Y101.563 E0.34772
G1 X181.956 Y101.683 E0.02880
G1 X182.847 Y102.052 E0.03023
G1 X183.611 Y102.639 E0.03023
G1 X184.198 Y103.403 E0.03023
G1 X184.567 Y104.294 E0.03023
G1 X184.693 Y105.250 E0.03023
G1 X184.567 Y106.206 E0.03023
G1 X184.198 Y107.097 E0.03023
G1 X183.611 Y107.861 E0.03023
G1 X182.847 Y108.448 E0.03023
G1 X181.956 Y108.817 E0.03023
G1 X181.321 Y108.901 E0.02008
G1 X181.187 Y109.035 E0.00593
G1 X181.187 Y121.965 E0.40544
G1 X181.321 Y122.099 E0.00593
G1 X181.956 Y122.183 E0.02008
G1 X182.847 Y122.552 E0.03023
G1 X183.611 Y123.139 E0.03023
G1 X184.198 Y123.903 E0.03023
G1 X184.567 Y124.794 E0.03023
G1 X184.693 Y125.750 E0.03023
G1 X184.567 Y126.706 E0.03023
G1 X184.198 Y127.597 E0.03023
G1 X183.611 Y128.361 E0.03023
G1 X182.847 Y128.948 E0.03023
G1 X181.956 Y129.317 E0.03023
G1 X181.045 Y129.437 E0.02880
G1 X169.955 Y129.437 E0.34772
G1 X169.044 Y129.317 E0.02880
G1 X168.153 Y128.948 E0.03023
G1 X167.389 Y128.361 E0.03023
G1 X166.802 Y127.597 E0.03023
G1 X166.433 Y126.706 E0.03023
G1 X166.307 Y125.750 E0.03023
G1 X166.433 Y124.794 E0.03023
G1 X166.802 Y123.903 E0.03023
G1 X167.389 Y123.139 E0.03023
G1 X168.153 Y122.552 E0.03023
G1 X169.044 Y122.183 E0.03023
G1 X169.679 Y122.099 E0.02008
G1 X169.813 Y121.965 E0.00593
G1 X169.813 Y109.095 E0.40356
G1 X170.190 Y108.878 F9000.000
;TYPE:External perimeter
G1 F600.000
G1 X169.855 Y108.544 E0.01485
G1 X169.143 Y108.450 E0.02254
G1 X168.344 Y108.119 E0.02711
G1 X167.658 Y107.592 E0.02711
G1 X167.131 Y106.906 E0.02711
G1 X166.800 Y106.107 E0.02711
G1 X166.687 Y105.250 E0.02711
G1 X166.800 Y104.393 E0.02711
G1 X167.131 Y103.594 E0.02711
G1 X167.658 Y102.908 E0.02711
G1 X168.344 Y102.381 E0.02711
G1 X169.143 Y102.050 E0.02711
G1 X169.980 Y101.940 E0.02647
G1 X181.020 Y101.940 E0.34617
G1 X181.857 Y102.050 E0.02647
G1 X182.656 Y102.381 E0.02711
G1 X183.342 Y102.908 E0.02711
G1 X183.869 Y103.594 E0.02711
G1 X184.200 Y104.393 E0.02711
G1 X184.313 Y105.250 E0.02711
G1 X184.200 Y106.107 E0.02711
G1 X183.869 Y106.906 E0.02711
G1 X183.342 Y107.592 E0.02711
G1 X182.656 Y108.119 E0.02711
G1 X181.857 Y108.450 E0.02711
G1 X181.145 Y108.544 E0.02254
G1 X180.810 Y108.878 E0.01485
G1 X180.810 Y122.122 E0.41523
G1 X181.145 Y122.456 E0.01485
G1 X181.857 Y122.550 E0.02254
G1 X182.656 Y122.881 E0.02711
G1 X183.342 Y123.408 E0.02711
G1 X183.869 Y124.094 E0.02711
G1 X184.200 Y124.893 E0.02711
G1 X184.313 Y125.750 E0.02711
G1 X184.200 Y126.607 E0.02711
G1 X183.869 Y127.406 E0.02711
G1 X183.342 Y128.092 E0.02711
G1 X182.656 Y128.619 E0.02711
G1 X181.857 Y128.950 E0.02711
G1 X181.020 Y129.060 E0.02647
G1 X169.980 Y129.060 E0.34617
G1 X169.143 Y128.950 E0.02647
G1 X168.344 Y128.619 E0.02711
G1 X167.658 Y128.092 E0.02711
G1 X167.131 Y127.406 E0.02711
G1 X166.800 Y126.607 E0.02711
G1 X166.687 Y125.750 E0.02711
G1 X166.800 Y124.893 E0.02711
G1 X167.131 Y124.094 E0.02711
G1 X167.658 Y123.408 E0.02711
G1 X168.344 Y122.881 E0.02711
G1 X169.143 Y122.550 E0.02711
G1 X169.855 Y122.456 E0.02254
G1 X170.190 Y122.122 E0.01485
G1 X170.190 Y108.938 E0.41335
G1 X169.790 Y108.875 F9000.000
G1 E-3.50000 F3600.000
;WIPE_START
G1 F7200.000
G1 X169.855 Y108.544 E-0.24588
G1 X169.143 Y108.450 E-0.34140
G1 X168.344 Y108.119 E-0.41077
G1 X167.658 Y107.592 E-0.41077
G1 X167.637 Y107.565 E-0.01618
;WIPE_END
G1 E-0.07500 F3600.000
G1 X183.505 Y114.377 F9000.000
G1 E5.00000 F2400.000
;TYPE:Perimeter
G1 F600.000
G1 X183.876 Y113.881 E0.01942
G1 X184.353 Y113.514 E0.01888
G1 X184.907 Y113.285 E0.01877
G1 X185.475 Y113.210 E0.01798
G1 X186.090 Y113.284 E0.01942
G1 X186.647 Y113.514 E0.01888
G1 X187.121 Y113.879 E0.01877
G1 X187.486 Y114.353 E0.01877
G1 X187.715 Y114.907 E0.01877
G1 X187.793 Y115.500 E0.01877
G1 X187.715 Y116.093 E0.01877
G1 X187.495 Y116.623 E0.01798
G1 X187.124 Y117.119 E0.01942
G1 X186.647 Y117.486 E0.01888
G1 X186.117 Y117.705 E0.01798
G1 X185.504 Y117.793 E0.01942
G1 X184.907 Y117.715 E0.01888
G1 X184.353 Y117.486 E0.01877
G1 X183.879 Y117.121 E0.01877
G1 X183.514 Y116.647 E0.01877
G1 X183.285 Y116.093 E0.01877
G1 X183.207 Y115.500 E0.01877
G1 X183.285 Y114.907 E0.01877
G1 X183.482 Y114.432 E0.01610
G1 X183.830 Y114.576 F9000.000
;TYPE:External perimeter
G1 F600.000
G1 X184.147 Y114.148 E0.01669
G1 X184.544 Y113.844 E0.01570
G1 X185.005 Y113.652 E0.01566
G1 X185.477 Y113.590 E0.01494
G1 X185.994 Y113.652 E0.01631
G1 X186.456 Y113.844 E0.01570
G1 X186.852 Y114.148 E0.01566
G1 X187.156 Y114.544 E0.01566
G1 X187.347 Y115.005 E0.01566
G1 X187.413 Y115.500 E0.01566
G1 X187.347 Y115.995 E0.01566
G1 X187.165 Y116.435 E0.01494
G1 X186.853 Y116.852 E0.01631
G1 X186.456 Y117.156 E0.01570
G1 X186.016 Y117.339 E0.01494
G1 X185.501 Y117.413 E0.01631
G1 X185.005 Y117.348 E0.01570
G1 X184.544 Y117.156 E0.01566
G1 X184.148 Y116.852 E0.01566
G1 X183.844 Y116.456 E0.01566
G1 X183.653 Y115.995 E0.01566
G1 X183.587 Y115.500 E0.01566
G1 X183.653 Y115.005 E0.01566
G1 X183.807 Y114.632 E0.01266
G1 X183.625 Y114.233 F9000.000
G1 E-3.50000 F3600.000
;WIPE_START
G1 F7200.000
G1 X184.147 Y114.148 E-0.28063
G1 X184.544 Y113.844 E-0.23778
G1 X185.005 Y113.652 E-0.23717
G1 X185.477 Y113.590 E-0.22634
G1 X185.994 Y113.652 E-0.24706
G1 X186.375 Y113.810 E-0.19601
;WIPE_END
G1 E-0.07500 F3600.000
G1 X193.207 Y115.500 F9000.000
G1 E5.00000 F2400.000
;TYPE:Perimeter
G1 F600.000
G1 X193.285 Y114.907 E0.01877
G1 X193.505 Y114.377 E0.01798
G1 X193.876 Y113.881 E0.01942
G1 X194.353 Y113.514 E0.01888
G1 X194.907 Y113.285 E0.01877
G1 X195.475 Y113.210 E0.01798
G1 X196.090 Y113.284 E0.01942
G1 X196.647 Y113.514 E0.01888
G1 X197.121 Y113.879 E0.01877
G1 X197.486 Y114.353 E0.01877
G1 X197.715 Y114.907 E0.01877
G1 X197.793 Y115.500 E0.01877
G1 X197.715 Y116.093 E0.01877
G1 X197.495 Y116.623 E0.01798
G1 X197.124 Y117.119 E0.01942
G1 X196.647 Y117.486 E0.01888
G1 X196.117 Y117.705 E0.01798
G1 X195.504 Y117.793 E0.01942
G1 X194.907 Y117.715 E0.01888
G1 X194.353 Y117.486 E0.01877
G1 X193.879 Y117.121 E0.01877
G1 X193.514 Y116.647 E0.01877
G1 X193.285 Y116.093 E0.01877
G1 X193.215 Y115.559 E0.01689
G1 X193.589 Y115.510 F9000.000
;TYPE:External perimeter
G1 F600.000
G1 X193.653 Y115.005 E0.01597
G1 X193.835 Y114.565 E0.01494
G1 X194.147 Y114.148 E0.01631
G1 X194.544 Y113.844 E0.01570
G1 X195.005 Y113.652 E0.01566
G1 X195.477 Y113.590 E0.01494
G1 X195.994 Y113.652 E0.01631
G1 X196.456 Y113.844 E0.01570
G1 X196.852 Y114.148 E0.01566
G1 X197.156 Y114.544 E0.01566
G1 X197.347 Y115.005 E0.01566
G1 X197.413 Y115.500 E0.01566
G1 X197.347 Y115.995 E0.01566
