; generated by PrusaSlicer 2.3.1+win64 on 2021-05-16 at 17:16:45 UTC

; 

; external perimeters extrusion width = 0.45mm
; perimeters extrusion width = 0.45mm
; infill extrusion width = 0.45mm
; solid infill extrusion width = 0.45mm
; top infill extrusion width = 0.40mm
; support material extrusion width = 0.38mm
; first layer extrusion width = 0.42mm

M201 X500 Y500 Z100 E5000 ; sets maximum accelerations, mm/sec^2
M203 X500 Y500 Z10 E60 ; sets maximum feedrates, mm/sec
M204 P500 R1000 T500 ; sets acceleration (P, T) and retract acceleration (R), mm/sec^2
M205 X8.00 Y8.00 Z0.40 E5.00 ; sets the jerk limits, mm/sec
M205 S0 T0 ; sets the minimum extruding and travel feed rate, mm/sec
M107
;TYPE:Custom
G90 ; use absolute coordinates
M83 ; extruder relative mode
M104 S120 ; set temporary nozzle temp to prevent oozing during homing and auto bed leveling
M140 S70 ; set final bed temp
G4 S10 ; allow partial nozzle warmup
G28 ; home all axis
G1 Z50 F240
G1 X2 Y10 F3000
M104 S200 ; set final nozzle temp
M190 S70 ; wait for bed temp to stabilize
M109 S200 ; wait for nozzle temp to stabilize
G1 Z0.28 F240
G92 E0
G1 Y140 E10 F1500 ; prime the nozzle
G1 X2.3 F5000
G92 E0
G1 Y10 E10 F1200 ; prime the nozzle
G92 E0
G21 ; set units to millimeters
G90 ; use absolute coordinates
M83 ; use relative distances for extrusion
; Filament gcode
;LAYER_CHANGE
;Z:0.2
;HEIGHT:0.2
;BEFORE_LAYER_CHANGE
G92 E0
;0.2


G1 E-5.00000 F3600.000
G1 Z0.200 F9000.000
;AFTER_LAYER_CHANGE
;0.2
G1 X87.499 Y91.238
G1 E5.00000 F2400.000
M204 S500
;TYPE:Skirt
;WIDTH:0.42
G1 F600.000
G1 X88.143 Y90.745 E0.02542
G1 X96.392 Y86.031 E0.29789
G1 X96.945 Y85.792 E0.01891
G1 X97.537 Y85.655 E0.01905
G1 X132.005 Y85.623 E1.08070
G1 X132.761 Y85.710 E0.02386
G1 X133.478 Y85.964 E0.02386
G1 X142.745 Y90.852 E0.32851
G1 X143.494 Y91.400 E0.02909
G1 X144.066 Y92.136 E0.02923
G1 X144.387 Y92.890 E0.02570
G1 X144.516 Y93.700 E0.02570
G1 X144.518 Y104.641 E0.34305
G1 X144.387 Y105.559 E0.02909
G1 X144.011 Y106.407 E0.02909
G1 X143.540 Y107.005 E0.02386
G1 X106.089 Y144.653 E1.66500
G1 X105.140 Y145.179 E0.03402
G1 X104.069 Y145.376 E0.03416
G1 X96.805 Y145.371 E0.22776
G1 X95.981 Y145.220 E0.02627
G1 X95.220 Y144.870 E0.02627
G1 X94.648 Y144.424 E0.02273
G1 X91.427 Y141.188 E0.14315
G1 X90.929 Y140.405 E0.02909
G1 X90.663 Y139.516 E0.02909
G1 X86.492 Y104.719 E1.09885
G1 X86.484 Y93.522 E0.35108
G1 X86.629 Y92.665 E0.02726
G1 X86.989 Y91.874 E0.02726
G1 X87.461 Y91.285 E0.02368
G1 E-3.50000 F3600.000
;WIPE_START
G1 F7200.000
G1 X88.143 Y90.745 E-0.41282
G1 X89.993 Y89.688 E-1.01218
;WIPE_END
G1 E-0.07500 F3600.000
G1 X89.859 Y93.654 F9000.000
G1 E5.00000 F2400.000
;TYPE:Support material
G1 F600.000
G1 X89.859 Y104.457 E0.33874
G1 X90.613 Y104.457 E0.02365
G1 X90.613 Y93.823 E0.33342
G1 X91.367 Y93.823 E0.02365
G1 X91.367 Y104.457 E0.33342
G1 X92.121 Y104.457 E0.02365
G1 X92.121 Y93.823 E0.33342
G1 X92.875 Y93.823 E0.02365
G1 X92.875 Y104.627 E0.33874
G1 E-3.50000 F3600.000
;WIPE_START
G1 F7200.000
G1 X92.875 Y101.627 E-1.42500
;WIPE_END
G1 E-0.07500 F3600.000
G1 X138.125 Y93.654 F9000.000
G1 E5.00000 F2400.000
G1 F600.000
G1 X138.125 Y104.457 E0.33874
G1 X138.879 Y104.457 E0.02365
G1 X138.879 Y93.823 E0.33342
G1 X139.633 Y93.823 E0.02365
G1 X139.633 Y104.457 E0.33342
G1 X140.387 Y104.457 E0.02365
G1 X140.387 Y93.823 E0.33342
G1 X141.141 Y93.823 E0.02365
G1 X141.141 Y104.627 E0.33874
G1 E-3.50000 F3600.000
;WIPE_START
G1 F7200.000
G1 X141.141 Y101.627 E-1.42500
;WIPE_END
G1 E-0.07500 F3600.000
G1 X132.827 Y106.448 F9000.000
G1 E5.00000 F2400.000
;TYPE:Perimeter
G1 F600.000
G1 X132.892 Y107.000 E0.01741
G1 X132.827 Y107.552 E0.01741
G1 X132.637 Y108.073 E0.01741
G1 X132.332 Y108.537 E0.01741
G1 X131.928 Y108.918 E0.01741
G1 X131.447 Y109.196 E0.01741
G1 X130.915 Y109.355 E0.01741
G1 X130.361 Y109.388 E0.01741
G1 X129.814 Y109.291 E0.01741
G1 X129.304 Y109.071 E0.01741
G1 X128.859 Y108.740 E0.01741
G1 X128.502 Y108.314 E0.01741
G1 X128.252 Y107.818 E0.01741
G1 X128.124 Y107.278 E0.01741
G1 X128.124 Y106.722 E0.01741
G1 X128.252 Y106.182 E0.01741
G1 X128.502 Y105.686 E0.01741
G1 X128.859 Y105.260 E0.01741
G1 X129.304 Y104.929 E0.01741
G1 X129.814 Y104.709 E0.01741
G1 X130.361 Y104.612 E0.01741
G1 X130.915 Y104.645 E0.01741
G1 X131.447 Y104.804 E0.01741
G1 X131.928 Y105.082 E0.01741
G1 X132.332 Y105.463 E0.01741
G1 X132.637 Y105.927 E0.01741
G1 X132.807 Y106.392 E0.01553
G1 X132.452 Y106.521 F9000.000
;TYPE:External perimeter
G1 F600.000
G1 X132.512 Y107.000 E0.01513
G1 X132.458 Y107.464 E0.01465
G1 X132.298 Y107.903 E0.01465
G1 X132.041 Y108.293 E0.01465
G1 X131.702 Y108.614 E0.01465
G1 X131.297 Y108.848 E0.01465
G1 X130.849 Y108.982 E0.01465
G1 X130.383 Y109.009 E0.01465
G1 X129.923 Y108.928 E0.01465
G1 X129.494 Y108.743 E0.01465
G1 X129.119 Y108.464 E0.01465
G1 X128.819 Y108.106 E0.01465
G1 X128.609 Y107.688 E0.01465
G1 X128.501 Y107.234 E0.01465
G1 X128.501 Y106.766 E0.01465
G1 X128.609 Y106.312 E0.01465
G1 X128.819 Y105.894 E0.01465
G1 X129.119 Y105.536 E0.01465
G1 X129.494 Y105.257 E0.01465
G1 X129.923 Y105.072 E0.01465
G1 X130.383 Y104.991 E0.01465
G1 X130.849 Y105.018 E0.01465
G1 X131.297 Y105.152 E0.01465
G1 X131.702 Y105.386 E0.01465
G1 X132.041 Y105.707 E0.01465
G1 X132.298 Y106.097 E0.01465
G1 X132.432 Y106.465 E0.01227
G1 X132.836 Y106.634 F9000.000
G1 E-3.50000 F3600.000
;WIPE_START
G1 F7200.000
G1 X132.512 Y107.000 E-0.25714
G1 X132.458 Y107.464 E-0.22191
G1 X132.298 Y107.903 E-0.22191
G1 X132.041 Y108.293 E-0.22191
G1 X131.702 Y108.614 E-0.22191
G1 X131.297 Y108.848 E-0.22191
G1 X131.179 Y108.883 E-0.05830
;WIPE_END
G1 E-0.07500 F3600.000
G1 X101.892 Y107.000 F9000.000
G1 E5.00000 F2400.000
;TYPE:Perimeter
G1 F600.000
G1 X101.827 Y107.552 E0.01741
G1 X101.637 Y108.073 E0.01741
G1 X101.332 Y108.537 E0.01741
G1 X100.928 Y108.918 E0.01741
G1 X100.447 Y109.196 E0.01741
G1 X99.915 Y109.355 E0.01741
G1 X99.361 Y109.388 E0.01741
G1 X98.814 Y109.291 E0.01741
G1 X98.304 Y109.071 E0.01741
G1 X97.859 Y108.740 E0.01741
G1 X97.502 Y108.314 E0.01741
G1 X97.252 Y107.818 E0.01741
G1 X97.124 Y107.278 E0.01741
G1 X97.124 Y106.722 E0.01741
G1 X97.252 Y106.182 E0.01741
G1 X97.502 Y105.686 E0.01741
G1 X97.859 Y105.260 E0.01741
G1 X98.304 Y104.929 E0.01741
G1 X98.814 Y104.709 E0.01741
G1 X99.361 Y104.612 E0.01741
G1 X99.915 Y104.645 E0.01741
G1 X100.447 Y104.804 E0.01741
G1 X100.928 Y105.082 E0.01741
G1 X101.332 Y105.463 E0.01741
G1 X101.637 Y105.927 E0.01741
G1 X101.827 Y106.448 E0.01741
G1 X101.885 Y106.940 E0.01553
G1 X101.510 Y106.984 F9000.000
;TYPE:External perimeter
G1 F600.000
G1 X101.458 Y107.464 E0.01513
G1 X101.298 Y107.903 E0.01465
G1 X101.041 Y108.293 E0.01465
G1 X100.702 Y108.614 E0.01465
G1 X100.297 Y108.848 E0.01465
G1 X99.849 Y108.982 E0.01465
G1 X99.383 Y109.009 E0.01465
G1 X98.923 Y108.928 E0.01465
G1 X98.494 Y108.743 E0.01465
G1 X98.119 Y108.464 E0.01465
G1 X97.819 Y108.106 E0.01465
G1 X97.609 Y107.688 E0.01465
G1 X97.501 Y107.234 E0.01465
G1 X97.501 Y106.766 E0.01465
G1 X97.609 Y106.312 E0.01465
G1 X97.819 Y105.894 E0.01465
G1 X98.119 Y105.536 E0.01465
G1 X98.494 Y105.257 E0.01465
G1 X98.923 Y105.072 E0.01465
G1 X99.383 Y104.991 E0.01465
G1 X99.849 Y105.018 E0.01465
G1 X100.297 Y105.152 E0.01465
G1 X100.702 Y105.386 E0.01465
G1 X101.041 Y105.707 E0.01465
G1 X101.298 Y106.097 E0.01465
G1 X101.458 Y106.536 E0.01465
G1 X101.503 Y106.925 E0.01227
G1 X101.858 Y107.182 F9000.000
G1 E-3.50000 F3600.000
;WIPE_START
G1 F7200.000
G1 X101.458 Y107.464 E-0.25714
G1 X101.298 Y107.903 E-0.22191
G1 X101.041 Y108.293 E-0.22191
G1 X100.702 Y108.614 E-0.22191
G1 X100.297 Y108.848 E-0.22191
G1 X99.849 Y108.982 E-0.22191
G1 X99.727 Y108.989 E-0.05830
;WIPE_END
G1 E-0.07500 F3600.000
G1 X99.915 Y135.645 F9000.000
G1 E5.00000 F2400.000
;TYPE:Perimeter
G1 F600.000
G1 X100.447 Y135.804 E0.01741
G1 X100.928 Y136.082 E0.01741
G1 X101.332 Y136.463 E0.01741
G1 X101.637 Y136.927 E0.01741
G1 X101.827 Y137.448 E0.01741
G1 X101.892 Y138.000 E0.01741
G1 X101.827 Y138.552 E0.01741
G1 X101.637 Y139.073 E0.01741
G1 X101.332 Y139.537 E0.01741
G1 X100.928 Y139.918 E0.01741
G1 X100.447 Y140.196 E0.01741
G1 X99.915 Y140.355 E0.01741
G1 X99.361 Y140.388 E0.01741
G1 X98.814 Y140.291 E0.01741
G1 X98.304 Y140.071 E0.01741
G1 X97.859 Y139.740 E0.01741
G1 X97.502 Y139.314 E0.01741
G1 X97.252 Y138.818 E0.01741
G1 X97.124 Y138.278 E0.01741
G1 X97.124 Y137.722 E0.01741
G1 X97.252 Y137.182 E0.01741
G1 X97.502 Y136.686 E0.01741
G1 X97.859 Y136.260 E0.01741
G1 X98.304 Y135.929 E0.01741
G1 X98.814 Y135.709 E0.01741
G1 X99.361 Y135.612 E0.01741
G1 X99.855 Y135.641 E0.01553
G1 X99.834 Y136.018 F9000.000
;TYPE:External perimeter
G1 F600.000
G1 X100.297 Y136.152 E0.01513
G1 X100.702 Y136.386 E0.01465
G1 X101.041 Y136.707 E0.01465
G1 X101.298 Y137.097 E0.01465
G1 X101.458 Y137.536 E0.01465
G1 X101.512 Y138.000 E0.01465
G1 X101.458 Y138.464 E0.01465
G1 X101.298 Y138.903 E0.01465
G1 X101.041 Y139.293 E0.01465
G1 X100.702 Y139.614 E0.01465
G1 X100.297 Y139.848 E0.01465
G1 X99.849 Y139.982 E0.01465
G1 X99.383 Y140.009 E0.01465
G1 X98.923 Y139.928 E0.01465
G1 X98.494 Y139.743 E0.01465
G1 X98.119 Y139.464 E0.01465
G1 X97.819 Y139.106 E0.01465
G1 X97.609 Y138.688 E0.01465
G1 X97.501 Y138.234 E0.01465
G1 X97.501 Y137.766 E0.01465
G1 X97.609 Y137.312 E0.01465
G1 X97.819 Y136.894 E0.01465
G1 X98.119 Y136.536 E0.01465
G1 X98.494 Y136.257 E0.01465
G1 X98.923 Y136.072 E0.01465
G1 X99.383 Y135.991 E0.01465
G1 X99.774 Y136.014 E0.01227
G1 X100.089 Y135.710 F9000.000
G1 E-3.50000 F3600.000
;WIPE_START
G1 F7200.000
G1 X100.297 Y136.152 E-0.25714
G1 X100.702 Y136.386 E-0.22191
G1 X101.041 Y136.707 E-0.22191
G1 X101.298 Y137.097 E-0.22191
G1 X101.458 Y137.536 E-0.22191
G1 X101.512 Y138.000 E-0.22191
G1 X101.498 Y138.122 E-0.05830
;WIPE_END
G1 E-0.07500 F3600.000
G1 X94.687 Y138.715 F9000.000
G1 E5.00000 F2400.000
;TYPE:Perimeter
G1 F600.000
G1 X94.687 Y93.285 E1.42445
G1 X98.285 Y89.687 E0.15952
G1 X131.715 Y89.687 E1.04820
G1 X136.313 Y94.285 E0.20386
G1 X136.313 Y107.715 E0.42111
G1 X130.715 Y113.313 E0.24820
G1 X122.609 Y113.313 E0.25418
G1 X121.977 Y112.813 E0.02527
G1 X121.076 Y112.224 E0.03373
G1 X120.127 Y111.719 E0.03373
G1 X119.135 Y111.301 E0.03373
G1 X118.110 Y110.975 E0.03373
G1 X117.060 Y110.741 E0.03373
G1 X115.993 Y110.604 E0.03373
G1 X114.918 Y110.563 E0.03373
G1 X113.844 Y110.618 E0.03373
G1 X112.779 Y110.771 E0.03373
G1 X111.732 Y111.018 E0.03373
G1 X110.712 Y111.359 E0.03373
G1 X109.727 Y111.790 E0.03373
G1 X108.784 Y112.308 E0.03373
G1 X107.892 Y112.909 E0.03373
G1 X107.057 Y113.588 E0.03373
G1 X106.287 Y114.339 E0.03373
G1 X105.588 Y115.157 E0.03373
G1 X104.965 Y116.034 E0.03373
G1 X104.424 Y116.963 E0.03373
G1 X103.968 Y117.938 E0.03373
G1 X103.602 Y118.950 E0.03373
G1 X103.329 Y119.990 E0.03373
G1 X103.151 Y121.051 E0.03373
G1 X103.068 Y122.123 E0.03373
G1 X103.083 Y123.199 E0.03373
G1 X103.194 Y124.269 E0.03373
G1 X103.401 Y125.325 E0.03373
G1 X103.703 Y126.357 E0.03373
G1 X104.096 Y127.359 E0.03373
G1 X104.577 Y128.320 E0.03373
G1 X105.144 Y129.235 E0.03373
G1 X105.790 Y130.095 E0.03373
G1 X106.313 Y130.674 E0.02447
G1 X106.313 Y138.715 E0.25213
G1 X103.715 Y141.313 E0.11518
G1 X97.285 Y141.313 E0.20163
G1 X94.730 Y138.758 E0.11330
G1 X94.310 Y138.872 F9000.000
;TYPE:External perimeter
G1 F600.000
G1 X94.310 Y93.128 E1.43425
G1 X98.128 Y89.310 E0.16931
G1 X131.872 Y89.310 E1.05799
G1 X136.690 Y94.128 E0.21366
G1 X136.690 Y107.872 E0.43091
G1 X130.872 Y113.690 E0.25800
G1 X122.477 Y113.690 E0.26319
G1 X121.756 Y113.119 E0.02884
G1 X120.884 Y112.549 E0.03266
G1 X119.964 Y112.060 E0.03266
G1 X119.004 Y111.655 E0.03266
G1 X118.012 Y111.339 E0.03266
G1 X116.995 Y111.113 E0.03266
G1 X115.962 Y110.980 E0.03266
G1 X114.921 Y110.940 E0.03266
G1 X113.881 Y110.994 E0.03266
G1 X112.849 Y111.141 E0.03266
G1 X111.836 Y111.381 E0.03266
G1 X110.848 Y111.711 E0.03266
G1 X109.893 Y112.129 E0.03266
G1 X108.980 Y112.631 E0.03266
G1 X108.116 Y113.213 E0.03266
G1 X107.308 Y113.870 E0.03266
G1 X106.563 Y114.597 E0.03266
G1 X105.886 Y115.389 E0.03266
G1 X105.282 Y116.238 E0.03266
G1 X104.758 Y117.139 E0.03266
G1 X104.317 Y118.082 E0.03266
G1 X103.963 Y119.062 E0.03266
G1 X103.698 Y120.069 E0.03266
G1 X103.525 Y121.097 E0.03266
G1 X103.445 Y122.135 E0.03266
G1 X103.460 Y123.177 E0.03266
G1 X103.567 Y124.213 E0.03266
G1 X103.768 Y125.235 E0.03266
G1 X104.060 Y126.235 E0.03266
G1 X104.440 Y127.205 E0.03266
G1 X104.907 Y128.136 E0.03266
G1 X105.455 Y129.022 E0.03266
G1 X106.081 Y129.855 E0.03266
G1 X106.690 Y130.529 E0.02848
G1 X106.690 Y138.872 E0.26158
G1 X103.872 Y141.690 E0.12497
G1 X97.128 Y141.690 E0.21143
G1 X94.352 Y138.914 E0.12309
G1 X94.542 Y138.546 F9000.000
G1 E-3.50000 F3600.000
;WIPE_START
G1 F7200.000
G1 X94.350 Y135.914 E-1.42500
;WIPE_END
G1 E-0.07500 F3600.000
G1 X136.200 Y94.573 F9000.000
G1 E5.00000 F2400.000
;TYPE:Solid infill
;WIDTH:0.422062
G1 F600.000
G1 X131.597 Y89.970 E0.20522
G1 X131.061 Y89.970 E0.01690
G1 X136.030 Y94.939 E0.22156
G1 X136.030 Y95.476 E0.01690
G1 X130.524 Y89.970 E0.24547
G1 X129.988 Y89.970 E0.01690
G1 X136.030 Y96.012 E0.26938
G1 X136.030 Y96.548 E0.01690
G1 X129.452 Y89.970 E0.29328
G1 X128.916 Y89.970 E0.01690
G1 X136.030 Y97.084 E0.31719
G1 X136.030 Y97.620 E0.01690
G1 X128.380 Y89.970 E0.34109
G1 X127.843 Y89.970 E0.01690
G1 X136.030 Y98.157 E0.36500
G1 X136.030 Y98.693 E0.01690
G1 X127.307 Y89.970 E0.38890
G1 X126.771 Y89.970 E0.01690
G1 X136.030 Y99.229 E0.41281
G1 X136.030 Y99.765 E0.01690
G1 X126.235 Y89.970 E0.43671
G1 X125.699 Y89.970 E0.01690
G1 X136.030 Y100.301 E0.46062
G1 X136.030 Y100.838 E0.01690
G1 X125.162 Y89.970 E0.48453
G1 X124.626 Y89.970 E0.01690
G1 X136.030 Y101.374 E0.50843
G1 X136.030 Y101.910 E0.01690
G1 X124.090 Y89.970 E0.53234
G1 X123.554 Y89.970 E0.01690
G1 X136.030 Y102.446 E0.55624
G1 X136.030 Y102.982 E0.01690
G1 X123.018 Y89.970 E0.58015
G1 X122.482 Y89.970 E0.01690
G1 X136.030 Y103.518 E0.60405
G1 X136.030 Y104.055 E0.01690
G1 X121.945 Y89.970 E0.62796
G1 X121.409 Y89.970 E0.01690
G1 X136.030 Y104.591 E0.65186
G1 X136.030 Y105.127 E0.01690
G1 X120.873 Y89.970 E0.67577
G1 X120.337 Y89.970 E0.01690
G1 X136.030 Y105.663 E0.69967
G1 X136.030 Y106.199 E0.01690
G1 X119.801 Y89.970 E0.72358
G1 X119.264 Y89.970 E0.01690
G1 X136.030 Y106.736 E0.74749
G1 X136.030 Y107.272 E0.01690
G1 X118.728 Y89.970 E0.77139
G1 X118.192 Y89.970 E0.01690
G1 X135.925 Y107.703 E0.79062
G1 X135.657 Y107.971 E0.01195
G1 X117.656 Y89.970 E0.80257
G1 X117.120 Y89.970 E0.01690
G1 X135.389 Y108.239 E0.81453
G1 X135.121 Y108.507 E0.01195
G1 X133.119 Y106.505 E0.08927
G1 X133.176 Y107.000 E0.01571
G1 X133.166 Y107.089 E0.00282
G1 X134.853 Y108.775 E0.07520
G1 X134.585 Y109.044 E0.01195
G1 X133.110 Y107.569 E0.06575
G1 X132.976 Y107.971 E0.01336
G1 X134.317 Y109.312 E0.05979
G1 X134.049 Y109.580 E0.01195
G1 X132.804 Y108.335 E0.05550
G1 X132.591 Y108.658 E0.01220
G1 X133.781 Y109.848 E0.05303
G1 X133.512 Y110.116 E0.01195
G1 X132.327 Y108.931 E0.05284
G1 X132.098 Y109.147 E0.00993
G1 X132.041 Y109.180 E0.00210
G1 X133.244 Y110.384 E0.05367
G1 X132.976 Y110.652 E0.01195
G1 X131.701 Y109.376 E0.05687
G1 X131.560 Y109.458 E0.00511
G1 X131.318 Y109.530 E0.00797
G1 X132.708 Y110.920 E0.06198
G1 X132.440 Y111.188 E0.01195
G1 X130.892 Y109.640 E0.06903
G1 X130.385 Y109.670 E0.01600
G1 X132.292 Y111.576 E0.08501
G1 E-3.50000 F3600.000
;WIPE_START
G1 F7200.000
G1 X130.385 Y109.670 E-1.28092
G1 X130.688 Y109.652 E-0.14408
;WIPE_END
G1 E-0.07500 F3600.000
G1 X131.236 Y104.623 F9000.000
G1 E5.00000 F2400.000
G1 F600.000
G1 X116.583 Y89.970 E0.65328
G1 X116.047 Y89.970 E0.01690
G1 X130.409 Y104.332 E0.64032
G1 X130.344 Y104.328 E0.00205
G1 X129.940 Y104.399 E0.01293
G1 X115.511 Y89.970 E0.64332
G1 X114.975 Y89.970 E0.01690
G1 X129.529 Y104.524 E0.64887
G1 X129.156 Y104.687 E0.01284
G1 X114.439 Y89.970 E0.65614
G1 X113.903 Y89.970 E0.01690
G1 X128.848 Y104.916 E0.66634
G1 X128.663 Y105.053 E0.00727
G1 X128.566 Y105.169 E0.00478
G1 X113.366 Y89.970 E0.67766
G1 X112.830 Y89.970 E0.01690
G1 X128.321 Y105.461 E0.69065
G1 X128.264 Y105.529 E0.00281
G1 X128.127 Y105.803 E0.00964
