; generated by PrusaSlicer 2.3.1+win64 on 2021-06-07 at 21:09:16 UTC

; 

; external perimeters extrusion width = 0.45mm
; perimeters extrusion width = 0.45mm
; infill extrusion width = 0.45mm
; solid infill extrusion width = 0.45mm
; top infill extrusion width = 0.40mm
; support material extrusion width = 0.38mm
; first layer extrusion width = 0.42mm

M201 X500 Y500 Z100 E5000 ; sets maximum accelerations, mm/sec^2
M203 X500 Y500 Z10 E60 ; sets maximum feedrates, mm/sec
M204 P500 R1000 T500 ; sets acceleration (P, T) and retract acceleration (R), mm/sec^2
M205 X8.00 Y8.00 Z0.40 E5.00 ; sets the jerk limits, mm/sec
M205 S0 T0 ; sets the minimum extruding and travel feed rate, mm/sec
M107
;TYPE:Custom
G90 ; use absolute coordinates
M83 ; extruder relative mode
M104 S120 ; set temporary nozzle temp to prevent oozing during homing and auto bed leveling
M140 S70 ; set final bed temp
G4 S10 ; allow partial nozzle warmup
G28 ; home all axis
G1 Z50 F240
G1 X2 Y10 F3000
M104 S200 ; set final nozzle temp
M190 S70 ; wait for bed temp to stabilize
M109 S200 ; wait for nozzle temp to stabilize
G1 Z0.28 F240
G92 E0
G1 Y140 E10 F1500 ; prime the nozzle
G1 X2.3 F5000
G92 E0
G1 Y10 E10 F1200 ; prime the nozzle
G92 E0
G21 ; set units to millimeters
G90 ; use absolute coordinates
M83 ; use relative distances for extrusion
; Filament gcode
;LAYER_CHANGE
;Z:0.2
;HEIGHT:0.2
;BEFORE_LAYER_CHANGE
G92 E0
;0.2


G1 E-5.00000 F3600.000
G1 Z0.200 F6000.000
;AFTER_LAYER_CHANGE
;0.2
G1 X49.553 Y92.344
G1 E5.00000 F2400.000
M204 S500
;TYPE:Skirt
;WIDTH:0.42
G1 F600.000
G1 X50.986 Y92.124 E0.04544
G1 X177.505 Y92.123 E3.96690
G1 X178.159 Y92.188 E0.02061
G1 X178.788 Y92.378 E0.02061
G1 X179.368 Y92.687 E0.02061
G1 X179.878 Y93.102 E0.02061
G1 X184.147 Y97.403 E0.19004
G1 X184.677 Y98.355 E0.03416
G1 X184.876 Y99.422 E0.03402
G1 X184.835 Y132.033 E1.02252
G1 X184.532 Y132.986 E0.03134
G1 X183.961 Y133.812 E0.03148
G1 X179.766 Y138.004 E0.18594
G1 X179.199 Y138.418 E0.02202
G1 X178.559 Y138.707 E0.02202
G1 X177.506 Y138.877 E0.03345
G1 X50.918 Y138.876 E3.96905
G1 X49.570 Y138.661 E0.04282
G1 X48.763 Y138.331 E0.02732
G1 X48.226 Y138.002 E0.01976
G1 X47.546 Y137.443 E0.02759
G1 X46.981 Y136.751 E0.02802
G1 X46.666 Y136.232 E0.01905
G1 X46.344 Y135.447 E0.02661
G1 X46.123 Y134.020 E0.04527
G1 X46.132 Y96.751 E1.16855
G1 X46.241 Y95.943 E0.02556
G1 X46.411 Y95.369 E0.01877
G1 X46.771 Y94.571 E0.02745
G1 X47.271 Y93.869 E0.02702
G1 X47.702 Y93.409 E0.01976
G1 X48.375 Y92.892 E0.02661
G1 X49.499 Y92.369 E0.03887
G1 E-3.50000 F3600.000
;WIPE_START
G1 F4800.000
G1 X50.986 Y92.124 E-1.07381
G1 X51.479 Y92.124 E-0.35119
;WIPE_END
G1 E-0.07500 F3600.000
G1 X99.663 Y106.345 F6000.000
G1 E5.00000 F2400.000
;TYPE:Support material
G1 F600.000
G1 X99.663 Y102.885 E0.10848
G1 X100.110 Y102.486 E0.01879
G1 X100.417 Y102.325 E0.01088
G1 X100.417 Y106.675 E0.13642
G1 X100.632 Y106.788 E0.00762
G1 X101.171 Y106.921 E0.01740
G1 X101.171 Y102.079 E0.15183
G1 X101.205 Y102.070 E0.00110
G1 X101.795 Y102.070 E0.01850
G1 X101.925 Y102.102 E0.00420
G1 X101.925 Y106.898 E0.15034
G1 X102.368 Y106.788 E0.01430
G1 X102.679 Y106.625 E0.01103
G1 X102.679 Y102.375 E0.13325
G1 X102.890 Y102.486 E0.00747
G1 X103.332 Y102.877 E0.01850
G1 X103.433 Y103.024 E0.00560
G1 X103.433 Y106.260 E0.10145
G1 E-3.50000 F3600.000
;WIPE_START
G1 F4800.000
G1 X103.433 Y104.260 E-1.42500
;WIPE_END
G1 E-0.07500 F3600.000
G1 X123.796 Y127.463 F6000.000
G1 E5.00000 F2400.000
G1 F600.000
G1 X123.796 Y123.764 E0.11597
G1 X124.110 Y123.486 E0.01315
G1 X124.550 Y123.255 E0.01559
G1 X124.550 Y127.745 E0.14080
G1 X124.632 Y127.788 E0.00291
G1 X125.205 Y127.930 E0.01850
G1 X125.304 Y127.930 E0.00311
G1 X125.304 Y123.070 E0.15236
G1 X125.795 Y123.070 E0.01539
G1 X126.058 Y123.135 E0.00850
G1 X126.058 Y127.865 E0.14829
G1 X126.368 Y127.788 E0.01000
G1 X126.812 Y127.555 E0.01574
G1 X126.812 Y123.445 E0.12887
G1 X126.890 Y123.486 E0.00276
G1 X127.332 Y123.877 E0.01850
G1 X127.567 Y124.217 E0.01295
G1 X127.567 Y127.082 E0.08982
G1 E-3.50000 F3600.000
;WIPE_START
G1 F4800.000
G1 X127.567 Y125.082 E-1.42500
;WIPE_END
G1 E-0.07500 F3600.000
G1 X168.291 Y113.859 F6000.000
G1 E5.00000 F2400.000
G1 F600.000
G1 X168.291 Y116.722 E0.08976
G1 X168.350 Y116.903 E0.00594
G1 X168.710 Y117.527 E0.02260
G1 X169.045 Y117.899 E0.01570
G1 X169.045 Y113.101 E0.15045
G1 X169.193 Y112.937 E0.00690
G1 X169.799 Y112.503 E0.02340
G1 X169.799 Y118.497 E0.18794
G1 X170.434 Y118.780 E0.02179
G1 X170.554 Y118.805 E0.00382
G1 X170.554 Y112.195 E0.20725
G1 X171.140 Y112.070 E0.01878
G1 X171.308 Y112.070 E0.00527
G1 X171.308 Y118.930 E0.21506
G1 X171.860 Y118.930 E0.01733
G1 X172.062 Y118.887 E0.00646
G1 X172.062 Y112.113 E0.21238
G1 X172.566 Y112.220 E0.01615
G1 X172.816 Y112.332 E0.00860
G1 X172.816 Y118.668 E0.19867
G1 X173.224 Y118.486 E0.01401
G1 X173.570 Y118.235 E0.01341
G1 X173.570 Y112.765 E0.17151
G1 X173.807 Y112.937 E0.00919
G1 X174.290 Y113.473 E0.02260
G1 X174.324 Y113.533 E0.00217
G1 X174.324 Y117.742 E0.13198
G1 E-3.50000 F3600.000
;WIPE_START
G1 F4800.000
G1 X174.324 Y115.742 E-1.42500
;WIPE_END
G1 E-0.07500 F3600.000
G1 X131.190 Y115.500 F6000.000
G1 E5.00000 F2400.000
;TYPE:Perimeter
G1 F600.000
G1 X131.093 Y116.546 E0.03292
G1 X130.806 Y117.555 E0.03292
G1 X130.338 Y118.495 E0.03292
G1 X129.705 Y119.333 E0.03292
G1 X128.929 Y120.041 E0.03292
G1 X128.036 Y120.593 E0.03292
G1 X127.057 Y120.973 E0.03292
G1 X126.025 Y121.166 E0.03292
G1 X124.975 Y121.166 E0.03292
G1 X123.943 Y120.973 E0.03292
G1 X122.964 Y120.593 E0.03292
G1 X122.071 Y120.041 E0.03292
G1 X121.295 Y119.333 E0.03292
G1 X120.662 Y118.495 E0.03292
G1 X120.194 Y117.555 E0.03292
G1 X119.907 Y116.546 E0.03292
G1 X119.812 Y115.519 E0.03231
G1 X119.907 Y114.455 E0.03349
G1 X120.194 Y113.445 E0.03296
G1 X120.662 Y112.505 E0.03292
G1 X121.295 Y111.667 E0.03292
G1 X122.071 Y110.959 E0.03292
G1 X122.964 Y110.407 E0.03292
G1 X123.943 Y110.027 E0.03292
G1 X124.975 Y109.834 E0.03292
G1 X126.025 Y109.834 E0.03292
G1 X127.057 Y110.027 E0.03292
G1 X128.036 Y110.407 E0.03292
G1 X128.929 Y110.959 E0.03292
G1 X129.705 Y111.667 E0.03292
G1 X130.338 Y112.505 E0.03292
G1 X130.806 Y113.445 E0.03292
G1 X131.093 Y114.454 E0.03292
G1 X131.184 Y115.440 E0.03104
G1 X130.809 Y115.475 F6000.000
;TYPE:External perimeter
G1 F600.000
G1 X130.721 Y116.476 E0.03150
G1 X130.453 Y117.419 E0.03073
G1 X130.016 Y118.296 E0.03073
G1 X129.425 Y119.078 E0.03073
G1 X128.701 Y119.739 E0.03073
G1 X127.867 Y120.255 E0.03073
G1 X126.954 Y120.609 E0.03073
G1 X125.990 Y120.789 E0.03073
G1 X125.010 Y120.789 E0.03073
G1 X124.046 Y120.609 E0.03073
G1 X123.133 Y120.255 E0.03073
G1 X122.299 Y119.739 E0.03073
G1 X121.575 Y119.078 E0.03073
G1 X120.984 Y118.296 E0.03073
G1 X120.547 Y117.419 E0.03073
G1 X120.279 Y116.476 E0.03073
G1 X120.190 Y115.519 E0.03014
G1 X120.279 Y114.524 E0.03130
G1 X120.547 Y113.581 E0.03074
G1 X120.984 Y112.704 E0.03073
G1 X121.575 Y111.922 E0.03073
G1 X122.299 Y111.261 E0.03073
G1 X123.133 Y110.745 E0.03073
G1 X124.046 Y110.391 E0.03073
G1 X125.010 Y110.211 E0.03073
G1 X125.990 Y110.211 E0.03073
G1 X126.954 Y110.391 E0.03073
G1 X127.867 Y110.745 E0.03073
G1 X128.701 Y111.261 E0.03073
G1 X129.425 Y111.922 E0.03073
G1 X130.016 Y112.704 E0.03073
G1 X130.453 Y113.581 E0.03073
G1 X130.721 Y114.524 E0.03073
G1 X130.803 Y115.415 E0.02806
G1 X131.156 Y115.674 F6000.000
G1 E-3.50000 F3600.000
;WIPE_START
G1 F4800.000
G1 X130.721 Y116.476 E-0.75800
G1 X130.465 Y117.376 E-0.66700
;WIPE_END
G1 E-0.07500 F3600.000
G1 X127.596 Y122.460 F6000.000
G1 E5.00000 F2400.000
;TYPE:Perimeter
G1 F600.000
G1 X128.264 Y123.052 E0.02798
G1 X128.769 Y123.784 E0.02791
G1 X129.085 Y124.616 E0.02791
G1 X129.192 Y125.500 E0.02791
G1 X129.085 Y126.384 E0.02791
G1 X128.769 Y127.216 E0.02791
G1 X128.264 Y127.948 E0.02791
G1 X127.597 Y128.539 E0.02791
G1 X126.809 Y128.952 E0.02791
G1 X125.945 Y129.165 E0.02791
G1 X125.055 Y129.165 E0.02791
G1 X124.219 Y128.959 E0.02700
G1 X123.404 Y128.540 E0.02872
G1 X122.736 Y127.948 E0.02798
G1 X122.231 Y127.216 E0.02791
G1 X121.915 Y126.384 E0.02791
G1 X121.811 Y125.529 E0.02700
G1 X121.914 Y124.619 E0.02872
G1 X122.231 Y123.784 E0.02798
G1 X122.736 Y123.052 E0.02791
G1 X123.403 Y122.461 E0.02791
G1 X124.165 Y122.061 E0.02700
G1 X125.053 Y121.835 E0.02872
G1 X125.945 Y121.835 E0.02798
G1 X126.781 Y122.041 E0.02700
G1 X127.542 Y122.432 E0.02684
G1 X127.370 Y122.768 F6000.000
;TYPE:External perimeter
G1 F600.000
G1 X127.979 Y123.304 E0.02545
G1 X128.433 Y123.961 E0.02504
G1 X128.716 Y124.707 E0.02504
G1 X128.812 Y125.500 E0.02504
G1 X128.716 Y126.293 E0.02504
G1 X128.433 Y127.039 E0.02504
G1 X127.979 Y127.696 E0.02504
G1 X127.382 Y128.226 E0.02504
G1 X126.675 Y128.597 E0.02504
G1 X125.899 Y128.788 E0.02504
G1 X125.101 Y128.788 E0.02504
G1 X124.352 Y128.604 E0.02417
G1 X123.619 Y128.227 E0.02585
G1 X123.021 Y127.696 E0.02506
G1 X122.567 Y127.039 E0.02504
G1 X122.284 Y126.293 E0.02504
G1 X122.191 Y125.527 E0.02417
G1 X122.284 Y124.708 E0.02585
G1 X122.567 Y123.961 E0.02506
G1 X123.021 Y123.304 E0.02504
G1 X123.618 Y122.774 E0.02504
G1 X124.301 Y122.416 E0.02417
G1 X125.100 Y122.212 E0.02585
G1 X125.899 Y122.212 E0.02506
G1 X126.648 Y122.396 E0.02417
G1 X127.316 Y122.740 E0.02357
G1 X127.731 Y122.595 F6000.000
G1 E-3.50000 F3600.000
;WIPE_START
G1 F4800.000
G1 X127.979 Y123.304 E-0.61984
G1 X128.433 Y123.961 E-0.56893
G1 X128.550 Y124.271 E-0.23623
;WIPE_END
G1 E-0.07500 F3600.000
G1 X133.827 Y116.562 F6000.000
G1 E5.00000 F2400.000
;TYPE:Perimeter
G1 F600.000
G1 X133.827 Y114.438 E0.06660
G1 X139.934 Y114.438 E0.19147
G1 X140.003 Y114.032 E0.01290
G1 X140.368 Y113.042 E0.03311
G1 X140.911 Y112.136 E0.03311
G1 X141.612 Y111.346 E0.03311
G1 X142.446 Y110.699 E0.03311
G1 X143.386 Y110.217 E0.03311
G1 X144.399 Y109.918 E0.03311
G1 X145.449 Y109.810 E0.03311
G1 X146.501 Y109.899 E0.03311
G1 X147.519 Y110.180 E0.03311
G1 X148.467 Y110.645 E0.03311
G1 X149.313 Y111.277 E0.03311
G1 X150.028 Y112.054 E0.03311
G1 X150.587 Y112.950 E0.03311
G1 X150.970 Y113.934 E0.03311
G1 X151.166 Y114.972 E0.03311
G1 X151.166 Y116.028 E0.03311
G1 X150.970 Y117.066 E0.03311
G1 X150.587 Y118.050 E0.03311
G1 X150.028 Y118.946 E0.03311
G1 X149.313 Y119.723 E0.03311
G1 X148.467 Y120.355 E0.03311
G1 X147.518 Y120.820 E0.03314
G1 X146.482 Y121.103 E0.03368
G1 X145.449 Y121.190 E0.03249
G1 X144.399 Y121.082 E0.03311
G1 X143.386 Y120.783 E0.03311
G1 X142.446 Y120.301 E0.03311
G1 X141.612 Y119.654 E0.03311
G1 X140.911 Y118.864 E0.03311
G1 X140.368 Y117.958 E0.03311
G1 X140.003 Y116.968 E0.03311
G1 X139.934 Y116.562 E0.01290
G1 X133.887 Y116.562 E0.18959
G1 X134.204 Y116.185 F6000.000
;TYPE:External perimeter
G1 F600.000
G1 X134.204 Y114.815 E0.04296
G1 X140.252 Y114.815 E0.18964
G1 X140.368 Y114.130 E0.02179
G1 X140.710 Y113.205 E0.03091
G1 X141.217 Y112.360 E0.03091
G1 X141.871 Y111.622 E0.03091
G1 X142.650 Y111.018 E0.03091
G1 X143.527 Y110.569 E0.03091
G1 X144.472 Y110.289 E0.03091
G1 X145.453 Y110.189 E0.03091
G1 X146.435 Y110.272 E0.03091
G1 X147.385 Y110.534 E0.03091
G1 X148.270 Y110.968 E0.03091
G1 X149.060 Y111.558 E0.03091
G1 X149.727 Y112.284 E0.03091
G1 X150.248 Y113.120 E0.03091
G1 X150.606 Y114.038 E0.03091
G1 X150.788 Y115.007 E0.03091
G1 X150.788 Y115.993 E0.03091
G1 X150.606 Y116.962 E0.03091
G1 X150.248 Y117.880 E0.03091
G1 X149.727 Y118.716 E0.03091
G1 X149.060 Y119.442 E0.03091
G1 X148.270 Y120.032 E0.03091
G1 X147.384 Y120.466 E0.03092
G1 X146.416 Y120.730 E0.03148
G1 X145.453 Y120.811 E0.03031
G1 X144.472 Y120.711 E0.03091
G1 X143.527 Y120.431 E0.03091
G1 X142.650 Y119.982 E0.03091
G1 X141.871 Y119.378 E0.03091
G1 X141.217 Y118.640 E0.03091
G1 X140.710 Y117.795 E0.03091
G1 X140.368 Y116.870 E0.03091
G1 X140.252 Y116.185 E0.02179
G1 X134.264 Y116.185 E0.18775
G1 X133.804 Y116.170 F6000.000
G1 E-3.50000 F3600.000
;WIPE_START
G1 F4800.000
G1 X134.204 Y114.815 E-0.97706
G1 X134.833 Y114.815 E-0.44794
;WIPE_END
G1 E-0.07500 F3600.000
G1 X166.809 Y115.500 F6000.000
G1 E5.00000 F2400.000
;TYPE:Perimeter
G1 F600.000
G1 X166.912 Y114.525 E0.03075
G1 X167.215 Y113.592 E0.03075
G1 X167.705 Y112.743 E0.03075
G1 X168.361 Y112.014 E0.03075
G1 X169.155 Y111.438 E0.03075
G1 X170.050 Y111.039 E0.03075
G1 X171.010 Y110.835 E0.03075
G1 X171.990 Y110.835 E0.03075
G1 X172.950 Y111.039 E0.03075
G1 X173.845 Y111.438 E0.03075
G1 X174.639 Y112.014 E0.03075
G1 X175.295 Y112.743 E0.03075
G1 X175.785 Y113.592 E0.03075
G1 X176.088 Y114.525 E0.03075
G1 X176.191 Y115.500 E0.03075
G1 X176.088 Y116.475 E0.03075
G1 X175.785 Y117.408 E0.03075
G1 X175.295 Y118.257 E0.03075
G1 X174.639 Y118.986 E0.03075
G1 X173.845 Y119.562 E0.03075
G1 X172.950 Y119.961 E0.03075
G1 X171.990 Y120.165 E0.03075
G1 X171.010 Y120.165 E0.03075
G1 X170.050 Y119.961 E0.03075
G1 X169.155 Y119.562 E0.03075
G1 X168.361 Y118.986 E0.03075
G1 X167.705 Y118.257 E0.03075
G1 X167.215 Y117.408 E0.03075
G1 X166.912 Y116.475 E0.03075
G1 X166.815 Y115.560 E0.02887
G1 X167.190 Y115.520 F6000.000
;TYPE:External perimeter
G1 F600.000
G1 X167.283 Y114.604 E0.02889
G1 X167.561 Y113.746 E0.02826
G1 X168.012 Y112.966 E0.02826
G1 X168.615 Y112.296 E0.02826
G1 X169.344 Y111.766 E0.02826
G1 X170.168 Y111.399 E0.02826
G1 X171.049 Y111.212 E0.02826
G1 X171.951 Y111.212 E0.02826
G1 X172.832 Y111.399 E0.02826
G1 X173.656 Y111.766 E0.02826
G1 X174.385 Y112.296 E0.02826
G1 X174.988 Y112.966 E0.02826
G1 X175.439 Y113.746 E0.02826
G1 X175.717 Y114.604 E0.02826
G1 X175.812 Y115.500 E0.02826
G1 X175.717 Y116.396 E0.02826
G1 X175.439 Y117.254 E0.02826
G1 X174.988 Y118.034 E0.02826
G1 X174.385 Y118.704 E0.02826
G1 X173.656 Y119.234 E0.02826
G1 X172.832 Y119.601 E0.02826
G1 X171.951 Y119.788 E0.02826
G1 X171.049 Y119.788 E0.02826
G1 X170.168 Y119.601 E0.02826
G1 X169.344 Y119.234 E0.02826
G1 X168.615 Y118.704 E0.02826
G1 X168.012 Y118.034 E0.02826
G1 X167.561 Y117.254 E0.02826
G1 X167.283 Y116.396 E0.02826
G1 X167.197 Y115.580 E0.02574
G1 X166.843 Y115.321 F6000.000
G1 E-3.50000 F3600.000
;WIPE_START
G1 F4800.000
G1 X167.283 Y114.604 E-0.69835
G1 X167.561 Y113.746 E-0.64224
G1 X167.620 Y113.644 E-0.08441
;WIPE_END
G1 E-0.07500 F3600.000
G1 X117.173 Y114.438 F6000.000
G1 E5.00000 F2400.000
;TYPE:Perimeter
G1 F600.000
G1 X117.173 Y116.562 E0.06660
G1 X111.066 Y116.562 E0.19147
G1 X110.997 Y116.968 E0.01290
G1 X110.632 Y117.958 E0.03311
G1 X110.089 Y118.864 E0.03311
G1 X109.388 Y119.654 E0.03311
G1 X108.554 Y120.301 E0.03311
G1 X107.614 Y120.783 E0.03311
G1 X106.601 Y121.082 E0.03311
G1 X105.551 Y121.190 E0.03311
G1 X104.499 Y121.101 E0.03311
G1 X103.481 Y120.820 E0.03311
G1 X102.533 Y120.355 E0.03311
G1 X101.687 Y119.723 E0.03311
G1 X100.972 Y118.946 E0.03311
G1 X100.413 Y118.049 E0.03314
G1 X100.026 Y117.046 E0.03368
G1 X99.834 Y116.028 E0.03249
G1 X99.834 Y114.972 E0.03311
G1 X100.030 Y113.934 E0.03311
G1 X100.413 Y112.950 E0.03311
G1 X100.972 Y112.054 E0.03311
G1 X101.687 Y111.277 E0.03311
G1 X102.533 Y110.645 E0.03311
G1 X103.481 Y110.180 E0.03311
G1 X104.499 Y109.899 E0.03311
G1 X105.551 Y109.810 E0.03311
G1 X106.601 Y109.918 E0.03311
G1 X107.614 Y110.217 E0.03311
G1 X108.554 Y110.699 E0.03311
G1 X109.388 Y111.346 E0.03311
G1 X110.089 Y112.136 E0.03311
G1 X110.632 Y113.042 E0.03311
G1 X110.997 Y114.032 E0.03311
G1 X111.066 Y114.438 E0.01290
G1 X117.113 Y114.438 E0.18959
G1 X116.796 Y114.815 F6000.000
;TYPE:External perimeter
G1 F600.000
G1 X116.796 Y116.185 E0.04296
G1 X110.748 Y116.185 E0.18964
G1 X110.632 Y116.870 E0.02179
G1 X110.290 Y117.795 E0.03091
G1 X109.783 Y118.640 E0.03091
G1 X109.129 Y119.378 E0.03091
G1 X108.350 Y119.982 E0.03091
G1 X107.473 Y120.431 E0.03091
G1 X106.528 Y120.711 E0.03091
G1 X105.547 Y120.811 E0.03091
G1 X104.565 Y120.728 E0.03091
G1 X103.615 Y120.466 E0.03091
G1 X102.730 Y120.032 E0.03091
G1 X101.940 Y119.442 E0.03091
G1 X101.273 Y118.716 E0.03091
G1 X100.752 Y117.880 E0.03092
G1 X100.390 Y116.943 E0.03148
G1 X100.212 Y115.993 E0.03031
G1 X100.212 Y115.007 E0.03091
G1 X100.394 Y114.038 E0.03091
G1 X100.752 Y113.120 E0.03091
G1 X101.273 Y112.284 E0.03091
G1 X101.940 Y111.558 E0.03091
G1 X102.730 Y110.968 E0.03091
G1 X103.615 Y110.534 E0.03091
