; generated by PrusaSlicer 2.3.1+win64 on 2021-05-23 at 16:30:07 UTC

; 

; external perimeters extrusion width = 0.45mm
; perimeters extrusion width = 0.45mm
; infill extrusion width = 0.45mm
; solid infill extrusion width = 0.45mm
; top infill extrusion width = 0.40mm
; support material extrusion width = 0.38mm
; first layer extrusion width = 0.42mm

M201 X500 Y500 Z100 E5000 ; sets maximum accelerations, mm/sec^2
M203 X500 Y500 Z10 E60 ; sets maximum feedrates, mm/sec
M204 P500 R1000 T500 ; sets acceleration (P, T) and retract acceleration (R), mm/sec^2
M205 X8.00 Y8.00 Z0.40 E5.00 ; sets the jerk limits, mm/sec
M205 S0 T0 ; sets the minimum extruding and travel feed rate, mm/sec
M107
;TYPE:Custom
G90 ; use absolute coordinates
M83 ; extruder relative mode
M104 S120 ; set temporary nozzle temp to prevent oozing during homing and auto bed leveling
M140 S70 ; set final bed temp
G4 S10 ; allow partial nozzle warmup
G28 ; home all axis
G1 Z50 F240
G1 X2 Y10 F3000
M104 S200 ; set final nozzle temp
M190 S70 ; wait for bed temp to stabilize
M109 S200 ; wait for nozzle temp to stabilize
G1 Z0.28 F240
G92 E0
G1 Y140 E10 F1500 ; prime the nozzle
G1 X2.3 F5000
G92 E0
G1 Y10 E10 F1200 ; prime the nozzle
G92 E0
G21 ; set units to millimeters
G90 ; use absolute coordinates
M83 ; use relative distances for extrusion
; Filament gcode
;LAYER_CHANGE
;Z:0.2
;HEIGHT:0.2
;BEFORE_LAYER_CHANGE
G92 E0
;0.2


G1 E-5.00000 F3600.000
G1 Z0.200 F6000.000
;AFTER_LAYER_CHANGE
;0.2
G1 X39.684 Y92.304
G1 E5.00000 F2400.000
M204 S500
;TYPE:Skirt
;WIDTH:0.42
G1 F600.000
G1 X40.986 Y92.124 E0.04123
G1 X187.505 Y92.123 E4.59398
G1 X188.159 Y92.188 E0.02061
G1 X188.788 Y92.378 E0.02061
G1 X189.368 Y92.687 E0.02061
G1 X189.878 Y93.102 E0.02061
G1 X194.150 Y97.407 E0.19018
G1 X194.679 Y98.360 E0.03416
G1 X194.876 Y99.435 E0.03430
G1 X194.832 Y132.047 E1.02251
G1 X194.522 Y133.007 E0.03163
G1 X193.943 Y133.832 E0.03163
G1 X189.746 Y138.022 E0.18593
G1 X189.128 Y138.459 E0.02372
G1 X188.429 Y138.747 E0.02372
G1 X187.506 Y138.877 E0.02923
G1 X40.923 Y138.876 E4.59600
G1 X40.023 Y138.774 E0.02840
G1 X39.428 Y138.612 E0.01933
G1 X38.587 Y138.238 E0.02887
G1 X37.876 Y137.734 E0.02730
G1 X37.403 Y137.291 E0.02032
G1 X36.870 Y136.591 E0.02760
G1 X36.304 Y135.316 E0.04372
G1 X36.124 Y134.023 E0.04094
G1 X36.133 Y96.737 E1.16908
G1 X36.243 Y95.934 E0.02542
G1 X36.418 Y95.352 E0.01905
G1 X36.782 Y94.551 E0.02759
G1 X37.305 Y93.826 E0.02802
G1 X37.733 Y93.383 E0.01933
G1 X38.428 Y92.857 E0.02732
G1 X39.629 Y92.328 E0.04113
G1 E-3.50000 F3600.000
;WIPE_START
G1 F4800.000
G1 X40.986 Y92.124 E-0.97799
G1 X41.613 Y92.124 E-0.44701
;WIPE_END
G1 E-0.07500 F3600.000
G1 X45.363 Y106.883 F6000.000
G1 E5.00000 F2400.000
;TYPE:Support material
G1 F600.000
G1 X45.363 Y104.879 E0.06282
G1 X45.494 Y104.243 E0.02036
G1 X45.829 Y103.462 E0.02664
G1 X46.117 Y103.048 E0.01583
G1 X46.117 Y107.952 E0.15376
G1 X46.314 Y108.235 E0.01081
G1 X46.872 Y108.765 E0.02411
G1 X46.872 Y102.235 E0.20472
G1 X46.930 Y102.180 E0.00253
G1 X47.626 Y101.746 E0.02570
G1 X47.626 Y109.254 E0.23540
G1 X48.380 Y109.540 E0.02529
G1 X48.380 Y101.460 E0.25331
G1 X48.448 Y101.435 E0.00227
G1 X49.134 Y101.330 E0.02177
G1 X49.134 Y109.670 E0.26148
G1 X49.287 Y109.693 E0.00486
G1 X49.888 Y109.663 E0.01886
G1 X49.888 Y101.337 E0.26104
G1 X50.136 Y101.350 E0.00777
G1 X50.642 Y101.481 E0.01641
G1 X50.642 Y109.519 E0.25203
G1 X50.958 Y109.437 E0.01023
G1 X51.396 Y109.222 E0.01531
G1 X51.396 Y101.778 E0.23342
G1 X51.721 Y101.937 E0.01133
G1 X52.151 Y102.269 E0.01704
G1 X52.151 Y108.731 E0.20258
G1 X52.393 Y108.543 E0.00960
G1 X52.905 Y107.947 E0.02465
G1 X52.905 Y103.053 E0.15342
G1 X53.358 Y103.844 E0.02859
G1 X53.613 Y104.655 E0.02664
G1 X53.659 Y105.110 E0.01434
G1 X53.659 Y106.765 E0.05188
G1 E-3.50000 F3600.000
;WIPE_START
G1 F4800.000
G1 X53.659 Y105.110 E-1.17891
G1 X53.624 Y104.766 E-0.24609
;WIPE_END
G1 E-0.07500 F3600.000
G1 X65.726 Y103.314 F6000.000
G1 E5.00000 F2400.000
G1 F600.000
G1 X65.726 Y107.297 E0.12487
G1 X65.829 Y107.538 E0.00822
G1 X66.314 Y108.235 E0.02664
G1 X66.480 Y108.392 E0.00716
G1 X66.480 Y102.608 E0.18136
G1 X66.930 Y102.180 E0.01948
G1 X67.234 Y101.990 E0.01123
G1 X67.234 Y109.010 E0.22008
G1 X67.651 Y109.270 E0.01541
G1 X67.988 Y109.394 E0.01127
G1 X67.988 Y101.606 E0.24421
G1 X68.448 Y101.435 E0.01537
G1 X68.742 Y101.390 E0.00934
G1 X68.742 Y109.610 E0.25771
G1 X69.287 Y109.693 E0.01729
G1 X69.496 Y109.683 E0.00656
G1 X69.496 Y101.317 E0.26229
G1 X70.136 Y101.350 E0.02008
G1 X70.250 Y101.379 E0.00371
G1 X70.250 Y109.621 E0.25839
G1 X71.005 Y109.415 E0.02451
G1 X71.005 Y101.585 E0.24547
G1 X71.759 Y101.966 E0.02649
G1 X71.759 Y109.034 E0.22160
G1 X72.393 Y108.543 E0.02514
G1 X72.513 Y108.403 E0.00579
G1 X72.513 Y102.597 E0.18205
G1 X72.946 Y103.101 E0.02085
G1 X73.267 Y103.680 E0.02074
G1 X73.267 Y107.670 E0.12510
G1 E-3.50000 F3600.000
;WIPE_START
G1 F4800.000
G1 X73.267 Y105.670 E-1.42500
;WIPE_END
G1 E-0.07500 F3600.000
G1 X73.267 Y127.670 F6000.000
G1 E5.00000 F2400.000
G1 F600.000
G1 X73.267 Y123.680 E0.12511
G1 X72.946 Y123.101 E0.02074
G1 X72.513 Y122.597 E0.02085
G1 X72.513 Y128.403 E0.18205
G1 X72.393 Y128.543 E0.00579
G1 X71.759 Y129.034 E0.02514
G1 X71.759 Y121.966 E0.22160
G1 X71.005 Y121.585 E0.02649
G1 X71.005 Y129.415 E0.24547
G1 X70.250 Y129.621 E0.02451
G1 X70.250 Y121.379 E0.25839
G1 X70.136 Y121.350 E0.00371
G1 X69.496 Y121.317 E0.02008
G1 X69.496 Y129.683 E0.26229
G1 X69.287 Y129.693 E0.00656
G1 X68.742 Y129.610 E0.01729
G1 X68.742 Y121.390 E0.25771
G1 X68.448 Y121.435 E0.00934
G1 X67.988 Y121.606 E0.01537
G1 X67.988 Y129.394 E0.24421
G1 X67.651 Y129.270 E0.01127
G1 X67.234 Y129.010 E0.01541
G1 X67.234 Y121.990 E0.22008
G1 X66.930 Y122.180 E0.01123
G1 X66.480 Y122.608 E0.01948
G1 X66.480 Y128.392 E0.18136
G1 X66.314 Y128.235 E0.00716
G1 X65.829 Y127.538 E0.02664
G1 X65.726 Y127.297 E0.00822
G1 X65.726 Y123.314 E0.12487
G1 E-3.50000 F3600.000
;WIPE_START
G1 F4800.000
G1 X65.726 Y125.314 E-1.42500
;WIPE_END
G1 E-0.07500 F3600.000
G1 X53.659 Y126.765 F6000.000
G1 E5.00000 F2400.000
G1 F600.000
G1 X53.659 Y125.110 E0.05188
G1 X53.613 Y124.655 E0.01434
G1 X53.358 Y123.844 E0.02664
G1 X52.905 Y123.053 E0.02859
G1 X52.905 Y127.947 E0.15342
G1 X52.393 Y128.543 E0.02465
G1 X52.151 Y128.731 E0.00960
G1 X52.151 Y122.269 E0.20258
G1 X51.721 Y121.937 E0.01704
G1 X51.396 Y121.778 E0.01133
G1 X51.396 Y129.222 E0.23342
G1 X50.958 Y129.437 E0.01531
G1 X50.642 Y129.519 E0.01023
G1 X50.642 Y121.481 E0.25203
G1 X50.136 Y121.350 E0.01641
G1 X49.888 Y121.337 E0.00777
G1 X49.888 Y129.663 E0.26104
G1 X49.287 Y129.693 E0.01886
G1 X49.134 Y129.670 E0.00486
G1 X49.134 Y121.330 E0.26148
G1 X48.448 Y121.435 E0.02177
G1 X48.380 Y121.460 E0.00227
G1 X48.380 Y129.540 E0.25331
G1 X47.626 Y129.254 E0.02529
G1 X47.626 Y121.746 E0.23540
G1 X46.930 Y122.180 E0.02570
G1 X46.872 Y122.235 E0.00253
G1 X46.872 Y128.765 E0.20472
G1 X46.314 Y128.235 E0.02411
G1 X46.117 Y127.952 E0.01081
G1 X46.117 Y123.048 E0.15376
G1 X45.829 Y123.462 E0.01583
G1 X45.494 Y124.243 E0.02664
G1 X45.363 Y124.879 E0.02036
G1 X45.363 Y126.883 E0.06282
G1 E-3.50000 F3600.000
;WIPE_START
G1 F4800.000
G1 X45.363 Y124.883 E-1.42500
;WIPE_END
G1 E-0.07500 F3600.000
G1 X109.919 Y116.610 F6000.000
G1 E5.00000 F2400.000
;TYPE:Perimeter
G1 F600.000
G1 X109.810 Y115.500 E0.03498
G1 X109.919 Y114.390 E0.03498
G1 X110.243 Y113.322 E0.03498
G1 X110.769 Y112.339 E0.03498
G1 X111.476 Y111.476 E0.03498
G1 X112.339 Y110.769 E0.03498
G1 X113.322 Y110.243 E0.03498
G1 X114.390 Y109.919 E0.03498
G1 X115.479 Y109.812 E0.03433
G1 X116.609 Y109.919 E0.03558
G1 X117.678 Y110.243 E0.03501
G1 X118.661 Y110.769 E0.03498
G1 X119.524 Y111.476 E0.03498
G1 X120.231 Y112.339 E0.03498
G1 X120.757 Y113.322 E0.03498
G1 X121.081 Y114.390 E0.03498
G1 X121.190 Y115.500 E0.03498
G1 X121.081 Y116.610 E0.03498
G1 X120.757 Y117.678 E0.03498
G1 X120.231 Y118.661 E0.03498
G1 X119.524 Y119.524 E0.03498
G1 X118.661 Y120.231 E0.03498
G1 X117.678 Y120.757 E0.03498
G1 X116.610 Y121.081 E0.03498
G1 X115.500 Y121.190 E0.03498
G1 X114.390 Y121.081 E0.03498
G1 X113.322 Y120.757 E0.03498
G1 X112.339 Y120.231 E0.03498
G1 X111.476 Y119.524 E0.03498
G1 X110.769 Y118.661 E0.03498
G1 X110.243 Y117.678 E0.03498
G1 X109.936 Y116.668 E0.03309
G1 X110.297 Y116.558 F6000.000
;TYPE:External perimeter
G1 F600.000
G1 X110.189 Y115.500 E0.03335
G1 X110.291 Y114.464 E0.03265
G1 X110.593 Y113.467 E0.03265
G1 X111.084 Y112.549 E0.03265
G1 X111.744 Y111.744 E0.03265
G1 X112.549 Y111.084 E0.03265
G1 X113.467 Y110.593 E0.03265
G1 X114.464 Y110.291 E0.03265
G1 X115.480 Y110.190 E0.03202
G1 X116.536 Y110.290 E0.03325
G1 X117.533 Y110.593 E0.03266
G1 X118.451 Y111.084 E0.03265
G1 X119.256 Y111.744 E0.03265
G1 X119.916 Y112.549 E0.03265
G1 X120.407 Y113.467 E0.03265
G1 X120.709 Y114.464 E0.03265
G1 X120.811 Y115.500 E0.03265
G1 X120.709 Y116.536 E0.03265
G1 X120.407 Y117.533 E0.03265
G1 X119.916 Y118.451 E0.03265
G1 X119.256 Y119.256 E0.03265
G1 X118.451 Y119.916 E0.03265
G1 X117.533 Y120.407 E0.03265
G1 X116.536 Y120.709 E0.03265
G1 X115.500 Y120.811 E0.03265
G1 X114.464 Y120.709 E0.03265
G1 X113.467 Y120.407 E0.03265
G1 X112.549 Y119.916 E0.03265
G1 X111.744 Y119.256 E0.03265
G1 X111.084 Y118.451 E0.03265
G1 X110.593 Y117.533 E0.03265
G1 X110.315 Y116.616 E0.03005
G1 X109.918 Y116.431 F6000.000
G1 E-3.50000 F3600.000
;WIPE_START
G1 F4800.000
G1 X110.189 Y115.500 E-0.79987
G1 X110.274 Y114.627 E-0.62513
;WIPE_END
G1 E-0.07500 F3600.000
G1 X114.153 Y107.832 F6000.000
G1 E5.00000 F2400.000
;TYPE:Perimeter
G1 F600.000
G1 X113.596 Y107.404 E0.02204
G1 X113.168 Y106.847 E0.02204
G1 X112.899 Y106.197 E0.02204
G1 X112.807 Y105.500 E0.02204
G1 X112.899 Y104.803 E0.02204
G1 X113.168 Y104.153 E0.02204
G1 X113.596 Y103.596 E0.02204
G1 X114.153 Y103.168 E0.02204
G1 X114.803 Y102.899 E0.02204
G1 X115.473 Y102.810 E0.02120
G1 X116.194 Y102.898 E0.02276
G1 X116.847 Y103.168 E0.02214
G1 X117.404 Y103.596 E0.02204
G1 X117.832 Y104.153 E0.02204
G1 X118.101 Y104.803 E0.02204
G1 X118.193 Y105.500 E0.02204
G1 X118.101 Y106.197 E0.02204
G1 X117.832 Y106.847 E0.02204
G1 X117.404 Y107.404 E0.02204
G1 X116.847 Y107.832 E0.02204
G1 X116.197 Y108.101 E0.02204
G1 X115.500 Y108.193 E0.02204
G1 X114.803 Y108.101 E0.02204
G1 X114.209 Y107.855 E0.02016
G1 X114.353 Y107.507 F6000.000
;TYPE:External perimeter
G1 F600.000
G1 X113.865 Y107.135 E0.01924
G1 X113.497 Y106.656 E0.01893
G1 X113.266 Y106.099 E0.01893
G1 X113.187 Y105.500 E0.01893
G1 X113.266 Y104.901 E0.01893
G1 X113.497 Y104.344 E0.01893
G1 X113.865 Y103.865 E0.01893
G1 X114.344 Y103.497 E0.01893
G1 X114.901 Y103.266 E0.01893
G1 X115.475 Y103.191 E0.01815
G1 X116.098 Y103.266 E0.01965
G1 X116.656 Y103.497 E0.01897
G1 X117.135 Y103.865 E0.01893
G1 X117.503 Y104.344 E0.01893
G1 X117.734 Y104.901 E0.01893
G1 X117.813 Y105.500 E0.01893
G1 X117.734 Y106.099 E0.01893
G1 X117.503 Y106.656 E0.01893
G1 X117.135 Y107.135 E0.01893
G1 X116.656 Y107.503 E0.01893
G1 X116.099 Y107.734 E0.01893
G1 X115.500 Y107.813 E0.01893
G1 X114.901 Y107.734 E0.01893
G1 X114.409 Y107.530 E0.01672
G1 X114.007 Y107.708 F6000.000
G1 E-3.50000 F3600.000
;WIPE_START
G1 F4800.000
G1 X113.865 Y107.135 E-0.47875
G1 X113.497 Y106.656 E-0.43016
G1 X113.266 Y106.099 E-0.43016
G1 X113.250 Y105.979 E-0.08593
;WIPE_END
G1 E-0.07500 F3600.000
G1 X107.173 Y114.438 F6000.000
G1 E5.00000 F2400.000
;TYPE:Perimeter
G1 F600.000
G1 X107.173 Y116.562 E0.06660
G1 X101.063 Y116.562 E0.19158
G1 X100.980 Y117.034 E0.01502
G1 X100.571 Y118.081 E0.03524
G1 X99.965 Y119.027 E0.03524
G1 X99.185 Y119.836 E0.03524
G1 X98.261 Y120.476 E0.03524
G1 X97.229 Y120.921 E0.03524
G1 X96.129 Y121.156 E0.03524
G1 X95.006 Y121.169 E0.03524
G1 X93.901 Y120.961 E0.03524
G1 X92.859 Y120.540 E0.03524
G1 X91.920 Y119.923 E0.03524
G1 X91.120 Y119.133 E0.03524
G1 X90.491 Y118.201 E0.03524
G1 X90.058 Y117.164 E0.03524
G1 X89.837 Y116.062 E0.03524
G1 X89.837 Y114.938 E0.03524
G1 X90.058 Y113.836 E0.03524
G1 X90.491 Y112.799 E0.03524
G1 X91.120 Y111.867 E0.03524
G1 X91.920 Y111.077 E0.03524
G1 X92.859 Y110.460 E0.03524
G1 X93.901 Y110.039 E0.03524
G1 X95.006 Y109.831 E0.03524
G1 X96.129 Y109.844 E0.03524
G1 X97.229 Y110.079 E0.03524
G1 X98.261 Y110.524 E0.03524
G1 X99.185 Y111.164 E0.03524
G1 X99.965 Y111.973 E0.03524
G1 X100.571 Y112.919 E0.03524
G1 X100.980 Y113.966 E0.03524
G1 X101.063 Y114.438 E0.01502
G1 X107.113 Y114.438 E0.18970
G1 X106.796 Y114.815 F6000.000
;TYPE:External perimeter
G1 F600.000
G1 X106.796 Y116.185 E0.04296
G1 X100.746 Y116.185 E0.18969
G1 X100.615 Y116.932 E0.02377
G1 X100.234 Y117.909 E0.03289
G1 X99.668 Y118.793 E0.03289
G1 X98.939 Y119.548 E0.03289
G1 X98.077 Y120.145 E0.03289
G1 X97.114 Y120.560 E0.03289
G1 X96.088 Y120.779 E0.03289
G1 X95.039 Y120.791 E0.03289
G1 X94.007 Y120.598 E0.03289
G1 X93.035 Y120.205 E0.03289
G1 X92.158 Y119.628 E0.03289
G1 X91.412 Y118.891 E0.03289
G1 X90.825 Y118.021 E0.03289
G1 X90.421 Y117.053 E0.03289
G1 X90.214 Y116.025 E0.03289
G1 X90.214 Y114.975 E0.03289
G1 X90.421 Y113.947 E0.03289
G1 X90.825 Y112.979 E0.03289
G1 X91.412 Y112.109 E0.03289
G1 X92.158 Y111.372 E0.03289
G1 X93.035 Y110.795 E0.03289
G1 X94.007 Y110.402 E0.03289
G1 X95.039 Y110.209 E0.03289
G1 X96.088 Y110.221 E0.03289
G1 X97.114 Y110.440 E0.03289
G1 X98.077 Y110.855 E0.03289
G1 X98.939 Y111.452 E0.03289
G1 X99.668 Y112.207 E0.03289
G1 X100.234 Y113.091 E0.03289
G1 X100.615 Y114.068 E0.03289
G1 X100.746 Y114.815 E0.02377
G1 X106.736 Y114.815 E0.18780
G1 X107.196 Y114.831 F6000.000
G1 E-3.50000 F3600.000
;WIPE_START
G1 F4800.000
G1 X106.796 Y116.185 E-0.97706
G1 X106.167 Y116.185 E-0.44794
;WIPE_END
G1 E-0.07500 F3600.000
G1 X93.832 Y125.153 F6000.000
G1 E5.00000 F2400.000
;TYPE:Perimeter
G1 F600.000
G1 X94.101 Y125.803 E0.02204
G1 X94.193 Y126.500 E0.02204
G1 X94.101 Y127.197 E0.02204
G1 X93.832 Y127.847 E0.02204
G1 X93.404 Y128.404 E0.02204
G1 X92.847 Y128.832 E0.02204
G1 X92.197 Y129.101 E0.02204
G1 X91.500 Y129.193 E0.02204
G1 X90.803 Y129.101 E0.02204
G1 X90.153 Y128.832 E0.02204
G1 X89.596 Y128.404 E0.02204
G1 X89.168 Y127.847 E0.02204
G1 X88.899 Y127.197 E0.02204
G1 X88.807 Y126.500 E0.02204
G1 X88.899 Y125.803 E0.02204
G1 X89.168 Y125.153 E0.02204
G1 X89.596 Y124.596 E0.02204
G1 X90.153 Y124.168 E0.02204
G1 X90.803 Y123.899 E0.02204
G1 X91.473 Y123.810 E0.02120
G1 X92.194 Y123.898 E0.02276
G1 X92.847 Y124.168 E0.02214
G1 X93.404 Y124.596 E0.02204
G1 X93.796 Y125.106 E0.02016
G1 X93.497 Y125.335 F6000.000
;TYPE:External perimeter
G1 F600.000
G1 X93.734 Y125.901 E0.01924
G1 X93.813 Y126.500 E0.01893
G1 X93.734 Y127.099 E0.01893
G1 X93.503 Y127.656 E0.01893
G1 X93.135 Y128.135 E0.01893
G1 X92.656 Y128.503 E0.01893
G1 X92.099 Y128.734 E0.01893
G1 X91.500 Y128.813 E0.01893
G1 X90.901 Y128.734 E0.01893
G1 X90.344 Y128.503 E0.01893
G1 X89.865 Y128.135 E0.01893
G1 X89.497 Y127.656 E0.01893
G1 X89.266 Y127.099 E0.01893
G1 X89.187 Y126.500 E0.01893
G1 X89.266 Y125.901 E0.01893
G1 X89.497 Y125.344 E0.01893
G1 X89.865 Y124.865 E0.01893
G1 X90.344 Y124.497 E0.01893
G1 X90.901 Y124.266 E0.01893
G1 X91.475 Y124.191 E0.01815
G1 X92.098 Y124.266 E0.01965
G1 X92.656 Y124.497 E0.01897
G1 X93.135 Y124.865 E0.01893
G1 X93.460 Y125.288 E0.01672
G1 X93.897 Y125.334 F6000.000
G1 E-3.50000 F3600.000
;WIPE_START
G1 F4800.000
G1 X93.734 Y125.901 E-0.47875
G1 X93.813 Y126.500 E-0.43016
G1 X93.734 Y127.099 E-0.43016
G1 X93.688 Y127.210 E-0.08593
;WIPE_END
G1 E-0.07500 F3600.000
G1 X74.941 Y125.500 F6000.000
G1 E5.00000 F2400.000
;TYPE:Perimeter
G1 F600.000
G1 X74.829 Y126.595 E0.03452
G1 X74.500 Y127.646 E0.03452
G1 X73.965 Y128.608 E0.03452
G1 X73.248 Y129.443 E0.03452
G1 X72.378 Y130.117 E0.03452
G1 X71.390 Y130.602 E0.03452
G1 X70.324 Y130.878 E0.03452
G1 X69.224 Y130.934 E0.03452
G1 X68.136 Y130.767 E0.03452
G1 X67.104 Y130.385 E0.03452
G1 X66.170 Y129.802 E0.03452
G1 X65.372 Y129.044 E0.03452
G1 X64.743 Y128.140 E0.03452
G1 X64.309 Y127.129 E0.03452
G1 X64.087 Y126.050 E0.03452
G1 X64.087 Y124.950 E0.03452
G1 X64.309 Y123.871 E0.03452
G1 X64.743 Y122.860 E0.03452
G1 X65.372 Y121.956 E0.03452
G1 X66.170 Y121.198 E0.03452
