; generated by PrusaSlicer 2.3.1+win64 on 2021-06-08 at 20:29:20 UTC

; 

; external perimeters extrusion width = 0.45mm
; perimeters extrusion width = 0.45mm
; infill extrusion width = 0.45mm
; solid infill extrusion width = 0.45mm
; top infill extrusion width = 0.40mm
; support material extrusion width = 0.38mm
; first layer extrusion width = 0.42mm

M201 X500 Y500 Z100 E5000 ; sets maximum accelerations, mm/sec^2
M203 X500 Y500 Z10 E60 ; sets maximum feedrates, mm/sec
M204 P500 R1000 T500 ; sets acceleration (P, T) and retract acceleration (R), mm/sec^2
M205 X8.00 Y8.00 Z0.40 E5.00 ; sets the jerk limits, mm/sec
M205 S0 T0 ; sets the minimum extruding and travel feed rate, mm/sec
M107
;TYPE:Custom
G90 ; use absolute coordinates
M83 ; extruder relative mode
M104 S120 ; set temporary nozzle temp to prevent oozing during homing and auto bed leveling
M140 S70 ; set final bed temp
G4 S10 ; allow partial nozzle warmup
G28 ; home all axis
G1 Z50 F240
G1 X2 Y10 F3000
M104 S200 ; set final nozzle temp
M190 S70 ; wait for bed temp to stabilize
M109 S200 ; wait for nozzle temp to stabilize
G1 Z0.28 F240
G92 E0
G1 Y140 E10 F1500 ; prime the nozzle
G1 X2.3 F5000
G92 E0
G1 Y10 E10 F1200 ; prime the nozzle
G92 E0
G21 ; set units to millimeters
G90 ; use absolute coordinates
M83 ; use relative distances for extrusion
; Filament gcode
;LAYER_CHANGE
;Z:0.2
;HEIGHT:0.2
;BEFORE_LAYER_CHANGE
G92 E0
;0.2


G1 E-5.00000 F3600.000
G1 Z0.200 F6000.000
;AFTER_LAYER_CHANGE
;0.2
G1 X50.782 Y92.351
G1 E5.00000 F2400.000
M204 S500
;TYPE:Skirt
;WIDTH:0.42
G1 F600.000
G1 X52.236 Y92.124 E0.04615
G1 X176.255 Y92.123 E3.88851
G1 X176.909 Y92.188 E0.02061
G1 X177.538 Y92.378 E0.02061
G1 X178.114 Y92.684 E0.02047
G1 X178.624 Y93.099 E0.02061
G1 X182.897 Y97.403 E0.19018
G1 X183.427 Y98.355 E0.03416
G1 X183.626 Y99.422 E0.03402
G1 X183.585 Y132.033 E1.02252
G1 X183.282 Y132.986 E0.03134
G1 X182.711 Y133.812 E0.03148
G1 X178.520 Y138.001 E0.18579
G1 X177.961 Y138.412 E0.02174
G1 X177.326 Y138.701 E0.02188
G1 X176.256 Y138.877 E0.03402
G1 X52.164 Y138.876 E3.89081
G1 X50.820 Y138.661 E0.04268
G1 X50.013 Y138.331 E0.02732
G1 X49.479 Y138.005 E0.01962
G1 X48.799 Y137.447 E0.02759
G1 X48.236 Y136.759 E0.02787
G1 X47.920 Y136.240 E0.01905
G1 X47.601 Y135.468 E0.02618
G1 X47.373 Y134.020 E0.04597
G1 X47.382 Y96.751 E1.16855
G1 X47.490 Y95.947 E0.02542
G1 X47.659 Y95.373 E0.01877
G1 X48.021 Y94.571 E0.02759
G1 X48.518 Y93.873 E0.02688
G1 X48.949 Y93.412 E0.01976
G1 X49.617 Y92.897 E0.02646
G1 X50.728 Y92.377 E0.03844
G1 E-3.50000 F3600.000
;WIPE_START
G1 F4800.000
G1 X52.236 Y92.124 E-1.08975
G1 X52.707 Y92.124 E-0.33525
;WIPE_END
G1 E-0.07500 F3600.000
G1 X56.676 Y104.216 F6000.000
G1 E5.00000 F2400.000
;TYPE:Support material
G1 F600.000
G1 X56.676 Y105.971 E0.05502
G1 X56.808 Y106.658 E0.02191
G1 X57.098 Y107.383 E0.02449
G1 X57.430 Y107.899 E0.01923
G1 X57.430 Y103.101 E0.15041
G1 X57.520 Y102.960 E0.00526
G1 X58.059 Y102.395 E0.02449
G1 X58.184 Y102.306 E0.00479
G1 X58.184 Y108.694 E0.20027
G1 X58.696 Y109.058 E0.01970
G1 X58.938 Y109.169 E0.00835
G1 X58.938 Y101.831 E0.23006
G1 X59.406 Y101.617 E0.01614
G1 X59.692 Y101.548 E0.00923
G1 X59.692 Y109.452 E0.24782
G1 X60.165 Y109.567 E0.01526
G1 X60.446 Y109.580 E0.00882
G1 X60.446 Y101.420 E0.25586
G1 X60.945 Y101.396 E0.01567
G1 X61.201 Y101.433 E0.00808
G1 X61.201 Y109.567 E0.25505
G1 X61.719 Y109.493 E0.01641
G1 X61.955 Y109.411 E0.00783
G1 X61.955 Y101.589 E0.24526
G1 X62.457 Y101.763 E0.01666
G1 X62.709 Y101.908 E0.00913
G1 X62.709 Y109.092 E0.22523
G1 X63.133 Y108.847 E0.01536
G1 X63.463 Y108.561 E0.01368
G1 X63.463 Y102.439 E0.19195
G1 X63.724 Y102.665 E0.01081
G1 X64.217 Y103.300 E0.02522
G1 X64.217 Y107.982 E0.14681
G1 E-3.50000 F3600.000
;WIPE_START
G1 F4800.000
G1 X64.217 Y105.982 E-1.42500
;WIPE_END
G1 E-0.07500 F3600.000
G1 X77.038 Y103.397 F6000.000
G1 E5.00000 F2400.000
G1 F600.000
G1 X77.038 Y107.232 E0.12024
G1 X77.098 Y107.383 E0.00509
G1 X77.520 Y108.040 E0.02449
G1 X77.792 Y108.325 E0.01234
G1 X77.792 Y102.675 E0.17713
G1 X78.059 Y102.395 E0.01215
G1 X78.546 Y102.048 E0.01874
G1 X78.546 Y108.952 E0.21645
G1 X78.696 Y109.058 E0.00576
G1 X79.300 Y109.334 E0.02084
G1 X79.300 Y101.666 E0.24044
G1 X79.406 Y101.617 E0.00365
G1 X80.055 Y101.460 E0.02092
G1 X80.055 Y109.540 E0.25333
G1 X80.165 Y109.567 E0.00357
G1 X80.809 Y109.597 E0.02020
G1 X80.809 Y101.403 E0.25694
G1 X80.945 Y101.396 E0.00429
G1 X81.563 Y101.485 E0.01956
G1 X81.563 Y109.515 E0.25178
G1 X81.719 Y109.493 E0.00493
G1 X82.317 Y109.286 E0.01985
G1 X82.317 Y101.714 E0.23739
G1 X82.457 Y101.763 E0.00464
G1 X83.071 Y102.117 E0.02224
G1 X83.071 Y108.883 E0.21211
G1 X83.724 Y108.335 E0.02670
G1 X83.825 Y108.206 E0.00516
G1 X83.825 Y102.794 E0.16967
G1 X84.206 Y103.279 E0.01933
G1 X84.579 Y104.025 E0.02616
G1 X84.579 Y107.368 E0.10481
G1 E-3.50000 F3600.000
;WIPE_START
G1 F4800.000
G1 X84.579 Y105.368 E-1.42500
;WIPE_END
G1 E-0.07500 F3600.000
G1 X84.579 Y127.368 F6000.000
G1 E5.00000 F2400.000
G1 F600.000
G1 X84.579 Y124.025 E0.10481
G1 X84.206 Y123.279 E0.02616
G1 X83.825 Y122.794 E0.01933
G1 X83.825 Y128.206 E0.16967
G1 X83.724 Y128.335 E0.00516
G1 X83.071 Y128.883 E0.02670
G1 X83.071 Y122.117 E0.21211
G1 X82.457 Y121.763 E0.02224
G1 X82.317 Y121.714 E0.00464
G1 X82.317 Y129.286 E0.23739
G1 X81.719 Y129.493 E0.01985
G1 X81.563 Y129.515 E0.00493
G1 X81.563 Y121.485 E0.25178
G1 X80.945 Y121.396 E0.01956
G1 X80.809 Y121.403 E0.00429
G1 X80.809 Y129.597 E0.25694
G1 X80.165 Y129.567 E0.02020
G1 X80.055 Y129.540 E0.00357
G1 X80.055 Y121.460 E0.25333
G1 X79.406 Y121.617 E0.02092
G1 X79.300 Y121.666 E0.00365
G1 X79.300 Y129.334 E0.24044
G1 X78.696 Y129.058 E0.02084
G1 X78.546 Y128.952 E0.00575
G1 X78.546 Y122.048 E0.21645
G1 X78.059 Y122.395 E0.01874
G1 X77.792 Y122.675 E0.01215
G1 X77.792 Y128.325 E0.17713
G1 X77.520 Y128.040 E0.01234
G1 X77.098 Y127.383 E0.02449
G1 X77.038 Y127.232 E0.00509
G1 X77.038 Y123.397 E0.12024
G1 E-3.50000 F3600.000
;WIPE_START
G1 F4800.000
G1 X77.038 Y125.397 E-1.42500
;WIPE_END
G1 E-0.07500 F3600.000
G1 X64.217 Y127.982 F6000.000
G1 E5.00000 F2400.000
G1 F600.000
G1 X64.217 Y123.300 E0.14681
G1 X63.724 Y122.665 E0.02522
G1 X63.463 Y122.439 E0.01081
G1 X63.463 Y128.561 E0.19195
G1 X63.133 Y128.847 E0.01368
G1 X62.709 Y129.092 E0.01536
G1 X62.709 Y121.908 E0.22523
G1 X62.457 Y121.763 E0.00913
G1 X61.955 Y121.589 E0.01666
G1 X61.955 Y129.411 E0.24526
G1 X61.719 Y129.493 E0.00783
G1 X61.201 Y129.567 E0.01641
G1 X61.201 Y121.433 E0.25505
G1 X60.945 Y121.396 E0.00808
G1 X60.446 Y121.420 E0.01567
G1 X60.446 Y129.580 E0.25586
G1 X60.165 Y129.567 E0.00882
G1 X59.692 Y129.452 E0.01526
G1 X59.692 Y121.548 E0.24782
G1 X59.406 Y121.617 E0.00923
G1 X58.938 Y121.831 E0.01614
G1 X58.938 Y129.169 E0.23006
G1 X58.696 Y129.058 E0.00835
G1 X58.184 Y128.694 E0.01970
G1 X58.184 Y122.306 E0.20027
G1 X58.059 Y122.395 E0.00479
G1 X57.520 Y122.960 E0.02449
G1 X57.430 Y123.101 E0.00526
G1 X57.430 Y127.899 E0.15041
G1 X57.098 Y127.383 E0.01923
G1 X56.808 Y126.658 E0.02449
G1 X56.676 Y125.971 E0.02191
G1 X56.676 Y124.216 E0.05502
G1 E-3.50000 F3600.000
;WIPE_START
G1 F4800.000
G1 X56.676 Y125.971 E-1.25037
G1 X56.722 Y126.212 E-0.17463
;WIPE_END
G1 E-0.07500 F3600.000
G1 X118.498 Y114.438 F6000.000
G1 E5.00000 F2400.000
;TYPE:Perimeter
G1 F600.000
G1 X118.498 Y116.562 E0.06660
G1 X112.394 Y116.562 E0.19140
G1 X112.329 Y116.951 E0.01236
G1 X111.978 Y117.929 E0.03257
G1 X111.458 Y118.828 E0.03257
G1 X110.784 Y119.618 E0.03257
G1 X109.979 Y120.275 E0.03257
G1 X109.070 Y120.778 E0.03257
G1 X108.085 Y121.108 E0.03257
G1 X107.057 Y121.257 E0.03257
G1 X106.019 Y121.218 E0.03257
G1 X105.004 Y120.994 E0.03257
G1 X104.047 Y120.592 E0.03257
G1 X103.177 Y120.024 E0.03257
G1 X102.423 Y119.309 E0.03257
G1 X101.809 Y118.471 E0.03257
G1 X101.356 Y117.536 E0.03257
G1 X101.079 Y116.535 E0.03257
G1 X100.985 Y115.500 E0.03257
G1 X101.079 Y114.465 E0.03257
G1 X101.356 Y113.464 E0.03257
G1 X101.809 Y112.529 E0.03257
G1 X102.423 Y111.691 E0.03257
G1 X103.177 Y110.976 E0.03257
G1 X104.047 Y110.408 E0.03257
G1 X105.004 Y110.006 E0.03257
G1 X106.019 Y109.782 E0.03257
G1 X107.057 Y109.743 E0.03257
G1 X108.085 Y109.892 E0.03257
G1 X109.070 Y110.222 E0.03257
G1 X109.979 Y110.725 E0.03257
G1 X110.784 Y111.382 E0.03257
G1 X111.458 Y112.172 E0.03257
G1 X111.978 Y113.071 E0.03257
G1 X112.329 Y114.049 E0.03257
G1 X112.394 Y114.438 E0.01236
G1 X118.438 Y114.438 E0.18952
G1 X118.121 Y114.815 F6000.000
;TYPE:External perimeter
G1 F600.000
G1 X118.121 Y116.185 E0.04296
G1 X112.074 Y116.185 E0.18960
G1 X111.963 Y116.856 E0.02131
G1 X111.635 Y117.769 E0.03043
G1 X111.148 Y118.609 E0.03043
G1 X110.519 Y119.348 E0.03043
G1 X109.767 Y119.962 E0.03043
G1 X108.917 Y120.431 E0.03043
G1 X107.997 Y120.740 E0.03043
G1 X107.037 Y120.879 E0.03043
G1 X106.067 Y120.843 E0.03043
G1 X105.119 Y120.633 E0.03043
G1 X104.224 Y120.257 E0.03043
G1 X103.411 Y119.727 E0.03043
G1 X102.707 Y119.059 E0.03043
G1 X102.134 Y118.275 E0.03043
G1 X101.711 Y117.402 E0.03043
G1 X101.451 Y116.467 E0.03043
G1 X101.364 Y115.500 E0.03043
G1 X101.451 Y114.533 E0.03043
G1 X101.711 Y113.598 E0.03043
G1 X102.134 Y112.725 E0.03043
G1 X102.707 Y111.941 E0.03043
G1 X103.411 Y111.273 E0.03043
G1 X104.224 Y110.743 E0.03043
G1 X105.119 Y110.367 E0.03043
G1 X106.067 Y110.157 E0.03043
G1 X107.037 Y110.121 E0.03043
G1 X107.997 Y110.260 E0.03043
G1 X108.917 Y110.569 E0.03043
G1 X109.767 Y111.038 E0.03043
G1 X110.519 Y111.652 E0.03043
G1 X111.148 Y112.391 E0.03043
G1 X111.635 Y113.231 E0.03043
G1 X111.963 Y114.144 E0.03043
G1 X112.074 Y114.815 E0.02131
G1 X118.061 Y114.815 E0.18772
G1 X118.521 Y114.829 F6000.000
G1 E-3.50000 F3600.000
;WIPE_START
G1 F4800.000
G1 X118.121 Y116.185 E-0.97706
G1 X117.492 Y116.185 E-0.44794
;WIPE_END
G1 E-0.07500 F3600.000
G1 X105.082 Y125.153 F6000.000
G1 E5.00000 F2400.000
;TYPE:Perimeter
G1 F600.000
G1 X105.351 Y125.803 E0.02204
G1 X105.443 Y126.500 E0.02204
G1 X105.351 Y127.197 E0.02204
G1 X105.082 Y127.847 E0.02204
G1 X104.654 Y128.404 E0.02204
G1 X104.097 Y128.832 E0.02204
G1 X103.447 Y129.101 E0.02204
G1 X102.750 Y129.193 E0.02204
G1 X102.053 Y129.101 E0.02204
G1 X101.403 Y128.832 E0.02204
G1 X100.846 Y128.404 E0.02204
G1 X100.418 Y127.847 E0.02204
G1 X100.149 Y127.197 E0.02204
G1 X100.057 Y126.500 E0.02204
G1 X100.149 Y125.803 E0.02204
G1 X100.418 Y125.153 E0.02204
G1 X100.846 Y124.596 E0.02204
G1 X101.403 Y124.168 E0.02204
G1 X102.053 Y123.899 E0.02204
G1 X102.723 Y123.810 E0.02120
G1 X103.444 Y123.898 E0.02276
G1 X104.097 Y124.168 E0.02214
G1 X104.654 Y124.596 E0.02204
G1 X105.046 Y125.106 E0.02016
G1 X104.747 Y125.335 F6000.000
;TYPE:External perimeter
G1 F600.000
G1 X104.984 Y125.901 E0.01924
G1 X105.063 Y126.500 E0.01893
G1 X104.984 Y127.099 E0.01893
G1 X104.753 Y127.656 E0.01893
G1 X104.385 Y128.135 E0.01893
G1 X103.906 Y128.503 E0.01893
G1 X103.349 Y128.734 E0.01893
G1 X102.750 Y128.813 E0.01893
G1 X102.151 Y128.734 E0.01893
G1 X101.594 Y128.503 E0.01893
G1 X101.115 Y128.135 E0.01893
G1 X100.747 Y127.656 E0.01893
G1 X100.516 Y127.099 E0.01893
G1 X100.437 Y126.500 E0.01893
G1 X100.516 Y125.901 E0.01893
G1 X100.747 Y125.344 E0.01893
G1 X101.115 Y124.865 E0.01893
G1 X101.594 Y124.497 E0.01893
G1 X102.151 Y124.266 E0.01893
G1 X102.725 Y124.191 E0.01815
G1 X103.348 Y124.266 E0.01965
G1 X103.906 Y124.497 E0.01897
G1 X104.385 Y124.865 E0.01893
G1 X104.710 Y125.288 E0.01672
G1 X105.147 Y125.334 F6000.000
G1 E-3.50000 F3600.000
;WIPE_START
G1 F4800.000
G1 X104.984 Y125.901 E-0.47875
G1 X105.063 Y126.500 E-0.43016
G1 X104.984 Y127.099 E-0.43016
G1 X104.938 Y127.210 E-0.08593
;WIPE_END
G1 E-0.07500 F3600.000
G1 X86.190 Y125.500 F6000.000
G1 E5.00000 F2400.000
;TYPE:Perimeter
G1 F600.000
G1 X86.092 Y126.530 E0.03243
G1 X85.801 Y127.522 E0.03243
G1 X85.327 Y128.441 E0.03243
G1 X84.687 Y129.254 E0.03243
G1 X83.906 Y129.931 E0.03243
G1 X83.010 Y130.449 E0.03243
G1 X82.033 Y130.787 E0.03243
G1 X81.009 Y130.934 E0.03243
G1 X79.976 Y130.885 E0.03243
G1 X78.971 Y130.641 E0.03243
G1 X78.030 Y130.211 E0.03243
G1 X77.187 Y129.611 E0.03243
G1 X76.474 Y128.863 E0.03243
G1 X75.915 Y127.993 E0.03243
G1 X75.530 Y127.033 E0.03243
G1 X75.334 Y126.017 E0.03243
G1 X75.334 Y124.983 E0.03243
G1 X75.530 Y123.967 E0.03243
G1 X75.915 Y123.007 E0.03243
G1 X76.474 Y122.137 E0.03243
G1 X77.187 Y121.389 E0.03243
G1 X78.030 Y120.789 E0.03243
G1 X78.971 Y120.359 E0.03243
G1 X79.976 Y120.115 E0.03243
G1 X81.009 Y120.066 E0.03243
G1 X82.033 Y120.213 E0.03243
G1 X83.010 Y120.551 E0.03243
G1 X83.906 Y121.069 E0.03243
G1 X84.687 Y121.746 E0.03243
G1 X85.327 Y122.559 E0.03243
G1 X85.801 Y123.478 E0.03243
G1 X86.092 Y124.470 E0.03243
G1 X86.185 Y125.440 E0.03055
G1 X85.809 Y125.476 F6000.000
;TYPE:External perimeter
G1 F600.000
G1 X85.720 Y126.458 E0.03091
G1 X85.449 Y127.381 E0.03017
G1 X85.008 Y128.236 E0.03017
G1 X84.413 Y128.993 E0.03017
G1 X83.686 Y129.623 E0.03017
G1 X82.853 Y130.104 E0.03017
G1 X81.943 Y130.419 E0.03017
G1 X80.991 Y130.556 E0.03017
G1 X80.030 Y130.510 E0.03017
G1 X79.095 Y130.283 E0.03017
G1 X78.219 Y129.883 E0.03017
G1 X77.435 Y129.325 E0.03017
G1 X76.771 Y128.629 E0.03017
G1 X76.251 Y127.819 E0.03017
G1 X75.894 Y126.926 E0.03017
G1 X75.712 Y125.981 E0.03017
G1 X75.712 Y125.019 E0.03017
G1 X75.894 Y124.074 E0.03017
G1 X76.251 Y123.181 E0.03017
G1 X76.771 Y122.371 E0.03017
G1 X77.435 Y121.675 E0.03017
G1 X78.219 Y121.117 E0.03017
G1 X79.095 Y120.717 E0.03017
G1 X80.030 Y120.490 E0.03017
G1 X80.991 Y120.444 E0.03017
G1 X81.943 Y120.581 E0.03017
G1 X82.853 Y120.896 E0.03017
G1 X83.686 Y121.377 E0.03017
G1 X84.413 Y122.007 E0.03017
G1 X85.008 Y122.764 E0.03017
G1 X85.449 Y123.619 E0.03017
G1 X85.720 Y124.542 E0.03017
G1 X85.803 Y125.416 E0.02754
G1 X86.156 Y125.675 F6000.000
G1 E-3.50000 F3600.000
;WIPE_START
G1 F4800.000
G1 X85.720 Y126.458 E-0.74444
G1 X85.451 Y127.374 E-0.68056
;WIPE_END
G1 E-0.07500 F3600.000
G1 X66.190 Y125.500 F6000.000
G1 E5.00000 F2400.000
;TYPE:Perimeter
G1 F600.000
G1 X66.092 Y126.530 E0.03243
G1 X65.801 Y127.522 E0.03243
G1 X65.327 Y128.441 E0.03243
G1 X64.687 Y129.254 E0.03243
G1 X63.906 Y129.931 E0.03243
G1 X63.010 Y130.449 E0.03243
G1 X62.033 Y130.787 E0.03243
G1 X61.009 Y130.934 E0.03243
G1 X59.976 Y130.885 E0.03243
G1 X58.971 Y130.641 E0.03243
G1 X58.030 Y130.211 E0.03243
G1 X57.187 Y129.611 E0.03243
G1 X56.474 Y128.863 E0.03243
G1 X55.915 Y127.993 E0.03243
G1 X55.530 Y127.033 E0.03243
G1 X55.334 Y126.017 E0.03243
G1 X55.334 Y124.983 E0.03243
G1 X55.530 Y123.967 E0.03243
G1 X55.915 Y123.007 E0.03243
G1 X56.474 Y122.137 E0.03243
G1 X57.187 Y121.389 E0.03243
G1 X58.030 Y120.789 E0.03243
G1 X58.971 Y120.359 E0.03243
G1 X59.976 Y120.115 E0.03243
G1 X61.009 Y120.066 E0.03243
G1 X62.033 Y120.213 E0.03243
G1 X63.010 Y120.551 E0.03243
G1 X63.906 Y121.069 E0.03243
G1 X64.687 Y121.746 E0.03243
G1 X65.327 Y122.559 E0.03243
G1 X65.801 Y123.478 E0.03243
G1 X66.092 Y124.470 E0.03243
G1 X66.185 Y125.440 E0.03055
G1 X65.809 Y125.476 F6000.000
;TYPE:External perimeter
G1 F600.000
G1 X65.720 Y126.458 E0.03091
G1 X65.449 Y127.381 E0.03017
G1 X65.008 Y128.236 E0.03017
G1 X64.413 Y128.993 E0.03017
G1 X63.686 Y129.623 E0.03017
G1 X62.853 Y130.104 E0.03017
G1 X61.943 Y130.419 E0.03017
G1 X60.991 Y130.556 E0.03017
G1 X60.030 Y130.510 E0.03017
G1 X59.095 Y130.283 E0.03017
G1 X58.219 Y129.883 E0.03017
G1 X57.435 Y129.325 E0.03017
G1 X56.771 Y128.629 E0.03017
G1 X56.251 Y127.819 E0.03017
G1 X55.894 Y126.926 E0.03017
G1 X55.712 Y125.981 E0.03017
G1 X55.712 Y125.019 E0.03017
G1 X55.894 Y124.074 E0.03017
G1 X56.251 Y123.181 E0.03017
G1 X56.771 Y122.371 E0.03017
G1 X57.435 Y121.675 E0.03017
G1 X58.219 Y121.117 E0.03017
G1 X59.095 Y120.717 E0.03017
G1 X60.030 Y120.490 E0.03017
G1 X60.991 Y120.444 E0.03017
G1 X61.943 Y120.581 E0.03017
G1 X62.853 Y120.896 E0.03017
G1 X63.686 Y121.377 E0.03017
G1 X64.413 Y122.007 E0.03017
G1 X65.008 Y122.764 E0.03017
G1 X65.449 Y123.619 E0.03017
G1 X65.720 Y124.542 E0.03017
G1 X65.803 Y125.416 E0.02754
G1 X66.156 Y125.675 F6000.000
G1 E-3.50000 F3600.000
;WIPE_START
G1 F4800.000
G1 X65.720 Y126.458 E-0.74444
G1 X65.451 Y127.374 E-0.68056
;WIPE_END
